;FLAVOR:Marlin
;TIME:1112
;Filament used: 1.14001m
;Layer height: 0.16
;Generated with Cura_SteamEngine 3.6.0
M140 S65
M105
M190 S65
M104 S205
M105
M109 S205
M82 ;absolute extrusion mode
; Ender 3 Custom Start G-code
M203 80 ; Increase the Max Extruder speed.
M117 Homing...
G28 ; Home all axes
M117 Priming Nozzle...
G92 E0 ; Reset Extruder
G1 Z2.0 F3000 ; Move Z Axis up little to prevent scratching of Heat Bed
G1 X0.0 Y20 Z0.3 F5000.0 ; Move to start position
G1 X0.0 Y100.0 Z0.3 F1500.0 E8 ; Draw the first line
G1 X0.3 Y100.0 Z0.3 F5000.0 ; Move to side a little
G1 X0.3 Y30 Z0.3 F1500.0 E12 ; Draw the second line
G1 E11 F250;(Small retract)
G92 E0 ; Reset Extruder
G1 Z2.0 F3000 ; Move Z Axis up little to prevent scratching of Heat Bed
M117 Printing...
; End of custom start GCode
G92 E0
G1 F3600 E-4.5
;LAYER_COUNT:31
;LAYER:0
M117 INDICATOR-Layer0
M107
G0 F3600 X92.013 Y102.758 Z0.24
;TYPE:SKIRT
G1 F3600 E0
G1 F1800 X92.266 Y102.571 E0.01231
G1 X92.614 Y102.351 E0.02841
G1 X93.109 Y102.119 E0.04979
G1 X93.53 Y101.982 E0.06711
G1 X93.939 Y101.891 E0.0835
G1 X94.21 Y101.874 E0.09412
G1 X140.551 Y101.845 E1.9067
G1 X141.109 Y101.917 E1.9287
G1 X141.785 Y102.094 E1.95604
G1 X142.179 Y102.238 E1.97244
G1 X142.517 Y102.439 E1.98782
G1 X142.997 Y102.786 E2.01099
G1 X143.312 Y103.063 E2.0274
G1 X143.509 Y103.305 E2.0396
G1 X143.839 Y103.775 E2.06207
G1 X144.046 Y104.139 E2.07844
G1 X144.125 Y104.343 E2.087
G1 X144.264 Y104.76 E2.10419
G1 X144.358 Y105.169 E2.12061
G1 X144.377 Y105.458 E2.13194
G1 X144.36 Y129.613 E3.07673
G1 X144.272 Y130.228 E3.10103
G1 X144.246 Y130.317 E3.10466
G1 X144.147 Y130.589 E3.11598
G1 X143.958 Y131.017 E3.13428
G1 X143.752 Y131.382 E3.15068
G1 X143.575 Y131.605 E3.16181
G1 X143.141 Y132.084 E3.18709
G1 X142.832 Y132.366 E3.20346
G1 X142.564 Y132.539 E3.21593
G1 X142.12 Y132.781 E3.23571
G1 X141.571 Y132.99 E3.25869
G1 X141.142 Y133.091 E3.27593
G1 X140.638 Y133.15 E3.29578
G1 X94.308 Y133.143 E5.10792
G1 X93.891 Y133.103 E5.12431
G1 X93.552 Y133.009 E5.13807
G1 X92.855 Y132.754 E5.1671
G1 X92.477 Y132.573 E5.18349
G1 X92.154 Y132.337 E5.19914
G1 X91.724 Y131.957 E5.22158
G1 X91.438 Y131.65 E5.238
G1 X91.199 Y131.263 E5.25579
G1 X90.85 Y130.539 E5.28722
G1 X90.705 Y130.146 E5.30361
G1 X90.632 Y129.588 E5.32562
G1 X90.592 Y105.762 E6.25755
G1 X90.656 Y105.233 E6.27839
G1 X90.838 Y104.493 E6.3082
G1 X90.976 Y104.097 E6.3246
G1 X91.254 Y103.647 E6.34529
G1 X91.722 Y103.06 E6.37465
G1 X92.013 Y102.758 E6.39106
G0 F3600 X92.301 Y103.039
G1 F1800 X92.48 Y102.91 E6.39969
G1 X92.828 Y102.69 E6.41579
G1 X93.233 Y102.499 E6.43331
G1 X93.654 Y102.362 E6.45062
G1 X94.21 Y102.274 E6.47264
G1 X140.551 Y102.245 E8.28522
G1 X141.008 Y102.304 E8.30324
G1 X141.684 Y102.481 E8.33058
G1 X142.038 Y102.615 E8.34538
G1 X142.283 Y102.763 E8.35658
G1 X142.763 Y103.11 E8.37974
G1 X143.045 Y103.363 E8.39456
G1 X143.181 Y103.535 E8.40314
G1 X143.511 Y104.005 E8.4256
G1 X143.746 Y104.47 E8.44598
G1 X143.885 Y104.887 E8.46317
G1 X143.966 Y105.257 E8.47799
G1 X143.977 Y105.457 E8.48582
G1 X143.96 Y129.612 E9.43062
G1 X143.888 Y130.116 E9.45053
G1 X143.862 Y130.205 E9.45416
G1 X143.781 Y130.427 E9.4634
G1 X143.592 Y130.855 E9.4817
G1 X143.403 Y131.184 E9.49654
G1 X143.279 Y131.337 E9.50425
G1 X142.845 Y131.816 E9.52953
G1 X142.562 Y132.068 E9.54435
G1 X142.372 Y132.187 E9.55312
G1 X141.928 Y132.429 E9.5729
G1 X141.479 Y132.601 E9.5917
G1 X141.05 Y132.702 E9.60894
G1 X140.638 Y132.75 E9.62517
G1 X94.308 Y132.743 E11.43731
G1 X93.931 Y132.703 E11.45214
G1 X93.69 Y132.633 E11.46196
G1 X92.993 Y132.378 E11.49099
G1 X92.652 Y132.211 E11.50584
G1 X92.419 Y132.037 E11.51721
G1 X91.989 Y131.657 E11.53966
G1 X91.733 Y131.377 E11.5545
G1 X91.56 Y131.09 E11.56761
G1 X91.211 Y130.366 E11.59904
G1 X91.083 Y130.009 E11.61388
G1 X91.032 Y129.587 E11.6305
G1 X90.992 Y105.761 E12.56243
G1 X91.044 Y105.328 E12.57949
G1 X91.226 Y104.588 E12.6093
G1 X91.355 Y104.232 E12.62411
G1 X91.567 Y103.896 E12.63965
G1 X92.035 Y103.309 E12.66901
G1 X92.301 Y103.039 E12.68384
G0 F3600 X92.694 Y103.248
G1 F1800 X93.042 Y103.028 E12.69994
G1 X93.357 Y102.88 E12.71355
G1 X93.778 Y102.743 E12.73087
G1 X94.21 Y102.674 E12.74798
G1 X140.551 Y102.645 E14.56056
G1 X140.907 Y102.691 E14.5746
G1 X141.583 Y102.868 E14.60193
G1 X141.893 Y102.99 E14.61496
G1 X142.048 Y103.087 E14.62212
G1 X142.528 Y103.434 E14.64528
G1 X142.854 Y103.765 E14.66345
G1 X143.184 Y104.235 E14.68592
G1 X143.366 Y104.596 E14.70173
G1 X143.505 Y105.013 E14.71892
G1 X143.577 Y105.457 E14.73652
G1 X143.56 Y129.612 E15.68131
G1 X143.504 Y130.004 E15.6968
G1 X143.478 Y130.093 E15.70043
G1 X143.415 Y130.266 E15.70763
G1 X143.226 Y130.694 E15.72593
G1 X142.982 Y131.068 E15.7434
G1 X142.548 Y131.547 E15.76868
G1 X142.181 Y131.836 E15.78695
G1 X141.737 Y132.078 E15.80673
G1 X141.388 Y132.212 E15.82135
G1 X140.959 Y132.313 E15.83859
G1 X140.638 Y132.35 E15.85123
G1 X94.308 Y132.343 E17.66338
G1 X93.827 Y132.258 E17.68248
G1 X93.13 Y132.003 E17.71151
G1 X92.832 Y131.851 E17.7246
G1 X92.684 Y131.737 E17.7319
G1 X92.254 Y131.357 E17.75435
G1 X92.032 Y131.108 E17.7674
G1 X91.92 Y130.916 E17.77609
G1 X91.571 Y130.192 E17.80753
G1 X91.463 Y129.876 E17.82059
G1 X91.432 Y129.586 E17.832
G1 X91.392 Y105.76 E18.76393
G1 X91.433 Y105.424 E18.77717
G1 X91.615 Y104.684 E18.80697
G1 X91.732 Y104.371 E18.82004
G1 X91.879 Y104.145 E18.83059
G1 X92.347 Y103.558 E18.85995
G1 X92.694 Y103.248 E18.87815
G0 F3600 X92.908 Y103.586
G1 F1800 X93.256 Y103.366 E18.89426
G1 X93.481 Y103.26 E18.90398
G1 X93.902 Y103.123 E18.9213
G1 X94.21 Y103.074 E18.9335
G1 X140.551 Y103.045 E20.74608
G1 X140.805 Y103.078 E20.7561
G1 X141.481 Y103.255 E20.78343
G1 X141.814 Y103.412 E20.79783
G1 X142.294 Y103.759 E20.821
G1 X142.526 Y103.994 E20.83391
G1 X142.856 Y104.464 E20.85637
G1 X142.987 Y104.723 E20.86773
G1 X143.126 Y105.14 E20.88492
G1 X143.177 Y105.457 E20.89748
G1 X143.16 Y129.612 E21.84228
G1 X143.12 Y129.891 E21.8533
G1 X143.094 Y129.98 E21.85693
G1 X143.049 Y130.104 E21.86209
G1 X142.86 Y130.532 E21.88039
G1 X142.686 Y130.799 E21.89285
G1 X142.252 Y131.278 E21.91813
G1 X141.99 Y131.485 E21.93119
G1 X141.546 Y131.727 E21.95097
G1 X141.296 Y131.822 E21.96143
G1 X140.867 Y131.923 E21.97867
G1 X140.638 Y131.95 E21.98769
G1 X94.308 Y131.943 E23.79984
G1 X93.964 Y131.882 E23.8135
G1 X93.267 Y131.627 E23.84253
G1 X92.949 Y131.437 E23.85702
G1 X92.519 Y131.057 E23.87947
G1 X92.28 Y130.742 E23.89493
G1 X91.931 Y130.018 E23.92637
G1 X91.846 Y129.749 E23.93741
G1 X91.832 Y129.586 E23.9438
G1 X91.792 Y105.76 E24.87573
G1 X91.821 Y105.519 E24.88523
G1 X92.003 Y104.779 E24.91504
G1 X92.108 Y104.517 E24.92608
G1 X92.192 Y104.395 E24.93187
G1 X92.66 Y103.808 E24.96123
G1 X92.908 Y103.586 E24.97425
G1 F3600 E20.47425
;MESH:Base V2.stl
G0 F3600 X93.393 Y103.699
G0 X93.437 Y103.708
G0 X122.348 Y110.417
G0 X122.411 Y110.431
G0 X122.455 Y110.442
G0 X124.478 Y109.654
;TYPE:WALL-INNER
G1 F3600 E24.97425
G1 F1800 X124.374 Y109.399 E24.98502
G1 X124.075 Y109.07 E25.00241
G1 X123.735 Y108.882 E25.01761
G1 X123.446 Y108.804 E25.02932
G1 X121.787 Y108.8 E25.09421
G1 X121.458 Y108.853 E25.10724
G1 X121.085 Y109.044 E25.12363
G1 X120.328 Y109.826 E25.1662
G1 X120.221 Y109.936 E25.17221
G1 X120.099 Y110.061 E25.17904
G1 X120.099 Y110.06 E25.17908
G1 X120.079 Y109.799 E25.18787
G1 X120.021 Y109.657 E25.1926
G1 X119.916 Y109.399 E25.20349
G1 X119.617 Y109.069 E25.22091
G1 X119.275 Y108.882 E25.23615
G1 X118.982 Y108.804 E25.24801
G1 X117.202 Y108.804 E25.31764
G1 X116.806 Y108.934 E25.33394
G1 X116.533 Y109.136 E25.34722
G1 X115.839 Y109.853 E25.38625
G1 X115.835 Y109.857 E25.38647
G1 X115.67 Y110.027 E25.39574
G1 X115.651 Y110.046 E25.39679
G1 X115.654 Y110.013
G1 X115.556 Y109.587 E25.40818
G1 X115.553 Y109.582 E25.4084
G1 X115.318 Y109.219 E25.42532
G1 X114.979 Y108.949 E25.44227
G1 X114.564 Y108.804 E25.45946
G1 X112.871 Y108.8 E25.52568
G1 X112.542 Y108.853 E25.53872
G1 X112.169 Y109.044 E25.55511
G1 X111.383 Y109.855 E25.59928
G1 X111.38 Y109.858 E25.59945
G1 X111.214 Y110.03 E25.6088
G1 X111.195 Y110.049 E25.60985
G1 X111.195 Y110.048 E25.60989
G1 X111.198 Y110.015 E25.61071
G1 X111.098 Y109.586 E25.62222
G1 X111.096 Y109.582 E25.6224
G1 X110.86 Y109.219 E25.63933
G1 X110.521 Y108.949 E25.65628
G1 X110.104 Y108.804 E25.67355
G1 X108.286 Y108.804 E25.74466
G1 X107.89 Y108.934 E25.76096
G1 X107.617 Y109.136 E25.77425
G1 X106.923 Y109.853 E25.81328
G1 X106.919 Y109.857 E25.8135
G1 X106.754 Y110.027 E25.82276
G1 X106.735 Y110.046 E25.82381
G1 X106.738 Y110.013
G1 X106.64 Y109.587 E25.8352
G1 X106.637 Y109.582 E25.83543
G1 X106.402 Y109.219 E25.85234
G1 X106.063 Y108.949 E25.86929
G1 X105.648 Y108.804 E25.88649
G1 X103.955 Y108.8 E25.95271
G1 X103.626 Y108.853 E25.96574
G1 X103.253 Y109.044 E25.98213
G1 X102.434 Y109.888 E26.02813
G1 X102.269 Y110.058 E26.0374
G1 X102.188 Y110.142 E26.04196
G1 X102.192 Y109.983 E26.04383
G1 X102.115 Y109.759 E26.0502
G1 X102.062 Y109.605 E26.05657
G1 X101.896 Y109.343 E26.0687
G1 X101.585 Y109.063 E26.08507
G1 X101.21 Y108.915 E26.10084
G1 X100.937 Y108.878 E26.11162
G1 X100.664 Y108.897 E26.12232
G1 X100.286 Y109.004 E26.13769
G1 X99.971 Y109.125 E26.15089
G1 X99.662 Y109.272 E26.16427
G1 X99.364 Y109.449 E26.17783
G1 X99.092 Y109.645 E26.19094
G1 X98.832 Y109.865 E26.20426
G1 X98.592 Y110.108 E26.21762
G1 X98.373 Y110.37 E26.23098
G1 X98.176 Y110.652 E26.24443
G1 X98.008 Y110.944 E26.25761
G1 X97.862 Y111.251 E26.27091
G1 X97.743 Y111.575 E26.28441
G1 X97.634 Y111.971 E26.30047
G1 X97.603 Y112.228 E26.3106
G1 X97.665 Y112.638 E26.32682
G1 X97.862 Y112.999 E26.3429
G1 X98.076 Y113.225 E26.35507
G1 X98.417 Y113.439 E26.37082
G1 X98.52 Y113.462 E26.37495
G1 X98.81 Y113.526 E26.38657
G1 X98.909 Y113.522 E26.39044
G1 X98.86 Y113.572
G1 X98.654 Y113.785 E26.39782
G1 X97.778 Y114.688 E26.44703
G1 X97.599 Y115.05 E26.46282
G1 X97.55 Y115.371 E26.47553
G1 X97.554 Y117.108 E26.54347
G1 X97.703 Y117.521 E26.56064
G1 X97.978 Y117.867 E26.57793
G1 X98.357 Y118.1 E26.59533
G1 X98.47 Y118.126 E26.59986
G1 X98.792 Y118.197 E26.61276
G1 X98.84 Y118.191 E26.61465
G1 X98.815 Y118.217
G1 X98.585 Y118.453 E26.62233
G1 X98.311 Y118.736 E26.63773
G1 X98.129 Y119.104 E26.65379
G1 X98.071 Y119.509 E26.66979
G1 X98.139 Y119.91 E26.6857
G1 X98.3 Y120.222 E26.69943
G1 X98.527 Y120.503 E26.71356
G1 X98.73 Y120.719 E26.72516
G1 X98.947 Y120.921 E26.73675
G1 X99.189 Y121.113 E26.74884
G1 X99.611 Y121.386 E26.7685
G1 X100.057 Y121.486 E26.78637
G1 X100.498 Y121.428 E26.80377
G1 X100.893 Y121.233 E26.821
G1 X101.257 Y120.858 E26.84144
G1 X101.376 Y120.735 E26.84814
G1 X101.49 Y120.618 E26.85453
G1 X101.512 Y120.866 E26.85862
G1 X101.567 Y121.029 E26.86384
G1 X101.614 Y121.165 E26.86946
G1 X101.851 Y121.499 E26.88548
G1 X102.211 Y121.764 E26.90297
G1 X102.549 Y121.857 E26.91668
G1 X102.871 Y121.903 E26.9294
G1 X103.048 Y121.938 E26.93646
G1 X103.289 Y122.002 E26.94621
G1 X103.705 Y122.132 E26.96326
G1 X104.114 Y122.144 E26.97926
G1 X104.432 Y122.04 E26.99235
G1 X104.504 Y122.016 E26.99532
G1 X104.534 Y122.348 E27.00419
G1 X104.634 Y122.634 E27.01604
G1 X104.803 Y122.886 E27.02791
G1 X105.05 Y123.16 E27.04234
G1 X105.185 Y123.332 E27.05089
G1 X105.471 Y123.743 E27.07048
G1 X105.753 Y123.969 E27.08461
G1 X106.02 Y124.095 E27.09616
G1 X106.406 Y124.166 E27.11151
G1 X106.495 Y124.154 E27.11503
G1 X106.613 Y124.136 E27.1197
G1 X106.592 Y124.215 E27.12003
G1 X106.535 Y124.425 E27.12541
G1 X106.561 Y124.863 E27.14257
G1 X106.733 Y125.263 E27.15961
G1 X106.991 Y125.554 E27.17482
G1 X107.189 Y125.688 E27.18417
G1 X107.508 Y125.849 E27.19815
G1 X107.821 Y125.974 E27.21133
G1 X108.141 Y126.071 E27.22441
G1 X108.46 Y126.139 E27.23716
G1 X108.48 Y126.144 E27.23797
G1 X108.977 Y126.199 E27.25753
G1 X109.373 Y126.121 E27.27332
G1 X109.714 Y125.928 E27.28864
G1 X110.443 Y125.176 E27.32961
G1 X110.55 Y125.066 E27.33561
G1 X110.674 Y124.938 E27.34258
G1 X110.69 Y125.201 E27.34688
G1 X110.75 Y125.343 E27.35162
G1 X110.862 Y125.607 E27.36284
G1 X111.156 Y125.93 E27.37992
G1 X111.496 Y126.118 E27.39512
G1 X111.787 Y126.196 E27.4069
G1 X113.571 Y126.196 E27.47668
G1 X113.97 Y126.066 E27.4931
G1 X114.241 Y125.862 E27.50636
G1 X114.901 Y125.181 E27.54346
G1 X115.01 Y125.069 E27.54957
G1 X115.132 Y124.943 E27.55643
G1 X115.148 Y125.201 E27.5606
G1 X115.209 Y125.345 E27.56538
G1 X115.32 Y125.607 E27.57651
G1 X115.614 Y125.93 E27.59359
G1 X115.954 Y126.118 E27.60879
G1 X116.245 Y126.196 E27.62058
G1 X118.029 Y126.196 E27.69035
G1 X118.425 Y126.066 E27.70666
G1 X118.698 Y125.864 E27.71994
G1 X119.36 Y125.181 E27.75714
G1 X119.469 Y125.069 E27.76326
G1 X119.591 Y124.943 E27.77012
G1 X119.606 Y125.201 E27.77429
G1 X119.667 Y125.345 E27.77907
G1 X119.778 Y125.607 E27.7902
G1 X120.072 Y125.93 E27.80728
G1 X120.412 Y126.118 E27.82248
G1 X120.703 Y126.196 E27.83426
G1 X122.487 Y126.196 E27.90404
G1 X122.883 Y126.066 E27.92034
G1 X123.156 Y125.864 E27.93363
G1 X123.818 Y125.181 E27.97083
G1 X123.927 Y125.069 E27.97694
G1 X124.049 Y124.943 E27.9838
G1 X124.064 Y125.201 E27.98797
G1 X124.125 Y125.345 E27.99275
G1 X124.236 Y125.607 E28.00388
G1 X124.53 Y125.93 E28.02097
G1 X124.87 Y126.118 E28.03616
G1 X125.161 Y126.196 E28.04795
G1 X126.945 Y126.196 E28.11773
G1 X127.341 Y126.066 E28.13403
G1 X127.614 Y125.864 E28.14731
G1 X128.276 Y125.181 E28.18452
G1 X128.385 Y125.069 E28.19063
G1 X128.507 Y124.943 E28.19749
G1 X128.522 Y125.201 E28.20166
G1 X128.583 Y125.345 E28.20644
G1 X128.694 Y125.607 E28.21757
G1 X128.988 Y125.93 E28.23465
G1 X129.328 Y126.118 E28.24985
G1 X129.619 Y126.196 E28.26163
G1 X131.403 Y126.196 E28.33141
G1 X131.799 Y126.066 E28.34771
G1 X132.072 Y125.864 E28.361
G1 X132.925 Y124.983 E28.40896
G1 X133.019 Y124.887 E28.41422
G1 X133.148 Y124.754 E28.42146
G1 X133.174 Y125.039 E28.42653
G1 X133.228 Y125.162 E28.43079
G1 X133.35 Y125.437 E28.44256
G1 X133.655 Y125.761 E28.45996
G1 X134.013 Y125.947 E28.47574
G1 X134.317 Y126.013 E28.48791
G1 X134.727 Y125.996 E28.50396
G1 X135.224 Y125.787 E28.52505
G1 X135.529 Y125.618 E28.53869
G1 X135.811 Y125.43 E28.55195
G1 X136.076 Y125.218 E28.56522
G1 X136.321 Y124.986 E28.57842
G1 X136.547 Y124.733 E28.59169
G1 X136.751 Y124.461 E28.60499
G1 X136.929 Y124.173 E28.61823
G1 X136.935 Y124.16 E28.61879
G1 X137.074 Y123.89 E28.63067
G1 X137.083 Y123.874 E28.63138
G1 X137.222 Y123.539 E28.64557
G1 X137.285 Y123.3 E28.65524
G1 X137.285 Y122.902 E28.67081
G1 X137.142 Y122.488 E28.68794
G1 X136.866 Y122.135 E28.70546
G1 X136.525 Y121.925 E28.72113
G1 X136.4 Y121.884 E28.72627
G1 X136.237 Y121.832 E28.73297
G1 X135.99 Y121.819 E28.74264
G1 X136.102 Y121.703 E28.74334
G1 X136.221 Y121.581 E28.74849
G1 X137.22 Y120.55 E28.80465
G1 X137.401 Y120.19 E28.82041
G1 X137.45 Y119.867 E28.83318
G1 X137.446 Y118.13 E28.90113
G1 X137.297 Y117.717 E28.9183
G1 X137.022 Y117.371 E28.93559
G1 X136.644 Y117.138 E28.95295
G1 X136.53 Y117.112 E28.95753
G1 X136.214 Y117.041 E28.9702
G1 X136.158 Y117.048 E28.9724
G1 X136.188 Y117.017
G1 X136.413 Y116.785 E28.98001
G1 X136.764 Y116.423 E28.99973
G1 X136.919 Y116.158 E29.01174
G1 X137.022 Y115.77 E29.02744
G1 X136.99 Y115.333 E29.04458
G1 X136.842 Y114.99 E29.05919
G1 X136.632 Y114.695 E29.07336
G1 X136.444 Y114.464 E29.08501
G1 X136.235 Y114.246 E29.09682
G1 X136.008 Y114.041 E29.10878
G1 X135.615 Y113.749 E29.12793
G1 X135.213 Y113.626 E29.14438
G1 X134.803 Y113.627 E29.16041
G1 X134.406 Y113.762 E29.17681
G1 X134.142 Y113.964 E29.18982
G1 X133.956 Y114.156 E29.20027
G1 X133.829 Y114.287 E29.20741
G1 X133.721 Y114.398 E29.21347
G1 X133.709 Y114.171 E29.21691
G1 X133.645 Y114 E29.22229
G1 X133.562 Y113.78 E29.23149
G1 X133.288 Y113.448 E29.24832
G1 X132.965 Y113.249 E29.26316
G1 X132.703 Y113.162 E29.27396
G1 X132.294 Y113.121 E29.29004
G1 X132.08 Y113.087 E29.29851
G1 X131.854 Y113.037 E29.30757
G1 X131.425 Y112.92 E29.32496
G1 X131.032 Y112.921 E29.34033
G1 X130.847 Y112.984 E29.34798
G1 X130.64 Y113.054 E29.35652
G1 X130.613 Y113.074 E29.35784
G1 X130.616 Y113.051
G1 X130.618 Y113.037
G1 X130.583 Y112.821 E29.36335
G1 X130.552 Y112.636 E29.37069
G1 X130.367 Y112.287 E29.38614
