;FLAVOR:Marlin
;TIME:328
;Filament used: 0.185827m
;Layer height: 0.2
;Generated with Cura_SteamEngine 3.2.1
M82 ;absolute extrusion mode
;; START Cleaning
M117 Cleaningg	; Indicate nozzle clean in progress on LCD
M82 		;set extruder to absolute mode
M107 		;start with the fan off
G21 		;metric values
G90 		;absolute positioning
G28 		;Home (X/Y/Z=0)
;M109 S202		; Nozzel-Temp
G0 Z15 F9000
G0 X20 Y50 Z0.3 F500; Startposition for Cleaning
G92 E0              ; Set extruder to [0] zero
G1 X80 E25 F500	; alt X190 E50Extrude for cleaning
G92 E0              ; Reset extruder to [0] zero end of cleaning run
G1 E-3 F500         ; Retract filiment by 3 mm to reduce string effect
G1 Z15		; Save home-position			; Z Save-Postion
G1 X0 Y0 Z15 F9000
G1 F9000
M117 Printing...
;LAYER_COUNT:51
;LAYER:0
M117 INDICATOR-Layer0
M107
G0 F1500 X105.139 Y129.161 Z0.2
;TYPE:SKIRT
G1 F900 X105.325 Y129.028 E0.00761
G1 X106.419 Y128.314 E0.05106
G1 X106.957 Y128.045 E0.07106
G1 X107.899 Y127.705 E0.10437
G1 X108.484 Y127.568 E0.12435
G1 X109.786 Y127.418 E0.16795
G1 X110.242 Y127.406 E0.18312
G1 X110.471 Y127.43 E0.19078
G1 X111.781 Y127.627 E0.23484
G1 X112.224 Y127.734 E0.24999
G1 X112.442 Y127.819 E0.25778
G1 X113.652 Y128.352 E0.30175
G1 X114.051 Y128.571 E0.31689
G1 X114.239 Y128.709 E0.32465
G1 X115.263 Y129.537 E0.36845
G1 X115.591 Y129.854 E0.38362
G1 X115.733 Y130.033 E0.39122
G1 X116.508 Y131.102 E0.43513
G1 X116.742 Y131.493 E0.45029
G1 X116.833 Y131.704 E0.45793
G1 X117.297 Y132.925 E0.50138
G1 X117.421 Y133.364 E0.51655
G1 X117.454 Y133.59 E0.52415
G1 X117.586 Y134.909 E0.56824
G1 X117.576 Y135.516 E0.58843
G1 X117.443 Y136.5 E0.62145
G1 X117.325 Y136.996 E0.63841
G1 X117.006 Y137.925 E0.67108
G1 X116.746 Y138.468 E0.6911
G1 X116.036 Y139.594 E0.73538
G1 X115.76 Y139.956 E0.75052
G1 X115.596 Y140.122 E0.75828
G1 X114.635 Y141.005 E0.80169
G1 X114.274 Y141.282 E0.81682
G1 X114.075 Y141.397 E0.82447
G1 X112.894 Y142.011 E0.86874
G1 X112.329 Y142.226 E0.88884
G1 X111.366 Y142.468 E0.92187
G1 X110.772 Y142.546 E0.94179
G1 X109.46 Y142.566 E0.98544
G1 X108.859 Y142.505 E1.00553
G1 X107.886 Y142.29 E1.03867
G1 X107.322 Y142.095 E1.05852
G1 X106.138 Y141.527 E1.1022
G1 X105.701 Y141.262 E1.1192
G1 X105.178 Y140.869 E1.14095
G1 X104.854 Y140.58 E1.15539
G1 X104.164 Y139.853 E1.18873
G1 X103.802 Y139.369 E1.20883
G1 X103.136 Y138.222 E1.25295
G1 X102.897 Y137.673 E1.27286
G1 X102.609 Y136.727 E1.30575
G1 X102.501 Y136.131 E1.3259
G1 X102.419 Y134.813 E1.36982
G1 X102.466 Y134.136 E1.39239
G1 X102.725 Y132.858 E1.43576
G1 X102.854 Y132.421 E1.45092
G1 X102.947 Y132.211 E1.45856
G1 X103.537 Y131.031 E1.50244
G1 X103.776 Y130.643 E1.51759
G1 X103.924 Y130.462 E1.52537
G1 X104.807 Y129.473 E1.56947
G1 X105.139 Y129.161 E1.58462
G0 F9000 X105.544 Y129.363
G1 F9000 X106.638 Y128.649 E1.62807
G1 X107.093 Y128.422 E1.64498
G1 X108.035 Y128.082 E1.67829
G1 X108.53 Y127.965 E1.69521
G1 X109.832 Y127.815 E1.7388
G1 X110.411 Y127.825 E1.75806
G1 X111.721 Y128.022 E1.80212
G1 X112.281 Y128.185 E1.82152
G1 X113.491 Y128.718 E1.8655
G1 X113.987 Y129.02 E1.88481
G1 X115.011 Y129.848 E1.92861
G1 X115.409 Y130.268 E1.94785
G1 X116.184 Y131.337 E1.99177
G1 X116.46 Y131.846 E2.01103
G1 X116.924 Y133.067 E2.05447
G1 X117.056 Y133.63 E2.07371
G1 X117.188 Y134.949 E2.1178
G1 X117.179 Y135.463 E2.13489
G1 X117.046 Y136.447 E2.16792
G1 X116.947 Y136.866 E2.18224
G1 X116.628 Y137.795 E2.21491
G1 X116.408 Y138.254 E2.23184
G1 X115.698 Y139.38 E2.27611
G1 X115.326 Y139.827 E2.29545
G1 X114.365 Y140.71 E2.33886
G1 X113.891 Y141.042 E2.35811
G1 X112.71 Y141.656 E2.40238
G1 X112.231 Y141.838 E2.41942
G1 X111.268 Y142.08 E2.45245
G1 X110.766 Y142.146 E2.46929
G1 X109.454 Y142.166 E2.51293
G1 X108.945 Y142.114 E2.52995
G1 X107.972 Y141.899 E2.56309
G1 X107.495 Y141.735 E2.57987
G1 X106.311 Y141.167 E2.62355
G1 X105.941 Y140.942 E2.63795
G1 X105.418 Y140.549 E2.65971
G1 X105.144 Y140.304 E2.67193
G1 X104.454 Y139.577 E2.70527
G1 X104.147 Y139.168 E2.72228
G1 X103.481 Y138.021 E2.76639
G1 X103.279 Y137.557 E2.78322
G1 X102.991 Y136.611 E2.81611
G1 X102.9 Y136.107 E2.83315
G1 X102.818 Y134.789 E2.87707
G1 X102.858 Y134.215 E2.89621
G1 X103.117 Y132.937 E2.93958
G1 X103.305 Y132.39 E2.95882
G1 X103.895 Y131.21 E3.0027
G1 X104.222 Y130.729 E3.02204
G1 X105.105 Y129.74 E3.06614
G1 X105.544 Y129.363 E3.08538
G0 F9000 X105.762 Y129.698
G1 F9000 X106.856 Y128.984 E3.12883
G1 X107.229 Y128.798 E3.1427
G1 X108.171 Y128.458 E3.17601
G1 X108.576 Y128.363 E3.18984
G1 X109.878 Y128.213 E3.23343
G1 X110.352 Y128.221 E3.2492
G1 X111.662 Y128.418 E3.29326
G1 X112.12 Y128.551 E3.30912
G1 X113.33 Y129.084 E3.3531
G1 X113.736 Y129.331 E3.36891
G1 X114.76 Y130.159 E3.41271
G1 X115.085 Y130.502 E3.42842
G1 X115.86 Y131.571 E3.47234
G1 X116.086 Y131.989 E3.48814
G1 X116.55 Y133.21 E3.53159
G1 X116.658 Y133.67 E3.5473
G1 X116.79 Y134.989 E3.59139
G1 X116.783 Y135.409 E3.60536
G1 X116.65 Y136.393 E3.63839
G1 X116.568 Y136.737 E3.65015
G1 X116.249 Y137.666 E3.68282
G1 X116.07 Y138.041 E3.69664
G1 X115.36 Y139.167 E3.74092
G1 X115.055 Y139.532 E3.75674
G1 X114.094 Y140.415 E3.80014
G1 X113.706 Y140.687 E3.8159
G1 X112.525 Y141.301 E3.86017
G1 X112.134 Y141.45 E3.87409
G1 X111.171 Y141.692 E3.90712
G1 X110.759 Y141.746 E3.92094
G1 X109.447 Y141.766 E3.96458
G1 X109.032 Y141.724 E3.97845
G1 X108.059 Y141.509 E4.0116
G1 X107.668 Y141.374 E4.02535
G1 X106.484 Y140.806 E4.06903
G1 X106.182 Y140.622 E4.08079
G1 X105.659 Y140.229 E4.10255
G1 X105.434 Y140.029 E4.11256
G1 X104.744 Y139.302 E4.1459
G1 X104.493 Y138.967 E4.15982
G1 X103.827 Y137.82 E4.20394
G1 X103.662 Y137.44 E4.21772
G1 X103.374 Y136.494 E4.25061
G1 X103.299 Y136.082 E4.26454
G1 X103.217 Y134.764 E4.30846
G1 X103.25 Y134.294 E4.32413
G1 X103.509 Y133.016 E4.3675
G1 X103.663 Y132.569 E4.38322
G1 X104.253 Y131.389 E4.4271
G1 X104.52 Y130.995 E4.44293
G1 X105.403 Y130.006 E4.48703
G1 X105.762 Y129.698 E4.50276
G0 F9000 X105.981 Y130.033
G1 F9000 X107.075 Y129.319 E4.54621
G1 X107.365 Y129.174 E4.557
G1 X108.307 Y128.834 E4.59031
G1 X108.622 Y128.76 E4.60107
G1 X109.924 Y128.61 E4.64466
G1 X110.292 Y128.617 E4.6569
G1 X111.602 Y128.814 E4.70096
G1 X111.958 Y128.917 E4.71329
G1 X113.168 Y129.45 E4.75726
G1 X113.484 Y129.642 E4.76956
G1 X114.508 Y130.47 E4.81336
G1 X114.761 Y130.737 E4.8256
G1 X115.536 Y131.806 E4.86951
G1 X115.712 Y132.131 E4.8818
G1 X116.176 Y133.352 E4.92525
G1 X116.26 Y133.71 E4.93748
G1 X116.392 Y135.029 E4.98157
G1 X116.386 Y135.356 E4.99245
G1 X116.253 Y136.34 E5.02547
G1 X116.19 Y136.607 E5.0346
G1 X115.871 Y137.536 E5.06727
G1 X115.731 Y137.828 E5.07804
G1 X115.021 Y138.954 E5.12231
G1 X114.784 Y139.238 E5.13461
G1 X113.823 Y140.121 E5.17802
G1 X113.522 Y140.332 E5.19025
G1 X112.341 Y140.946 E5.23452
G1 X112.036 Y141.062 E5.24537
G1 X111.073 Y141.304 E5.2784
G1 X110.753 Y141.346 E5.28913
G1 X109.441 Y141.366 E5.33277
G1 X109.118 Y141.333 E5.34357
G1 X108.145 Y141.118 E5.37672
G1 X107.841 Y141.013 E5.38741
G1 X106.657 Y140.445 E5.43109
G1 X106.422 Y140.302 E5.44024
G1 X105.899 Y139.909 E5.462
G1 X105.725 Y139.754 E5.46975
G1 X105.035 Y139.027 E5.50309
G1 X104.839 Y138.766 E5.51394
G1 X104.173 Y137.619 E5.55806
G1 X104.045 Y137.324 E5.56875
G1 X103.757 Y136.378 E5.60164
G1 X103.699 Y136.057 E5.61249
G1 X103.617 Y134.739 E5.65641
G1 X103.642 Y134.374 E5.66858
G1 X103.901 Y133.096 E5.71195
G1 X104.021 Y132.748 E5.72419
G1 X104.611 Y131.568 E5.76807
G1 X104.819 Y131.262 E5.78038
G1 X105.702 Y130.273 E5.82448
G1 X105.981 Y130.033 E5.83672
G0 F9000 X106.199 Y130.368
G1 F9000 X107.293 Y129.654 E5.88017
G1 X107.501 Y129.55 E5.8879
G1 X108.443 Y129.21 E5.92121
G1 X108.668 Y129.158 E5.92889
G1 X109.97 Y129.008 E5.97248
G1 X110.233 Y129.012 E5.98123
G1 X111.543 Y129.209 E6.02529
G1 X111.797 Y129.283 E6.03409
G1 X113.007 Y129.816 E6.07807
G1 X113.233 Y129.953 E6.08686
G1 X114.257 Y130.781 E6.13066
G1 X114.438 Y130.972 E6.13941
G1 X115.213 Y132.041 E6.18333
G1 X115.338 Y132.273 E6.19209
G1 X115.802 Y133.494 E6.23554
G1 X115.862 Y133.749 E6.24425
G1 X115.994 Y135.068 E6.28834
G1 X115.99 Y135.302 E6.29612
G1 X115.857 Y136.286 E6.32915
G1 X115.812 Y136.477 E6.33567
G1 X115.493 Y137.406 E6.36834
G1 X115.393 Y137.614 E6.37602
G1 X114.683 Y138.74 E6.42029
G1 X114.514 Y138.943 E6.42908
G1 X113.553 Y139.826 E6.47249
G1 X113.337 Y139.977 E6.48125
G1 X112.156 Y140.591 E6.52552
G1 X111.939 Y140.674 E6.53325
G1 X110.976 Y140.916 E6.56628
G1 X110.747 Y140.946 E6.57396
G1 X109.435 Y140.966 E6.6176
G1 X109.204 Y140.942 E6.62532
G1 X108.231 Y140.727 E6.65847
G1 X108.014 Y140.653 E6.66609
G1 X106.83 Y140.085 E6.70977
G1 X106.662 Y139.982 E6.71632
G1 X106.139 Y139.589 E6.73808
G1 X106.015 Y139.478 E6.74362
G1 X105.325 Y138.751 E6.77696
G1 X105.185 Y138.565 E6.7847
G1 X104.519 Y137.418 E6.82881
G1 X104.427 Y137.207 E6.83647
G1 X104.139 Y136.261 E6.86936
G1 X104.098 Y136.032 E6.8771
G1 X104.016 Y134.714 E6.92102
G1 X104.034 Y134.453 E6.92972
G1 X104.293 Y133.175 E6.97309
G1 X104.379 Y132.927 E6.98182
G1 X104.969 Y131.747 E7.0257
G1 X105.117 Y131.528 E7.03449
G1 X106 Y130.539 E7.07859
G1 X106.199 Y130.368 E7.08731
G0 F9000 X106.418 Y130.703
G1 F9000 X107.512 Y129.989 E7.13077
G1 X107.636 Y129.927 E7.13538
G1 X108.578 Y129.587 E7.16869
G1 X108.713 Y129.555 E7.1733
G1 X110.015 Y129.405 E7.21689
G1 X110.173 Y129.408 E7.22215
G1 X111.483 Y129.605 E7.26621
G1 X111.636 Y129.649 E7.2715
G1 X112.846 Y130.182 E7.31548
G1 X112.981 Y130.264 E7.32073
G1 X114.005 Y131.092 E7.36453
G1 X114.114 Y131.207 E7.3698
G1 X114.889 Y132.276 E7.41372
G1 X114.964 Y132.415 E7.41897
G1 X115.428 Y133.636 E7.46242
G1 X115.464 Y133.789 E7.46764
G1 X115.596 Y135.108 E7.51173
G1 X115.594 Y135.248 E7.51639
G1 X115.461 Y136.232 E7.54941
G1 X115.433 Y136.347 E7.55335
G1 X115.114 Y137.276 E7.58602
G1 X115.055 Y137.401 E7.59062
G1 X114.345 Y138.527 E7.63489
G1 X114.243 Y138.649 E7.64018
G1 X113.282 Y139.532 E7.68359
G1 X113.153 Y139.622 E7.68882
G1 X111.972 Y140.236 E7.73309
G1 X111.841 Y140.286 E7.73776
G1 X110.878 Y140.528 E7.77078
G1 X110.741 Y140.546 E7.77538
G1 X109.429 Y140.566 E7.81902
G1 X109.291 Y140.552 E7.82363
G1 X108.318 Y140.337 E7.85678
G1 X108.187 Y140.292 E7.86138
G1 X107.003 Y139.724 E7.90506
G1 X106.903 Y139.663 E7.90896
G1 X106.38 Y139.27 E7.93071
G1 X106.305 Y139.203 E7.93406
G1 X105.615 Y138.476 E7.9674
G1 X105.531 Y138.364 E7.97205
G1 X104.865 Y137.217 E8.01617
G1 X104.81 Y137.091 E8.02074
G1 X104.522 Y136.145 E8.05363
G1 X104.497 Y136.007 E8.05829
G1 X104.415 Y134.689 E8.10222
G1 X104.426 Y134.533 E8.10742
G1 X104.685 Y133.255 E8.15079
G1 X104.736 Y133.106 E8.15603
G1 X105.326 Y131.926 E8.1999
G1 X105.415 Y131.794 E8.2052
G1 X106.298 Y130.805 E8.2493
G1 X106.418 Y130.703 E8.25454
G0 F9000 X106.637 Y131.038
G1 F9000 X107.731 Y130.324 E8.29799
G1 X107.772 Y130.303 E8.29952
G1 X108.714 Y129.963 E8.33283
G1 X108.759 Y129.952 E8.33437
G1 X110.061 Y129.802 E8.37796
G1 X110.114 Y129.803 E8.37972
G1 X111.424 Y130 E8.42378
G1 X111.475 Y130.015 E8.42555
G1 X112.685 Y130.548 E8.46953
G1 X112.73 Y130.575 E8.47127
G1 X113.754 Y131.403 E8.51507
G1 X113.79 Y131.442 E8.51684
G1 X114.565 Y132.511 E8.56075
G1 X114.59 Y132.557 E8.56249
G1 X115.054 Y133.778 E8.60594
G1 X115.066 Y133.829 E8.60768
G1 X115.198 Y135.148 E8.65177
G1 X115.197 Y135.195 E8.65333
G1 X115.064 Y136.179 E8.68636
G1 X115.055 Y136.217 E8.68766
G1 X114.736 Y137.146 E8.72033
G1 X114.716 Y137.188 E8.72188
G1 X114.006 Y138.314 E8.76615
G1 X113.972 Y138.354 E8.7679
G1 X113.011 Y139.237 E8.8113
G1 X112.968 Y139.267 E8.81305
G1 X111.787 Y139.881 E8.85732
G1 X111.744 Y139.898 E8.85886
G1 X110.781 Y140.14 E8.89188
G1 X110.735 Y140.146 E8.89342
G1 X109.423 Y140.166 E8.93707
G1 X109.377 Y140.161 E8.93861
G1 X108.404 Y139.946 E8.97175
G1 X108.36 Y139.931 E8.97329
G1 X107.176 Y139.363 E9.01697
G1 X107.143 Y139.343 E9.01826
G1 X106.62 Y138.95 E9.04001
G1 X106.595 Y138.928 E9.04112
G1 X105.905 Y138.201 E9.07446
G1 X105.877 Y138.163 E9.07603
G1 X105.211 Y137.016 E9.12014
G1 X105.193 Y136.974 E9.12166
G1 X104.905 Y136.028 E9.15455
G1 X104.896 Y135.982 E9.15611
G1 X104.814 Y134.664 E9.20003
G1 X104.818 Y134.612 E9.20177
G1 X105.077 Y133.334 E9.24514
G1 X105.094 Y133.285 E9.24686
G1 X105.684 Y132.105 E9.29074
G1 X105.714 Y132.061 E9.29251
G1 X106.597 Y131.072 E9.33661
G1 X106.637 Y131.038 E9.33836
G1 F2700 E2.83836
G0 F9000 X107.609 Y131.331
G0 X109.79 Y130.705
G0 X109.763 Y130.206
;TYPE:WALL-OUTER
G1 F2700 E9.33836
G1 F9000 X110.084 Y130.201 E9.34903
G1 X110.403 Y130.218 E9.35966
G1 X110.718 Y130.254 E9.3702
G1 X111.037 Y130.314 E9.381
G1 X111.342 Y130.391 E9.39146
G1 X111.644 Y130.489 E9.40202
G1 X111.929 Y130.604 E9.41225
G1 X112.218 Y130.743 E9.42291
G1 X112.503 Y130.904 E9.4338
G1 X112.763 Y131.074 E9.44413
G1 X113.016 Y131.266 E9.45469
G1 X113.256 Y131.472 E9.46521
G1 X113.486 Y131.7 E9.47599
G1 X113.689 Y131.928 E9.48614
G1 X113.888 Y132.183 E9.4969
G1 X114.062 Y132.442 E9.50728
G1 X114.229 Y132.727 E9.51826
G1 X114.364 Y132.999 E9.52836
G1 X114.491 Y133.304 E9.53935
G1 X114.595 Y133.605 E9.54994
G1 X114.673 Y133.898 E9.56003
G1 X114.738 Y134.223 E9.57105
G1 X114.777 Y134.525 E9.58118
G1 X114.799 Y134.855 E9.59218
G1 X114.799 Y135.158 E9.60226
G1 X114.776 Y135.488 E9.61326
G1 X114.736 Y135.789 E9.62336
G1 X114.671 Y136.109 E9.63422
G1 X114.591 Y136.406 E9.64445
G1 X114.482 Y136.719 E9.65547
G1 X114.364 Y137.001 E9.66564
G1 X114.221 Y137.29 E9.67636
G1 X114.056 Y137.568 E9.68712
G1 X113.884 Y137.821 E9.69729
G1 X113.681 Y138.082 E9.70829
G1 X113.478 Y138.309 E9.71842
G1 X113.246 Y138.537 E9.72924
G1 X113.007 Y138.742 E9.73971
G1 X112.758 Y138.929 E9.75007
G1 X112.481 Y139.109 E9.76105
G1 X112.216 Y139.258 E9.77117
G1 X111.921 Y139.399 E9.78204
G1 X111.624 Y139.517 E9.79267
G1 X111.327 Y139.614 E9.80306
G1 X111.025 Y139.689 E9.81341
G1 X110.706 Y139.748 E9.8242
G1 X110.392 Y139.783 E9.83471
G1 X110.071 Y139.799 E9.8454
G1 X109.75 Y139.793 E9.85608
G1 X109.447 Y139.768 E9.86619
G1 X109.123 Y139.719 E9.87709
G1 X108.819 Y139.652 E9.88744
G1 X108.511 Y139.562 E9.89812
G1 X108.216 Y139.455 E9.90855
G1 X107.918 Y139.324 E9.91938
G1 X107.645 Y139.182 E9.92961
G1 X107.374 Y139.016 E9.94018
G1 X107.106 Y138.828 E9.95107
G1 X106.868 Y138.637 E9.96122
G1 X106.626 Y138.413 E9.97219
G1 X106.417 Y138.192 E9.98231
G1 X106.211 Y137.944 E9.99303
G1 X106.019 Y137.68 E10.00389
G1 X105.852 Y137.412 E10.01439
G1 X105.704 Y137.138 E10.02475
G1 X105.57 Y136.843 E10.03552
G1 X105.457 Y136.546 E10.04609
G1 X105.367 Y136.252 E10.05632
G1 X105.293 Y135.934 E10.06718
G1 X105.243 Y135.628 E10.07749
G1 X105.212 Y135.313 E10.08802
G1 X105.201 Y135 E10.09844
G1 X105.213 Y134.67 E10.10942
G1 X105.245 Y134.354 E10.11998
G1 X105.296 Y134.054 E10.1301
G1 X105.372 Y133.733 E10.14108
G1 X105.461 Y133.443 E10.15117
G1 X105.58 Y133.134 E10.16218
G1 X105.707 Y132.856 E10.17234
G1 X105.858 Y132.577 E10.1829
G1 X106.027 Y132.309 E10.19343
G1 X106.222 Y132.042 E10.20443
G1 X106.422 Y131.803 E10.2148
G1 X106.636 Y131.578 E10.22512
G1 X106.879 Y131.354 E10.23612
G1 X107.123 Y131.159 E10.2465
G1 X107.377 Y130.982 E10.2568
G1 X107.659 Y130.811 E10.26777
G1 X107.929 Y130.67 E10.2779
G1 X108.222 Y130.542 E10.28854
G1 X108.526 Y130.432 E10.29929
G1 X108.829 Y130.346 E10.30976
G1 X109.134 Y130.279 E10.32015
G1 X109.461 Y130.23 E10.33115
G1 X109.763 Y130.206 E10.34122
G0 F9000 X109.963 Y130.203
G0 X110.37 Y130.616
;TYPE:WALL-INNER
G1 F9000 X110.653 Y130.649 E10.3507
G1 X110.947 Y130.704 E10.36065
G1 X111.244 Y130.779 E10.37084
G1 X111.497 Y130.861 E10.37968
G1 X111.779 Y130.975 E10.3898
G1 X112.026 Y131.094 E10.39892
G1 X112.29 Y131.243 E10.409
G1 X112.53 Y131.4 E10.41854
G1 X112.761 Y131.575 E10.42818
G1 X112.989 Y131.771 E10.43818
G1 X113.196 Y131.976 E10.44787
G1 X113.39 Y132.194 E10.45758
G1 X113.562 Y132.415 E10.46689
G1 X113.725 Y132.657 E10.47659
G1 X113.877 Y132.917 E10.48661
G1 X114 Y133.164 E10.49579
G1 X114.116 Y133.443 E10.50584
G1 X114.21 Y133.717 E10.51547
G1 X114.286 Y134.001 E10.52525
G1 X114.341 Y134.274 E10.53451
G1 X114.38 Y134.576 E10.54464
G1 X114.399 Y134.867 E10.55434
G1 X114.399 Y135.144 E10.56355
G1 X114.379 Y135.435 E10.57326
