;Generated by Cura LulzBot Edition GCodeWriter Version: 3.6.9
;FLAVOR:Marlin
;TIME:535
;Filament used: 0.310099m
;Layer height: 0.22
;Generated with Cura_SteamEngine 3.6.9
M82 ;absolute extrusion mode
;This G-Code has been generated specifically for the LulzBot TAZ 6 with Aerosturder
M73 P0 ; clear GLCD progress bar
M75 ; start GLCD timer
G26 ; clear potential 'probe fail' condition
M107 ; disable fans
M420 S0 ; disable leveling matrix
G90 ; absolute positioning
M82 ; set extruder to absolute mode
G92 E0 ; set extruder position to 0
M140 S110 ; start bed heating up
G28 XY ; home X and Y
G1 X-19 Y258 F1000 ; move to safe homing position
M109 R175 ; soften filament before homing Z
G28 Z ; home Z
G1 E-15 F100 ; retract filament
M109 R170 ; wait for extruder to reach wiping temp
G1 X-15 Y100 F3000 ; move above wiper pad
G1 Z1 ; push nozzle into wiper
G1 X-17 Y95 F1000 ; slow wipe
G1 X-17 Y90 F1000 ; slow wipe
G1 X-17 Y85 F1000 ; slow wipe
G1 X-15 Y90 F1000 ; slow wipe
G1 X-17 Y80 F1000 ; slow wipe
G1 X-15 Y95 F1000 ; slow wipe
G1 X-17 Y75 F2000 ; fast wipe
G1 X-15 Y65 F2000 ; fast wipe
G1 X-17 Y70 F2000 ; fast wipe
G1 X-15 Y60 F2000 ; fast wipe
G1 X-17 Y55 F2000 ; fast wipe
G1 X-15 Y50 F2000 ; fast wipe
G1 X-17 Y40 F2000 ; fast wipe
G1 X-15 Y45 F2000 ; fast wipe
G1 X-17 Y35 F2000 ; fast wipe
G1 X-15 Y40 F2000 ; fast wipe
G1 X-17 Y70 F2000 ; fast wipe
G1 X-15 Y30 Z2 F2000 ; fast wipe
G1 X-17 Y35 F2000 ; fast wipe
G1 X-15 Y25 F2000 ; fast wipe
G1 X-17 Y30 F2000 ; fast wipe
G1 X-15 Y25 Z1.5 F1000 ; slow wipe
G1 X-17 Y23 F1000 ; slow wipe
G1 Z10 ; raise extruder
M109 R170 ; wait for extruder to reach probe temp
G1 X-9 Y-9 ; move above first probe point
M204 S100 ; set probing acceleration
G29 ; start auto-leveling sequence
M420 S1              ; enable leveling matrix
M425 Z			     ; use measured Z backlash for compensation
M425 Z F0		     ; turn off measured Z backlash compensation. (if activated in the quality settings, this command will automatically be ignored)
M204 S500 ; restore standard acceleration
G1 X0 Y0 Z15 F5000 ; move up off last probe point
G4 S1 ; pause
M400 ; wait for moves to finish
M117 Heating... ; progress indicator message on LCD
M109 R240 ; wait for extruder to reach printing temp
M190 S110 ; wait for bed to reach printing temp
G1 Z2 E0 F75 ; prime tiny bit of filament into the nozzle
M117 TAZ 6 Printing... ; progress indicator message on LCD


M221 S100 T0
G92 E0
G1 F600 E-1
;LAYER_COUNT:16
;LAYER:0
M107
G0 F2625 X127.12 Y126.892 Z0.3
;TYPE:SKIRT
G1 F600 E0
G1 F900 X127.574 Y126.526 E0.01371
G1 X128.073 Y126.226 E0.0274
G1 X128.609 Y125.996 E0.04112
G1 X129.171 Y125.842 E0.05482
G1 X130.009 Y125.759 E0.07462
G1 X149.991 Y125.76 E0.54446
G1 X150.573 Y125.8 E0.55818
G1 X151.143 Y125.919 E0.57187
G1 X151.692 Y126.115 E0.58557
G1 X152.209 Y126.384 E0.59928
G1 X152.684 Y126.722 E0.61299
G1 X153.108 Y127.121 E0.62668
G1 X153.474 Y127.575 E0.64039
G1 X153.774 Y128.074 E0.65408
G1 X154.004 Y128.61 E0.66779
G1 X154.158 Y129.172 E0.68149
G1 X154.241 Y130.01 E0.70129
G1 X154.241 Y149.991 E1.17111
G1 X154.201 Y150.572 E1.1848
G1 X154.082 Y151.143 E1.19852
G1 X153.886 Y151.692 E1.21223
G1 X153.617 Y152.208 E1.22591
G1 X153.279 Y152.684 E1.23964
G1 X152.88 Y153.108 E1.25333
G1 X152.426 Y153.474 E1.26704
G1 X151.927 Y153.774 E1.28073
G1 X151.391 Y154.004 E1.29444
G1 X150.829 Y154.158 E1.30814
G1 X149.991 Y154.241 E1.32794
G1 X130.009 Y154.241 E1.79778
G1 X129.428 Y154.201 E1.81148
G1 X128.857 Y154.082 E1.82519
G1 X128.308 Y153.886 E1.8389
G1 X127.792 Y153.617 E1.85258
G1 X127.316 Y153.279 E1.86631
G1 X126.892 Y152.88 E1.88
G1 X126.526 Y152.426 E1.89371
G1 X126.226 Y151.927 E1.9074
G1 X125.996 Y151.391 E1.92111
G1 X125.842 Y150.829 E1.93482
G1 X125.759 Y149.991 E1.95462
G1 X125.759 Y130.009 E2.42446
G1 X125.799 Y129.428 E2.43815
G1 X125.918 Y128.857 E2.45187
G1 X126.114 Y128.308 E2.46557
G1 X126.383 Y127.792 E2.47925
G1 X126.721 Y127.316 E2.49298
G1 X127.12 Y126.892 E2.50667
G0 F2625 X127.61 Y127.127
G1 F900 X128.055 Y126.808 E2.51955
G1 X128.542 Y126.558 E2.53242
G1 X129.06 Y126.381 E2.54529
G1 X129.598 Y126.282 E2.55815
G1 X130.009 Y126.259 E2.56783
G1 X149.991 Y126.26 E3.03767
G1 X150.537 Y126.3 E3.05054
G1 X151.071 Y126.419 E3.06341
G1 X151.583 Y126.615 E3.0763
G1 X152.06 Y126.882 E3.08915
G1 X152.493 Y127.217 E3.10202
G1 X152.873 Y127.611 E3.11489
G1 X153.192 Y128.056 E3.12777
G1 X153.442 Y128.543 E3.14064
G1 X153.619 Y129.061 E3.15351
G1 X153.718 Y129.599 E3.16637
G1 X153.741 Y130.01 E3.17605
G1 X153.741 Y149.991 E3.64587
G1 X153.701 Y150.537 E3.65874
G1 X153.582 Y151.071 E3.67161
G1 X153.387 Y151.582 E3.68447
G1 X153.119 Y152.06 E3.69735
G1 X152.784 Y152.493 E3.71023
G1 X152.39 Y152.873 E3.7231
G1 X151.945 Y153.192 E3.73597
G1 X151.458 Y153.442 E3.74884
G1 X150.94 Y153.619 E3.76171
G1 X150.402 Y153.718 E3.77458
G1 X149.991 Y153.741 E3.78425
G1 X130.009 Y153.741 E4.2541
G1 X129.463 Y153.701 E4.26697
G1 X128.929 Y153.582 E4.27983
G1 X128.418 Y153.387 E4.29269
G1 X127.94 Y153.119 E4.30558
G1 X127.507 Y152.784 E4.31845
G1 X127.127 Y152.39 E4.33132
G1 X126.808 Y151.945 E4.3442
G1 X126.558 Y151.458 E4.35707
G1 X126.381 Y150.94 E4.36994
G1 X126.282 Y150.402 E4.3828
G1 X126.259 Y149.991 E4.39248
G1 X126.259 Y130.009 E4.86232
G1 X126.299 Y129.463 E4.87519
G1 X126.418 Y128.929 E4.88806
G1 X126.613 Y128.418 E4.90092
G1 X126.881 Y127.94 E4.9138
G1 X127.216 Y127.507 E4.92668
G1 X127.61 Y127.127 E4.93955
G0 F2625 X127.709 Y127.713
G1 F900 X128.096 Y127.381 E4.95154
G1 X128.531 Y127.115 E4.96352
G1 X129.001 Y126.919 E4.9755
G1 X129.496 Y126.8 E4.98747
G1 X130.009 Y126.759 E4.99957
G1 X149.991 Y126.76 E5.46941
G1 X150.499 Y126.8 E5.48139
G1 X150.995 Y126.919 E5.49339
G1 X151.465 Y127.114 E5.50535
G1 X151.9 Y127.38 E5.51734
G1 X152.288 Y127.71 E5.52932
G1 X152.619 Y128.098 E5.54131
G1 X152.885 Y128.532 E5.55328
G1 X153.081 Y129.002 E5.56525
G1 X153.2 Y129.498 E5.57724
G1 X153.241 Y130.01 E5.58932
G1 X153.241 Y149.991 E6.05914
G1 X153.201 Y150.499 E6.07112
G1 X153.082 Y150.994 E6.08309
G1 X152.887 Y151.465 E6.09508
G1 X152.621 Y151.9 E6.10707
G1 X152.291 Y152.287 E6.11902
G1 X151.904 Y152.619 E6.13101
G1 X151.469 Y152.885 E6.143
G1 X150.999 Y153.081 E6.15498
G1 X150.504 Y153.2 E6.16695
G1 X149.991 Y153.241 E6.17905
G1 X130.009 Y153.241 E6.64889
G1 X129.501 Y153.201 E6.66087
G1 X129.006 Y153.082 E6.67284
G1 X128.535 Y152.887 E6.68483
G1 X128.1 Y152.621 E6.69682
G1 X127.713 Y152.291 E6.70877
G1 X127.381 Y151.904 E6.72076
G1 X127.115 Y151.469 E6.73275
G1 X126.919 Y150.999 E6.74473
G1 X126.8 Y150.504 E6.7567
G1 X126.759 Y149.991 E6.7688
G1 X126.759 Y130.009 E7.23864
G1 X126.799 Y129.501 E7.25062
G1 X126.918 Y129.006 E7.26259
G1 X127.113 Y128.535 E7.27458
G1 X127.379 Y128.1 E7.28657
G1 X127.709 Y127.713 E7.29852
G1 F600 E6.29852
;MESH:
G0 F2625 X130.764 Y129.335
G0 X130.764 Y130.764
G0 X149.18 Y130.82
G0 X149.25 Y130.75
;TYPE:WALL-INNER
G1 F600 E7.29852
G1 F900 X149.25 Y149.25 E7.73352
G1 X130.75 Y149.25 E8.16851
G1 X130.75 Y130.75 E8.60351
G1 X149.25 Y130.75 E9.0385
G0 F2625 X149.18 Y130.82
G0 X130.82 Y149.18
G0 X130.25 Y149.75
;TYPE:WALL-OUTER
G1 F900 X130.25 Y130.25 E9.49701
G1 X149.75 Y130.25 E9.95552
G1 X149.75 Y149.75 E10.41402
G1 X130.25 Y149.75 E10.87253
G0 F2625 X130.25 Y149.55
G0 X130.82 Y149.18
G0 X131.24 Y148.76
;TYPE:SKIN
G1 F900 X131.24 Y131.24 E11.28448
G1 X148.76 Y131.24 E11.69643
G1 X148.76 Y148.76 E12.10838
G1 X131.24 Y148.76 E12.52034
G0 F2625 X131.563 Y148.534
G1 F900 X131.464 Y148.435 E12.52363
G0 F2625 X131.464 Y147.728
G1 F900 X132.27 Y148.534 E12.55043
G0 F2625 X132.977 Y148.534
G1 F900 X131.464 Y147.02 E12.60076
G0 F2625 X131.464 Y146.313
G1 F900 X133.684 Y148.534 E12.67459
G0 F2625 X134.392 Y148.534
G1 F900 X131.464 Y145.606 E12.77196
G0 F2625 X131.464 Y144.899
G1 F900 X135.099 Y148.534 E12.89283
G0 F2625 X135.806 Y148.534
G1 F900 X131.464 Y144.192 E13.03722
G0 F2625 X131.464 Y143.485
G1 F900 X136.513 Y148.534 E13.20511
G0 F2625 X137.22 Y148.534
G1 F900 X131.464 Y142.778 E13.39651
G0 F2625 X131.464 Y142.071
G1 F900 X137.927 Y148.534 E13.61142
G0 F2625 X138.634 Y148.534
G1 F900 X131.464 Y141.364 E13.84984
G0 F2625 X131.464 Y140.656
G1 F900 X139.341 Y148.534 E14.11179
G0 F2625 X140.048 Y148.534
G1 F900 X131.464 Y139.949 E14.39725
G0 F2625 X131.464 Y139.242
G1 F900 X140.755 Y148.534 E14.70622
G0 F2625 X141.463 Y148.534
G1 F900 X131.464 Y138.535 E15.03871
G0 F2625 X131.464 Y137.828
G1 F900 X142.17 Y148.534 E15.39471
G0 F2625 X142.877 Y148.534
G1 F900 X131.464 Y137.121 E15.77423
G0 F2625 X131.464 Y136.414
G1 F900 X143.584 Y148.534 E16.17725
G0 F2625 X144.291 Y148.534
G1 F900 X131.464 Y135.707 E16.60378
G0 F2625 X131.464 Y135
G1 F900 X144.998 Y148.534 E17.05382
G0 F2625 X145.705 Y148.534
G1 F900 X131.464 Y134.293 E17.52737
G0 F2625 X131.464 Y133.585
G1 F900 X146.412 Y148.534 E18.02445
G0 F2625 X147.119 Y148.534
G1 F900 X131.464 Y132.878 E18.54504
G0 F2625 X131.464 Y132.171
G1 F900 X147.827 Y148.534 E19.08915
G0 F2625 X148.534 Y148.534
G1 F900 X131.464 Y131.464 E19.65678
G0 F2625 X132.171 Y131.464
G1 F900 X148.534 Y147.827 E20.20089
G0 F2625 X148.534 Y147.12
G1 F900 X132.878 Y131.464 E20.72149
G0 F2625 X133.585 Y131.464
G1 F900 X148.534 Y146.413 E21.21859
G0 F2625 X148.534 Y145.706
G1 F900 X134.293 Y131.464 E21.69216
G0 F2625 X135 Y131.464
G1 F900 X148.534 Y144.999 E22.14221
G0 F2625 X148.534 Y144.292
G1 F900 X135.707 Y131.464 E22.56876
G0 F2625 X136.414 Y131.464
G1 F900 X148.534 Y143.585 E22.9718
G0 F2625 X148.534 Y142.877
G1 F900 X137.121 Y131.464 E23.35132
G0 F2625 X137.828 Y131.464
G1 F900 X148.534 Y142.17 E23.70732
G0 F2625 X148.534 Y141.463
G1 F900 X138.535 Y131.464 E24.03981
G0 F2625 X139.242 Y131.464
G1 F900 X148.534 Y140.756 E24.3488
G0 F2625 X148.534 Y140.049
G1 F900 X139.949 Y131.464 E24.63427
G0 F2625 X140.656 Y131.464
G1 F900 X148.534 Y139.342 E24.89623
G0 F2625 X148.534 Y138.635
G1 F900 X141.364 Y131.464 E25.13467
G0 F2625 X142.071 Y131.464
G1 F900 X148.534 Y137.928 E25.3496
G0 F2625 X148.534 Y137.221
G1 F900 X142.778 Y131.464 E25.54102
G0 F2625 X143.485 Y131.464
G1 F900 X148.534 Y136.514 E25.70893
G0 F2625 X148.534 Y135.806
G1 F900 X144.192 Y131.464 E25.85331
G0 F2625 X144.899 Y131.464
M104 S240
G1 F900 X148.534 Y135.099 E25.97419
G0 F2625 X148.534 Y134.392
G1 F900 X145.606 Y131.464 E26.07155
G0 F2625 X146.313 Y131.464
G1 F900 X148.534 Y133.685 E26.14541
G0 F2625 X148.534 Y132.978
G1 F900 X147.02 Y131.464 E26.19575
G0 F2625 X147.728 Y131.464
G1 F900 X148.534 Y132.271 E26.22257
G0 F2625 X148.534 Y131.564
G1 F900 X148.435 Y131.464 E26.22588
;MESH:NONMESH
G0 F2625 X131.25 Y148.75
;TIME_ELAPSED:92.463340
;LAYER:1
M140 S110
M221 S100 T0
M106 S1.9
;MESH:
G0 F6562.5 X131.25 Y148.75 Z0.62
;TYPE:WALL-INNER
G1 F2250 X131.25 Y131.25 E26.66479
G1 X148.75 Y131.25 E27.1037
G1 X148.75 Y148.75 E27.54262
G1 X131.25 Y148.75 E27.98153
G0 F6562.5 X149.18 Y149.18
G0 X149.25 Y149.25
G1 F2250 X130.75 Y149.25 E28.44552
G1 X130.75 Y130.75 E28.90952
G1 X149.25 Y130.75 E29.37351
G1 X149.25 Y149.25 E29.8375
G0 F6562.5 X149.18 Y149.18
G0 X130.82 Y149.18
G0 X130.25 Y149.75
;TYPE:WALL-OUTER
G1 F1800 X130.25 Y130.25 E30.32658
G1 X149.75 Y130.25 E30.81565
G1 X149.75 Y149.75 E31.30473
G1 X130.25 Y149.75 E31.7938
G0 F6562.5 X130.25 Y149.55
G0 X130.82 Y149.18
G0 X131.74 Y148.26
;TYPE:SKIN
G1 F1800 X131.74 Y131.74 E32.20814
G1 X148.26 Y131.74 E32.62247
G1 X148.26 Y148.26 E33.0368
G1 X131.74 Y148.26 E33.45114
G0 F6562.5 X131.964 Y132.493
G1 F1800 X132.493 Y131.964 E33.4699
G0 F6562.5 X133.2 Y131.964
G1 F1800 X131.964 Y133.2 E33.51374
G0 F6562.5 X131.964 Y133.907
G1 F1800 X133.907 Y131.964 E33.58266
G0 F6562.5 X134.614 Y131.964
G1 F1800 X131.964 Y134.614 E33.67665
G0 F6562.5 X131.964 Y135.321
G1 F1800 X135.321 Y131.964 E33.79572
G0 F6562.5 X136.028 Y131.964
G1 F1800 X131.964 Y136.028 E33.93987
G0 F6562.5 X131.964 Y136.736
G1 F1800 X136.736 Y131.964 E34.10913
G0 F6562.5 X137.443 Y131.964
G1 F1800 X131.964 Y137.443 E34.30347
G0 F6562.5 X131.964 Y138.15
G1 F1800 X138.15 Y131.964 E34.52288
G0 F6562.5 X138.857 Y131.964
G1 F1800 X131.964 Y138.857 E34.76738
G0 F6562.5 X131.964 Y139.564
G1 F1800 X139.564 Y131.964 E35.03694
G0 F6562.5 X140.271 Y131.964
G1 F1800 X131.964 Y140.271 E35.33159
G0 F6562.5 X131.964 Y140.978
G1 F1800 X140.978 Y131.964 E35.65131
G0 F6562.5 X141.685 Y131.964
G1 F1800 X131.964 Y141.685 E35.99611
G0 F6562.5 X131.964 Y142.392
G1 F1800 X142.392 Y131.964 E36.36599
G0 F6562.5 X143.1 Y131.964
G1 F1800 X131.964 Y143.1 E36.76098
G0 F6562.5 X131.964 Y143.807
G1 F1800 X143.807 Y131.964 E37.18104
G0 F6562.5 X144.514 Y131.964
G1 F1800 X131.964 Y144.514 E37.62618
G0 F6562.5 X131.964 Y145.221
G1 F1800 X145.221 Y131.964 E38.0964
G0 F6562.5 X145.928 Y131.964
G1 F1800 X131.964 Y145.928 E38.5917
G0 F6562.5 X131.964 Y146.635
G1 F1800 X146.635 Y131.964 E39.11207
G0 F6562.5 X147.342 Y131.964
G1 F1800 X131.964 Y147.342 E39.65752
G0 F6562.5 X131.979 Y148.034
G1 F1800 X148.034 Y131.98 E40.22697
G0 F6562.5 X148.034 Y132.687
G1 F1800 X132.686 Y148.034 E40.77134
G0 F6562.5 X133.393 Y148.034
G1 F1800 X148.034 Y133.394 E41.29063
G0 F6562.5 X148.034 Y134.101
G1 F1800 X134.1 Y148.034 E41.78484
G0 F6562.5 X134.807 Y148.034
G1 F1800 X148.034 Y134.808 E42.25398
G0 F6562.5 X148.034 Y135.515
G1 F1800 X135.514 Y148.034 E42.69804
G0 F6562.5 X136.222 Y148.034
G1 F1800 X148.034 Y136.222 E43.11701
G0 F6562.5 X148.034 Y136.929
G1 F1800 X136.929 Y148.034 E43.5109
G0 F6562.5 X137.636 Y148.034
G1 F1800 X148.034 Y137.636 E43.87971
G0 F6562.5 X148.034 Y138.344
G1 F1800 X138.343 Y148.034 E44.22343
G0 F6562.5 X139.05 Y148.034
G1 F1800 X148.034 Y139.051 E44.54207
G0 F6562.5 X148.034 Y139.758
G1 F1800 X139.757 Y148.034 E44.83563
G0 F6562.5 X140.464 Y148.034
G1 F1800 X148.034 Y140.465 E45.10412
G0 F6562.5 X148.034 Y141.172
G1 F1800 X141.171 Y148.034 E45.34753
G0 F6562.5 X141.878 Y148.034
G1 F1800 X148.034 Y141.879 E45.56586
G0 F6562.5 X148.034 Y142.586
G1 F1800 X142.585 Y148.034 E45.75912
G0 F6562.5 X143.293 Y148.034
G1 F1800 X148.034 Y143.293 E45.92728
G0 F6562.5 X148.034 Y144
G1 F1800 X144 Y148.034 E46.07036
G0 F6562.5 X144.707 Y148.034
G1 F1800 X148.034 Y144.707 E46.18837
G0 F6562.5 X148.034 Y145.415
G1 F1800 X145.414 Y148.034 E46.28128
G0 F6562.5 X146.121 Y148.034
G1 F1800 X148.034 Y146.122 E46.34912
G0 F6562.5 X148.034 Y146.829
G1 F1800 X146.828 Y148.034 E46.39187
G0 F6562.5 X147.535 Y148.034
G1 F1800 X148.034 Y147.536 E46.40956
;MESH:NONMESH
G0 F6562.5 X149.18 Y130.82
G0 X149.25 Y130.75
;TIME_ELAPSED:123.298894
;LAYER:2
M106 S3.8
;MESH:
G0 F10500 X149.25 Y130.75 Z0.94
;TYPE:WALL-INNER
G1 F3600 X149.25 Y149.25 E46.87355
G1 X130.75 Y149.25 E47.33754
G1 X130.75 Y130.75 E47.80154
G1 X149.25 Y130.75 E48.26553
G0 F10500 X149.18 Y130.82
G0 X130.82 Y130.82
G0 X130.25 Y130.25
;TYPE:WALL-OUTER
G1 F2700 X149.75 Y130.25 E48.7546
G1 X149.75 Y149.75 E49.24368
G1 X130.25 Y149.75 E49.73275
G1 X130.25 Y130.25 E50.22183
G0 F10500 X130.45 Y130.25
G0 X130.82 Y130.82
G0 X131.24 Y131.24
;TYPE:SKIN
G1 F2700 X148.76 Y131.24 E50.66124
G1 X148.76 Y148.76 E51.10066
G1 X131.24 Y148.76 E51.54007
G1 X131.24 Y131.24 E51.97949
G0 F10500 X148.534 Y131.564
G1 F2700 X148.435 Y131.464 E51.98302
G0 F10500 X147.728 Y131.464
G1 F2700 X148.534 Y132.271 E52.01162
G0 F10500 X148.534 Y132.978
G1 F2700 X147.02 Y131.464 E52.06532
G0 F10500 X146.313 Y131.464
G1 F2700 X148.534 Y133.685 E52.1441
G0 F10500 X148.534 Y134.392
G1 F2700 X145.606 Y131.464 E52.24796
G0 F10500 X144.899 Y131.464
G1 F2700 X148.534 Y135.099 E52.37689
G0 F10500 X148.534 Y135.806
G1 F2700 X144.192 Y131.464 E52.5309
G0 F10500 X143.485 Y131.464
G1 F2700 X148.534 Y136.514 E52.71
G0 F10500 X148.534 Y137.221
G1 F2700 X142.778 Y131.464 E52.91418
G0 F10500 X142.071 Y131.464
G1 F2700 X148.534 Y137.928 E53.14344
G0 F10500 X148.534 Y138.635
G1 F2700 X141.364 Y131.464 E53.39777
G0 F10500 X140.656 Y131.464
G1 F2700 X148.534 Y139.342 E53.6772
G0 F10500 X148.534 Y140.049
G1 F2700 X139.949 Y131.464 E53.98171
G0 F10500 X139.242 Y131.464
G1 F2700 X148.534 Y140.756 E54.31129
G0 F10500 X148.534 Y141.463
G1 F2700 X138.535 Y131.464 E54.66595
G0 F10500 X137.828 Y131.464
G1 F2700 X148.534 Y142.17 E55.04569
G0 F10500 X148.534 Y142.877
