; G-Code generated by Simplify3D(R) Version 4.0.1
; Apr 30, 2018 at 7:50:36 AM
; Settings Summary
;   processName,Color1
;   applyToModels,3DBenchy_-_Dualprint_-_Gunwale_Deck_Plate_Wheel_Frames_Roof_Chimney_top_-_3DBenchy.com
;   profileName,LulzBot TAZ 6 Dual v3 (modified)
;   profileVersion,2018-04-29 14:54:41
;   baseProfile,
;   printMaterial,PLA
;   printQuality,Medium
;   printExtruders,Both Extruders
;   extruderName,Left Extruder,Right Extruder
;   extruderToolheadNumber,0,1
;   extruderDiameter,0.5,0.5
;   extruderAutoWidth,0,0
;   extruderWidth,0.5,0.5
;   extrusionMultiplier,1,1
;   extruderUseRetract,1,1
;   extruderRetractionDistance,3,3
;   extruderExtraRestartDistance,0,0
;   extruderRetractionZLift,0,0
;   extruderRetractionSpeed,1800,1800
;   extruderUseCoasting,0,0
;   extruderCoastingDistance,0.2,0.2
;   extruderUseWipe,0,0
;   extruderWipeDistance,5,5
;   primaryExtruder,0
;   layerHeight,0.25
;   topSolidLayers,3
;   bottomSolidLayers,3
;   perimeterOutlines,3
;   printPerimetersInsideOut,1
;   startPointOption,2
;   startPointOriginX,0
;   startPointOriginY,0
;   sequentialIslands,0
;   spiralVaseMode,0
;   firstLayerHeightPercentage,200
;   firstLayerWidthPercentage,150
;   firstLayerUnderspeed,0.3
;   useRaft,0
;   raftExtruder,0
;   raftTopLayers,3
;   raftBaseLayers,2
;   raftOffset,3
;   raftSeparationDistance,0.14
;   raftTopInfill,100
;   aboveRaftSpeedMultiplier,0.3
;   useSkirt,1
;   skirtExtruder,999
;   skirtLayers,1
;   skirtOutlines,3
;   skirtOffset,12
;   usePrimePillar,0
;   primePillarExtruder,999
;   primePillarWidth,10
;   primePillarLocation,7
;   primePillarSpeedMultiplier,0.5
;   useOozeShield,0
;   oozeShieldExtruder,999
;   oozeShieldOffset,6
;   oozeShieldOutlines,2
;   oozeShieldSidewallShape,0
;   oozeShieldSidewallAngle,15
;   oozeShieldSpeedMultiplier,1
;   infillExtruder,0
;   internalInfillPattern,Rectilinear
;   externalInfillPattern,Rectilinear
;   infillPercentage,20
;   outlineOverlapPercentage,15
;   infillExtrusionWidthPercentage,200
;   minInfillLength,5
;   infillLayerInterval,1
;   internalInfillAngles,45,-45
;   overlapInternalInfillAngles,0
;   externalInfillAngles,45,-45
;   generateSupport,0
;   supportExtruder,0
;   supportInfillPercentage,20
;   supportExtraInflation,0
;   supportBaseLayers,1
;   denseSupportExtruder,0
;   denseSupportLayers,2
;   denseSupportInfillPercentage,90
;   supportLayerInterval,1
;   supportHorizontalPartOffset,0.5
;   supportUpperSeparationLayers,0
;   supportLowerSeparationLayers,0
;   supportType,0
;   supportGridSpacing,1
;   maxOverhangAngle,45
;   supportAngles,0
;   temperatureName,Right Extruder,Left Extruder,Heated Bed
;   temperatureNumber,1,0,0
;   temperatureSetpointCount,2,2,2
;   temperatureSetpointLayers,1,2,1,2,1,2
;   temperatureSetpointTemperatures,220,215,220,215,70,60
;   temperatureStabilizeAtStartup,1,1,1
;   temperatureHeatedBed,0,0,1
;   temperatureRelayBetweenLayers,0,0,0
;   temperatureRelayBetweenLoops,0,0,0
;   fanLayers,1,2
;   fanSpeeds,0,100
;   blipFanToFullPower,0
;   adjustSpeedForCooling,1
;   minSpeedLayerTime,15
;   minCoolingSpeedSlowdown,20
;   increaseFanForCooling,0
;   minFanLayerTime,45
;   maxCoolingFanSpeed,100
;   increaseFanForBridging,0
;   bridgingFanSpeed,100
;   use5D,1
;   relativeEdistances,0
;   allowEaxisZeroing,1
;   independentExtruderAxes,0
;   includeM10123,0
;   stickySupport,1
;   applyToolheadOffsets,0
;   gcodeXoffset,0
;   gcodeYoffset,0
;   gcodeZoffset,0
;   overrideMachineDefinition,1
;   machineTypeOverride,0
;   strokeXoverride,280
;   strokeYoverride,280
;   strokeZoverride,250
;   originOffsetXoverride,0
;   originOffsetYoverride,0
;   originOffsetZoverride,0
;   homeXdirOverride,-1
;   homeYdirOverride,-1
;   homeZdirOverride,-1
;   flipXoverride,1
;   flipYoverride,-1
;   flipZoverride,1
;   toolheadOffsets,0,0|13,0|0,0|0,0|0,0|0,0
;   overrideFirmwareConfiguration,1
;   firmwareTypeOverride,RepRap (Marlin/Repetier/Sprinter)
;   GPXconfigOverride,r2
;   baudRateOverride,250000
;   overridePrinterModels,1
;   printerModelsOverride,LulzBot_TAZ6.stl
;   startingGcode,; This Simplify3D profile is designed specifically for LulzBot TAZ6 3D Printer with the Yellowfin Dual V3,G26                       ; clear probe fail condition,G21                       ; set units to Millimetres,M107                      ; Stop the fan,G90                       ; absolute positioning,M218 T0 X0 Y0             ; Simplify3D requires tool offsets in firmware,M218 T1 X0 Y0             ; but not until the end of the start code,M140 S[bed0_temperature]  ; start heating bed,M104 S170 T0              ; start heating left extruder,M104 S170 T1              ; start heating right extruder,G28 X Y                   ; home X and Y,G1 X-17 F3000             ; clear X endstop,G1 Y258 F3000             ; move over the Z_MIN switch,G1 X-19 F3000             ; move left as far as possible,M109 S170 T0              ; soften filament for Z homing,M109 S170 T1              ; soften filament for Z homing,G28 Z                     ; home Z,T0                        ; select this extruder first,M82                       ; set extruder to absolute mode,G92 E0                    ; zero extruder,G1 E-12 F100              ; retract 12mm filament,T1                        ; switch extruders,M82                       ; set extruder to absolute mode,G92 E0                    ; zero extruder,G1 E-12 F100              ; retract 12mm filament,T0                        ; switch extruders,G1 X-17 Y100 F3000        ; move above wiper pad,G1 Z1                     ; push nozzle into wiper,G1 X-18 Y95 F1000         ; slow wipe,G1 X-18 Y90 F1000         ; slow wipe,G1 X-18 Y85 F1000         ; slow wipe,G1 X-17 Y90 F1000         ; slow wipe,G1 X-18 Y80 F1000         ; slow wipe,G1 X-17 Y95 F1000         ; slow wipe,G1 X-18 Y75 F2000         ; fast wipe,G1 X-17 Y65 F2000         ; fast wipe,G1 X-18 Y70 F2000         ; fast wipe,G1 X-17 Y60 F2000         ; fast wipe,G1 X-18 Y55 F2000         ; fast wipe,G1 X-17 Y50 F2000         ; fast wipe,G1 X-18 Y40 F2000         ; fast wipe,G1 X-17 Y45 F2000         ; fast wipe,G1 X-18 Y35 F2000         ; fast wipe,G1 X-17 Y40 F2000         ; fast wipe,G1 X-18 Y70 F2000         ; fast wipe,G1 X-17 Y30 Z2 F2000      ; fast wipe,G1 X-18 Y35 F2000         ; fast wipe,G1 X-17 Y25 F2000         ; fast wipe,G1 X-18 Y30 F2000         ; fast wipe,G1 X-17 Y25 Z1.5 F1000    ; slow wipe,G1 X-18 Y23 F1000         ; slow wipe,G1 X-17 Z15               ; raise extruder,M204 S100                 ; set accel for probing,G29                       ; probe sequence (for auto-leveling),M204 S500                 ; set accel back to normal,G1 X100 Y-17 Z0.5 F3000   ; move to open space,M400                      ; clear buffer,M117 Heating...,M104 S[extruder0_temperature] T0 ; start heating left extruder,M104 S[extruder1_temperature] T1 ; start heating right extruder,M190 S[bed0_temperature]  ; stabilize bed,M109 S[extruder0_temperature] T0 ; stabilize left extruder,M109 S[extruder1_temperature] T1 ; stabilize right extruder,M117 Purging...,T0                        ; select left extruder first,G1  E0 F100               ; undo retraction,G92 E-25                  ; set extruder negative amount to purge,G1  E0 F100               ; purge XXmm of filament,T1                        ; switch to right extruder,G92 E-15                  ; reset global extruder position,G1  E0 F100               ; undo retraction,G92 E-25                  ; set extruder negative amount to purge,G1  E0 F100               ; purge XXmm of filament,G1 Z0.5                   ; clear bed (barely),G1 X100 Y0 F5000          ; move above bed to shear off filament,G1 Z2                     ; move Z up a bit,T0                        ; select left extruder and retract (Tool Change will prime),G92 E12                  ; set extruder amount to retract should be E[toolchange_retract_distance],G1 E0 F100               ; retract XXmm of filament,T1                        ; select right extruder (Tool Change will retract),M400                      ; clear buffer,M218 T1 X13.0 Y0.0        ; offset for right extruder,M117 TAZ Printing...,
;   layerChangeGcode,
;   retractionGcode,
;   toolChangeGcode,
;   endingGcode,M400,M104 S0 T0                     ; T0 hotend off,M104 S0 T1                     ; T1 hotend off,M107                           ; fans off,G91                            ; relative positioning,T0,G1 E-5 F300                    ; retract the filament,T1,G1 E-5 F300                    ; retract the filament,T0,G1 Z20 X-20 Y-20 F3000         ; move Z up a bit,M117 Cooling please wait       ; progress indicator message,G90                            ; absolute positioning,G1 Y0 F3000                    ; move to cooling position,M190 R45                       ; set bed to cool off,G1 Y280 F3000                  ; present finished print,M140 S40 ; keep temperature or cool downs,M84                            ; steppers off,M117 Print complete            ; progress indicator message
;   exportFileFormat,gcode
;   celebration,0
;   celebrationSong,Random Song
;   postProcessing,
;   defaultSpeed,3000
;   outlineUnderspeed,0.5
;   solidInfillUnderspeed,0.8
;   supportUnderspeed,0.8
;   rapidXYspeed,4800
;   rapidZspeed,1000
;   minBridgingArea,50
;   bridgingExtraInflation,0
;   bridgingExtrusionMultiplier,1
;   bridgingSpeedMultiplier,1
;   useFixedBridgingAngle,0
;   fixedBridgingAngle,0
;   applyBridgingToPerimeters,0
;   filamentDiameters,2.85|2.85|2.85|2.85|2.85|2.85
;   filamentPricesPerKg,25|46|46|46|46|46
;   filamentDensities,1.25|1.25|1.25|1.25|1.25|1.25
;   useMinPrintHeight,0
;   minPrintHeight,0
;   useMaxPrintHeight,0
;   maxPrintHeight,0
;   useDiaphragm,0
;   diaphragmLayerInterval,20
;   robustSlicing,1
;   mergeAllIntoSolid,0
;   onlyRetractWhenCrossingOutline,1
;   retractBetweenLayers,1
;   useRetractionMinTravel,0
;   retractionMinTravel,3
;   retractWhileWiping,1
;   onlyWipeOutlines,1
;   avoidCrossingOutline,1
;   maxMovementDetourFactor,3
;   toolChangeRetractionDistance,12
;   toolChangeExtraRestartDistance,-0.5
;   toolChangeRetractionSpeed,600
;   externalThinWallType,0
;   internalThinWallType,2
;   thinWallAllowedOverlapPercentage,10
;   singleExtrusionMinLength,1
;   singleExtrusionMinPrintingWidthPercentage,50
;   singleExtrusionMaxPrintingWidthPercentage,200
;   singleExtrusionEndpointExtension,0.2
;   horizontalSizeCompensation,0
G90
M82
M106 S0
; This Simplify3D profile is designed specifically for LulzBot TAZ6 3D Printer with the Yellowfin Dual V3
G26                       ; clear probe fail condition
G21                       ; set units to Millimetres
M107                      ; Stop the fan
G90                       ; absolute positioning
M218 T0 X0 Y0             ; Simplify3D requires tool offsets in firmware
M218 T1 X0 Y0             ; but not until the end of the start code
M140 S70  ; start heating bed
M104 S170 T0              ; start heating left extruder
M104 S170 T1              ; start heating right extruder
G28 X Y                   ; home X and Y
G1 X-17 F3000             ; clear X endstop
G1 Y258 F3000             ; move over the Z_MIN switch
G1 X-19 F3000             ; move left as far as possible
M109 S170 T0              ; soften filament for Z homing
M109 S170 T1              ; soften filament for Z homing
G28 Z                     ; home Z
T0                        ; select this extruder first
M82                       ; set extruder to absolute mode
G92 E0                    ; zero extruder
G1 E-12 F100              ; retract 12mm filament
T1                        ; switch extruders
M82                       ; set extruder to absolute mode
G92 E0                    ; zero extruder
G1 E-12 F100              ; retract 12mm filament
T0                        ; switch extruders
G1 X-17 Y100 F3000        ; move above wiper pad
G1 Z1                     ; push nozzle into wiper
G1 X-18 Y95 F1000         ; slow wipe
G1 X-18 Y90 F1000         ; slow wipe
G1 X-18 Y85 F1000         ; slow wipe
G1 X-17 Y90 F1000         ; slow wipe
G1 X-18 Y80 F1000         ; slow wipe
G1 X-17 Y95 F1000         ; slow wipe
G1 X-18 Y75 F2000         ; fast wipe
G1 X-17 Y65 F2000         ; fast wipe
G1 X-18 Y70 F2000         ; fast wipe
G1 X-17 Y60 F2000         ; fast wipe
G1 X-18 Y55 F2000         ; fast wipe
G1 X-17 Y50 F2000         ; fast wipe
G1 X-18 Y40 F2000         ; fast wipe
G1 X-17 Y45 F2000         ; fast wipe
G1 X-18 Y35 F2000         ; fast wipe
G1 X-17 Y40 F2000         ; fast wipe
G1 X-18 Y70 F2000         ; fast wipe
G1 X-17 Y30 Z2 F2000      ; fast wipe
G1 X-18 Y35 F2000         ; fast wipe
G1 X-17 Y25 F2000         ; fast wipe
G1 X-18 Y30 F2000         ; fast wipe
G1 X-17 Y25 Z1.5 F1000    ; slow wipe
G1 X-18 Y23 F1000         ; slow wipe
G1 X-17 Z15               ; raise extruder
M204 S100                 ; set accel for probing
G29                       ; probe sequence (for auto-leveling)
M204 S500                 ; set accel back to normal
G1 X100 Y-17 Z0.5 F3000   ; move to open space
M400                      ; clear buffer
M117 Heating...
M104 S220 T0 ; start heating left extruder
M104 S220 T1 ; start heating right extruder
M190 S70  ; stabilize bed
M109 S220 T0 ; stabilize left extruder
M109 S220 T1 ; stabilize right extruder
M117 Purging...
T0                        ; select left extruder first
G1  E0 F100               ; undo retraction
G92 E-25                  ; set extruder negative amount to purge
G1  E0 F100               ; purge XXmm of filament
T1                        ; switch to right extruder
G92 E-15                  ; reset global extruder position
G1  E0 F100               ; undo retraction
G92 E-25                  ; set extruder negative amount to purge
G1  E0 F100               ; purge XXmm of filament
G1 Z0.5                   ; clear bed (barely)
G1 X100 Y0 F5000          ; move above bed to shear off filament
G1 Z2                     ; move Z up a bit
T0                        ; select left extruder and retract (Tool Change will prime)
G92 E12                  ; set extruder amount to retract should be E[toolchange_retract_distance]
G1 E0 F100               ; retract XXmm of filament
T1                        ; select right extruder (Tool Change will retract)
M400                      ; clear buffer
M218 T1 X13.0 Y0.0        ; offset for right extruder
M117 TAZ Printing...
G92 E0
G1 E-3.0000 F1800
G1 Z0.500 F1000
; process Color2
; layer 1, Z = 0.500
T0
; tool H0.500 W0.750
; skirt
G1 X105.342 Y122.204 F4800
G1 E0.0000 F540
G92 E0
G1 X107.209 Y120.895 E0.1341 F900
G1 X107.355 Y120.806 E0.1441
G1 X108.822 Y120.028 E0.2417
G1 X108.978 Y119.958 E0.2518
G1 X110.604 Y119.340 E0.3540
G1 X110.712 Y119.304 E0.3607
G1 X111.777 Y118.997 E0.4259
G1 X111.888 Y118.970 E0.4326
G1 X113.083 Y118.731 E0.5043
G1 X113.175 Y118.715 E0.5097
G1 X114.074 Y118.598 E0.5630
G1 X114.166 Y118.589 E0.5685
G1 X138.275 Y117.088 E1.9884
G1 X138.294 Y117.087 E1.9895
G1 X138.483 Y117.078 E2.0006
G1 X138.502 Y117.077 E2.0018
G1 X139.534 Y117.042 E2.0624
G1 X139.566 Y117.041 E2.0643
G1 X139.880 Y117.038 E2.0828
G1 X139.912 Y117.038 E2.0847
G1 X140.863 Y117.051 E2.1406
G1 X140.889 Y117.051 E2.1421
G1 X141.144 Y117.059 E2.1571
G1 X141.171 Y117.060 E2.1587
G1 X142.079 Y117.107 E2.2121
G1 X142.116 Y117.109 E2.2143
G1 X142.478 Y117.138 E2.2357
G1 X142.515 Y117.141 E2.2379
G1 X143.852 Y117.283 E2.3169
G1 X143.890 Y117.287 E2.3191
G1 X144.258 Y117.336 E2.3409
G1 X144.296 Y117.342 E2.3432
G1 X145.330 Y117.510 E2.4048
G1 X145.365 Y117.516 E2.4069
G1 X145.704 Y117.580 E2.4272
G1 X145.739 Y117.587 E2.4293
G1 X147.048 Y117.870 E2.5080
G1 X147.097 Y117.881 E2.5109
G1 X147.571 Y118.002 E2.5397
G1 X147.619 Y118.015 E2.5426
G1 X149.184 Y118.475 E2.6385
G1 X149.223 Y118.487 E2.6409
G1 X149.607 Y118.612 E2.6647
G1 X149.647 Y118.626 E2.6671
G1 X150.823 Y119.050 E2.7406
G1 X150.862 Y119.065 E2.7430
G1 X151.237 Y119.213 E2.7667
G1 X151.275 Y119.229 E2.7692
G1 X152.346 Y119.690 E2.8377
