;FLAVOR:Marlin
;TIME:1144
;Filament used: 1.56426m
;Layer height: 0.3
;Generated with Cura_SteamEngine 3.6.0
M140 S50
M105
M190 S50
M104 S205
M105
M109 S205
M82 ;absolute extrusion mode
G21 ;metric values
G90 ;absolute positioning
M82 ;set extruder to absolute mode
M107 ;start with the fan off
G28 X0 Y0 ;move X/Y to min endstops
G28 Z0 ;move Z to min endstops
G29; Autolevel
G1 Z15.0 F9000 ;move the platform down 15mm
G92 E0 ;zero the extruded length
G1 F200 E1 ;extrude 1mm of feed stock
G92 E0 ;zero the extruded length again
G1 F9000
;Put printing message on LCD screen
M117 Printing...
G92 E0
;LAYER_COUNT:68
;LAYER:0
M117 INDICATOR-Layer0
M107
G0 F3600 X97.365 Y97.007 Z0.2
;TYPE:SKIRT
G1 F1350 X97.815 Y96.665 E0.0188
G1 X98.308 Y96.389 E0.03759
G1 X98.836 Y96.185 E0.05642
G1 X99.386 Y96.058 E0.07519
G1 X100.009 Y96.009 E0.09598
G1 X119.991 Y96.01 E0.76058
G1 X120.555 Y96.05 E0.77939
G1 X121.108 Y96.169 E0.7982
G1 X121.638 Y96.365 E0.817
G1 X122.136 Y96.633 E0.83581
G1 X122.59 Y96.97 E0.85461
G1 X122.993 Y97.366 E0.8734
G1 X123.336 Y97.816 E0.89222
G1 X123.611 Y98.309 E0.911
G1 X123.815 Y98.837 E0.92982
G1 X123.942 Y99.388 E0.94863
G1 X123.991 Y100.01 E0.96938
G1 X123.991 Y119.991 E1.63395
G1 X123.951 Y120.555 E1.65276
G1 X123.832 Y121.108 E1.67157
G1 X123.636 Y121.638 E1.69037
G1 X123.368 Y122.135 E1.70915
G1 X123.032 Y122.59 E1.72796
G1 X122.635 Y122.993 E1.74678
G1 X122.185 Y123.335 E1.76558
G1 X121.692 Y123.611 E1.78437
G1 X121.164 Y123.815 E1.80319
G1 X120.614 Y123.942 E1.82197
G1 X119.991 Y123.991 E1.84275
G1 X100.009 Y123.991 E2.50736
G1 X99.445 Y123.951 E2.52616
G1 X98.892 Y123.832 E2.54498
G1 X98.362 Y123.636 E2.56377
G1 X97.865 Y123.368 E2.58255
G1 X97.41 Y123.032 E2.60136
G1 X97.007 Y122.635 E2.62018
G1 X96.665 Y122.185 E2.63898
G1 X96.389 Y121.692 E2.65777
G1 X96.185 Y121.164 E2.6766
G1 X96.058 Y120.614 E2.69537
G1 X96.009 Y119.991 E2.71616
G1 X96.009 Y100.009 E3.38076
G1 X96.049 Y99.445 E3.39957
G1 X96.168 Y98.892 E3.41838
G1 X96.364 Y98.362 E3.43718
G1 X96.632 Y97.865 E3.45596
G1 X96.968 Y97.41 E3.47477
G1 X97.365 Y97.007 E3.49358
G0 F3600 X97.756 Y97.201
G1 F1350 X98.198 Y96.898 E3.51141
G1 X98.681 Y96.663 E3.52927
G1 X99.192 Y96.503 E3.54708
G1 X99.722 Y96.42 E3.56492
G1 X100.009 Y96.409 E3.57448
G1 X119.991 Y96.41 E4.23908
G1 X120.526 Y96.45 E4.25692
G1 X121.049 Y96.569 E4.27476
G1 X121.548 Y96.764 E4.29258
G1 X122.013 Y97.032 E4.31043
G1 X122.433 Y97.365 E4.32826
G1 X122.799 Y97.757 E4.3461
G1 X123.103 Y98.199 E4.36394
G1 X123.337 Y98.682 E4.38179
G1 X123.497 Y99.194 E4.39963
G1 X123.58 Y99.723 E4.41744
G1 X123.591 Y100.01 E4.427
G1 X123.591 Y119.991 E5.09157
G1 X123.551 Y120.526 E5.10941
G1 X123.432 Y121.049 E5.12725
G1 X123.237 Y121.548 E5.14507
G1 X122.969 Y122.013 E5.16292
G1 X122.636 Y122.433 E5.18075
G1 X122.244 Y122.799 E5.19858
G1 X121.802 Y123.102 E5.21641
G1 X121.319 Y123.337 E5.23427
G1 X120.808 Y123.497 E5.25208
G1 X120.278 Y123.58 E5.26993
G1 X119.991 Y123.591 E5.27948
G1 X100.009 Y123.591 E5.94408
G1 X99.474 Y123.551 E5.96193
G1 X98.951 Y123.432 E5.97977
G1 X98.452 Y123.237 E5.99759
G1 X97.987 Y122.969 E6.01544
G1 X97.567 Y122.636 E6.03326
G1 X97.201 Y122.244 E6.0511
G1 X96.898 Y121.802 E6.06892
G1 X96.663 Y121.319 E6.08679
G1 X96.503 Y120.808 E6.1046
G1 X96.42 Y120.278 E6.12244
G1 X96.409 Y119.991 E6.13199
G1 X96.409 Y100.009 E6.7966
G1 X96.449 Y99.474 E6.81444
G1 X96.568 Y98.951 E6.83228
G1 X96.763 Y98.452 E6.8501
G1 X97.031 Y97.987 E6.86795
G1 X97.364 Y97.567 E6.88578
G1 X97.756 Y97.201 E6.90362
G0 F3600 X97.758 Y97.734
G1 F1350 X98.145 Y97.408 E6.92045
G1 X98.578 Y97.147 E6.93726
G1 X99.046 Y96.957 E6.95406
G1 X99.539 Y96.844 E6.97088
G1 X100.009 Y96.809 E6.98656
G1 X119.991 Y96.81 E7.65116
G1 X120.495 Y96.85 E7.66798
G1 X120.987 Y96.969 E7.68482
G1 X121.453 Y97.164 E7.70162
G1 X121.883 Y97.429 E7.71842
G1 X122.266 Y97.76 E7.73525
G1 X122.592 Y98.146 E7.75206
G1 X122.853 Y98.579 E7.76887
G1 X123.043 Y99.048 E7.7857
G1 X123.156 Y99.54 E7.80249
G1 X123.191 Y100.01 E7.81817
G1 X123.191 Y119.991 E8.48274
G1 X123.151 Y120.495 E8.49956
G1 X123.032 Y120.986 E8.51636
G1 X122.838 Y121.453 E8.53318
G1 X122.572 Y121.883 E8.55
G1 X122.242 Y122.266 E8.56681
G1 X121.855 Y122.592 E8.58364
G1 X121.422 Y122.853 E8.60046
G1 X120.954 Y123.043 E8.61726
G1 X120.461 Y123.156 E8.63408
G1 X119.991 Y123.191 E8.64975
G1 X100.009 Y123.191 E9.31436
G1 X99.505 Y123.151 E9.33117
G1 X99.014 Y123.032 E9.34798
G1 X98.547 Y122.838 E9.3648
G1 X98.117 Y122.572 E9.38161
G1 X97.734 Y122.242 E9.39843
G1 X97.408 Y121.855 E9.41526
G1 X97.147 Y121.422 E9.43207
G1 X96.957 Y120.954 E9.44887
G1 X96.844 Y120.461 E9.4657
G1 X96.809 Y119.991 E9.48137
G1 X96.809 Y100.009 E10.14598
G1 X96.849 Y99.505 E10.16279
G1 X96.968 Y99.014 E10.1796
G1 X97.162 Y98.547 E10.19641
G1 X97.428 Y98.117 E10.21323
G1 X97.758 Y97.734 E10.23005
;MESH:Cubo Calibración - BQ.stl
G0 F3600 X100.614 Y99.335
G0 X100.614 Y100.614
G0 X119.33 Y119.33
G0 X119.4 Y119.4
;TYPE:WALL-INNER
G1 F1350 X100.6 Y119.4 E10.85534
G1 X100.6 Y100.6 E11.48063
G1 X119.4 Y100.6 E12.10592
G1 X119.4 Y119.4 E12.73121
G0 F3600 X119.8 Y119.8
;TYPE:WALL-OUTER
G1 F1350 X100.2 Y119.8 E13.38311
G1 X100.2 Y100.2 E14.03501
G1 X119.8 Y100.2 E14.6869
G1 X119.8 Y119.8 E15.3388
G0 F3600 X119.6 Y119.8
G0 X119.33 Y119.33
G0 X119.01 Y119.01
;TYPE:SKIN
G1 F1350 X100.99 Y119.01 E15.93815
G1 X100.99 Y100.99 E16.5375
G1 X119.01 Y100.99 E17.13685
G1 X119.01 Y119.01 E17.73619
G0 F3600 X118.829 Y101.293
G1 F1350 X118.706 Y101.17 E17.74198
G0 F3600 X118.14 Y101.17
G1 F1350 X118.829 Y101.858 E17.77436
G0 F3600 X118.829 Y102.424
G1 F1350 X117.574 Y101.17 E17.83337
G0 F3600 X117.009 Y101.17
G1 F1350 X118.829 Y102.99 E17.91898
G0 F3600 X118.829 Y103.555
G1 F1350 X116.443 Y101.17 E18.03119
G0 F3600 X115.877 Y101.17
G1 F1350 X118.829 Y104.121 E18.17002
G0 F3600 X118.829 Y104.687
G1 F1350 X115.312 Y101.17 E18.33544
G0 F3600 X114.746 Y101.17
G1 F1350 X118.829 Y105.252 E18.52747
G0 F3600 X118.829 Y105.818
G1 F1350 X114.18 Y101.17 E18.74612
G0 F3600 X113.615 Y101.17
G1 F1350 X118.829 Y106.384 E18.99137
G0 F3600 X118.829 Y106.949
G1 F1350 X113.049 Y101.17 E19.26322
G0 F3600 X112.483 Y101.17
G1 F1350 X118.829 Y107.515 E19.5617
G0 F3600 X118.829 Y108.081
G1 F1350 X111.918 Y101.17 E19.88677
G0 F3600 X111.352 Y101.17
G1 F1350 X118.829 Y108.646 E20.23844
G0 F3600 X118.829 Y109.212
G1 F1350 X110.786 Y101.17 E20.61674
G0 F3600 X110.22 Y101.17
G1 F1350 X118.829 Y109.778 E21.02165
G0 F3600 X118.829 Y110.344
G1 F1350 X109.655 Y101.17 E21.45317
G0 F3600 X109.089 Y101.17
G1 F1350 X118.829 Y110.909 E21.91129
G0 F3600 X118.829 Y111.475
G1 F1350 X108.523 Y101.17 E22.39603
G0 F3600 X107.958 Y101.17
G1 F1350 X118.829 Y112.041 E22.90736
G0 F3600 X118.829 Y112.606
G1 F1350 X107.392 Y101.17 E23.4453
G0 F3600 X106.826 Y101.17
G1 F1350 X118.829 Y113.172 E24.00986
G0 F3600 X118.829 Y113.738
G1 F1350 X106.261 Y101.17 E24.60102
G0 F3600 X105.695 Y101.17
G1 F1350 X118.829 Y114.303 E25.21878
G0 F3600 X118.829 Y114.869
G1 F1350 X105.129 Y101.17 E25.86317
G0 F3600 X104.564 Y101.17
G1 F1350 X118.829 Y115.435 E26.53415
G0 F3600 X118.829 Y116
G1 F1350 X103.998 Y101.17 E27.23173
G0 F3600 X103.432 Y101.17
G1 F1350 X118.829 Y116.566 E27.95593
G0 F3600 X118.829 Y117.132
G1 F1350 X102.867 Y101.17 E28.70674
G0 F3600 X102.301 Y101.17
G1 F1350 X118.829 Y117.697 E29.48414
G0 F3600 X118.829 Y118.263
G1 F1350 X101.735 Y101.17 E30.28816
G0 F3600 X101.169 Y101.169
G1 F1350 X118.829 Y118.829 E31.11884
G0 F3600 X118.263 Y118.829
G1 F1350 X101.169 Y101.734 E31.92291
G0 F3600 X101.169 Y102.3
G1 F1350 X117.697 Y118.829 E32.70036
G0 F3600 X117.132 Y118.829
G1 F1350 X101.169 Y102.866 E33.45121
G0 F3600 X101.169 Y103.432
G1 F1350 X116.566 Y118.829 E34.17544
G0 F3600 X116 Y118.829
G1 F1350 X101.169 Y103.997 E34.87307
G0 F3600 X101.169 Y104.563
G1 F1350 X115.435 Y118.829 E35.5441
G0 F3600 X114.869 Y118.829
G1 F1350 X101.169 Y105.129 E36.1885
G0 F3600 X101.169 Y105.694
G1 F1350 X114.303 Y118.829 E36.80631
G0 F3600 X113.738 Y118.829
G1 F1350 X101.169 Y106.26 E37.39752
G0 F3600 X101.169 Y106.826
G1 F1350 X113.172 Y118.829 E37.9621
G0 F3600 X112.606 Y118.829
G1 F1350 X101.169 Y107.391 E38.50008
G0 F3600 X101.169 Y107.957
G1 F1350 X112.041 Y118.829 E39.01147
G0 F3600 X111.475 Y118.829
G1 F1350 X101.169 Y108.523 E39.49623
G0 F3600 X101.169 Y109.088
G1 F1350 X110.909 Y118.829 E39.9544
G0 F3600 X110.344 Y118.829
G1 F1350 X101.169 Y109.654 E40.38596
G0 F3600 X101.169 Y110.22
G1 F1350 X109.778 Y118.829 E40.7909
G0 F3600 X109.212 Y118.829
G1 F1350 X101.169 Y110.785 E41.16924
G0 F3600 X101.169 Y111.351
G1 F1350 X108.646 Y118.829 E41.52096
G0 F3600 X108.081 Y118.829
G1 F1350 X101.169 Y111.917 E41.84608
G0 F3600 X101.169 Y112.483
G1 F1350 X107.515 Y118.829 E42.14458
G0 F3600 X106.949 Y118.829
G1 F1350 X101.169 Y113.048 E42.41647
G0 F3600 X101.169 Y113.614
G1 F1350 X106.384 Y118.829 E42.66177
G0 F3600 X105.818 Y118.829
G1 F1350 X101.169 Y114.18 E42.88045
G0 F3600 X101.169 Y114.745
G1 F1350 X105.252 Y118.829 E43.07252
G0 F3600 X104.687 Y118.829
G1 F1350 X101.169 Y115.311 E43.238
G0 F3600 X101.169 Y115.877
G1 F1350 X104.121 Y118.829 E43.37685
G0 F3600 X103.555 Y118.829
G1 F1350 X101.169 Y116.442 E43.4891
G0 F3600 X101.169 Y117.008
G1 F1350 X102.99 Y118.829 E43.57476
G0 F3600 X102.424 Y118.829
G1 F1350 X101.169 Y117.574 E43.63379
G0 F3600 X101.169 Y118.139
G1 F1350 X101.858 Y118.829 E43.66622
G0 F3600 X101.293 Y118.829
G1 F1350 X101.169 Y118.705 E43.67205
;MESH:NONMESH
G0 F3600 X119.33 Y119.33
G0 X119.4 Y119.4
;TIME_ELAPSED:63.136532
;LAYER:1
M117 INDICATOR-Layer1
M140 S50
M106 S255
;MESH:Cubo Calibración - BQ.stl
G0 F5400 X119.4 Y119.4 Z0.5
;TYPE:WALL-INNER
G1 F2025 X100.6 Y119.4 E44.60999
G1 X100.6 Y100.6 E45.54793
G1 X119.4 Y100.6 E46.48586
G1 X119.4 Y119.4 E47.4238
G0 F5400 X119.8 Y119.8
;TYPE:WALL-OUTER
G1 F1350 X100.2 Y119.8 E48.40165
G1 X100.2 Y100.2 E49.37949
G1 X119.8 Y100.2 E50.35734
G1 X119.8 Y119.8 E51.33519
G0 F5400 X119.6 Y119.8
G0 X119.33 Y119.33
G0 X119.01 Y119.01
;TYPE:SKIN
G1 F1350 X100.99 Y119.01 E52.23421
G1 X100.99 Y100.99 E53.13323
G1 X119.01 Y100.99 E54.03225
G1 X119.01 Y119.01 E54.93127
G0 F5400 X118.758 Y118.829
G1 F1350 X118.829 Y118.758 E54.93628
G0 F5400 X118.829 Y118.192
G1 F1350 X118.192 Y118.829 E54.98123
G0 F5400 X117.627 Y118.829
G1 F1350 X118.829 Y117.627 E55.06604
G0 F5400 X118.829 Y117.061
G1 F1350 X117.061 Y118.829 E55.19078
G0 F5400 X116.495 Y118.829
G1 F1350 X118.829 Y116.495 E55.35545
G0 F5400 X118.829 Y115.93
G1 F1350 X115.93 Y118.829 E55.55999
G0 F5400 X115.364 Y118.829
G1 F1350 X118.829 Y115.364 E55.80447
G0 F5400 X118.829 Y114.798
G1 F1350 X114.798 Y118.829 E56.08888
G0 F5400 X114.233 Y118.829
G1 F1350 X118.829 Y114.233 E56.41315
G0 F5400 X118.829 Y113.667
G1 F1350 X113.667 Y118.829 E56.77736
G0 F5400 X113.101 Y118.829
G1 F1350 X118.829 Y113.101 E57.1815
G0 F5400 X118.829 Y112.536
G1 F1350 X112.536 Y118.829 E57.6255
G0 F5400 X111.97 Y118.829
G1 F1350 X118.829 Y111.97 E58.10944
G0 F5400 X118.829 Y111.404
G1 F1350 X111.404 Y118.829 E58.63332
G0 F5400 X110.838 Y118.829
G1 F1350 X118.829 Y110.838 E59.19712
G0 F5400 X118.829 Y110.273
G1 F1350 X110.273 Y118.829 E59.8008
G0 F5400 X109.707 Y118.829
G1 F1350 X118.829 Y109.707 E60.4444
G0 F5400 X118.829 Y109.141
G1 F1350 X109.141 Y118.829 E61.12794
G0 F5400 X108.576 Y118.829
G1 F1350 X118.829 Y108.576 E61.85135
G0 F5400 X118.829 Y108.01
G1 F1350 X108.01 Y118.829 E62.61469
G0 F5400 X107.444 Y118.829
G1 F1350 X118.829 Y107.444 E63.41796
G0 F5400 X118.829 Y106.879
G1 F1350 X106.879 Y118.829 E64.2611
G0 F5400 X106.313 Y118.829
G1 F1350 X118.829 Y106.313 E65.14417
G0 F5400 X118.829 Y105.747
G1 F1350 X105.747 Y118.829 E66.06717
G0 F5400 X105.182 Y118.829
G1 F1350 X118.829 Y105.182 E67.03004
G0 F5400 X118.829 Y104.616
G1 F1350 X104.616 Y118.829 E68.03285
G0 F5400 X104.05 Y118.829
G1 F1350 X118.829 Y104.05 E69.07559
G0 F5400 X118.829 Y103.485
G1 F1350 X103.485 Y118.829 E70.15819
G0 F5400 X102.919 Y118.829
G1 F1350 X118.829 Y102.919 E71.28073
G0 F5400 X118.829 Y102.353
G1 F1350 X102.353 Y118.829 E72.4432
G0 F5400 X101.788 Y118.829
G1 F1350 X118.829 Y101.788 E73.64553
G0 F5400 X118.829 Y101.222
G1 F1350 X101.222 Y118.829 E74.8878
G0 F5400 X101.17 Y118.315
G1 F1350 X118.316 Y101.169 E76.09754
G0 F5400 X117.75 Y101.169
G1 F1350 X101.17 Y117.75 E77.26739
G0 F5400 X101.17 Y117.184
G1 F1350 X117.185 Y101.169 E78.39733
G0 F5400 X116.619 Y101.169
G1 F1350 X101.17 Y116.618 E79.48734
G0 F5400 X101.17 Y116.053
G1 F1350 X116.053 Y101.169 E80.53745
G0 F5400 X115.488 Y101.169
G1 F1350 X101.17 Y115.487 E81.54766
G0 F5400 X101.17 Y114.921
G1 F1350 X114.922 Y101.169 E82.51794
G0 F5400 X114.356 Y101.169
G1 F1350 X101.17 Y114.356 E83.44832
G0 F5400 X101.17 Y113.79
G1 F1350 X113.791 Y101.169 E84.3388
G0 F5400 X113.225 Y101.169
G1 F1350 X101.17 Y113.224 E85.18935
G0 F5400 X101.17 Y112.659
G1 F1350 X112.659 Y101.169 E85.99999
G0 F5400 X112.094 Y101.169
G1 F1350 X101.17 Y112.093 E86.77074
G0 F5400 X101.17 Y111.527
G1 F1350 X111.528 Y101.169 E87.50155
G0 F5400 X110.962 Y101.169
G1 F1350 X101.17 Y110.962 E88.19247
G0 F5400 X101.17 Y110.396
G1 F1350 X110.397 Y101.169 E88.84348
G0 F5400 X109.831 Y101.169
G1 F1350 X101.17 Y109.83 E89.45456
G0 F5400 X101.17 Y109.264
G1 F1350 X109.265 Y101.169 E90.02571
G0 F5400 X108.699 Y101.169
G1 F1350 X101.17 Y108.699 E90.55695
G0 F5400 X101.17 Y108.133
G1 F1350 X108.134 Y101.169 E91.0483
G0 F5400 X107.568 Y101.169
G1 F1350 X101.17 Y107.567 E91.49972
G0 F5400 X101.17 Y107.002
G1 F1350 X107.002 Y101.169 E91.91123
G0 F5400 X106.437 Y101.169
G1 F1350 X101.17 Y106.436 E92.28285
G0 F5400 X101.17 Y105.87
G1 F1350 X105.871 Y101.169 E92.61453
G0 F5400 X105.305 Y101.169
G1 F1350 X101.17 Y105.305 E92.90631
G0 F5400 X101.17 Y104.739
G1 F1350 X104.74 Y101.169 E93.15819
G0 F5400 X104.174 Y101.169
G1 F1350 X101.17 Y104.173 E93.37014
G0 F5400 X101.17 Y103.608
G1 F1350 X103.608 Y101.169 E93.54219
G0 F5400 X103.043 Y101.169
G1 F1350 X101.17 Y103.042 E93.67434
G0 F5400 X101.17 Y102.476
G1 F1350 X102.477 Y101.169 E93.76656
G0 F5400 X101.911 Y101.169
G1 F1350 X101.17 Y101.911 E93.81887
G0 F5400 X101.17 Y101.345
G1 F1350 X101.346 Y101.169 E93.83129
;MESH:NONMESH
G0 F5400 X119.33 Y119.33
G0 X119.4 Y119.4
;TIME_ELAPSED:108.453017
;LAYER:2
M117 INDICATOR-Layer2
;MESH:Cubo Calibración - BQ.stl
G0 F7200 X119.4 Y119.4 Z0.8
;TYPE:WALL-INNER
G1 F2700 X100.6 Y119.4 E94.76923
G1 X100.6 Y100.6 E95.70716
G1 X119.4 Y100.6 E96.6451
G1 X119.4 Y119.4 E97.58303
G0 F7200 X119.8 Y119.8
;TYPE:WALL-OUTER
G1 F1350 X100.2 Y119.8 E98.56088
G1 X100.2 Y100.2 E99.53873
G1 X119.8 Y100.2 E100.51658
G1 X119.8 Y119.8 E101.49442
G0 F7200 X119.6 Y119.8
G0 X119.33 Y119.33
G0 X119.01 Y119.01
;TYPE:SKIN
G1 F1350 X100.99 Y119.01 E102.39345
G1 X100.99 Y100.99 E103.29247
G1 X119.01 Y100.99 E104.19149
G1 X119.01 Y119.01 E105.09051
G0 F7200 X118.829 Y101.293
G1 F1350 X118.706 Y101.17 E105.09919
G0 F7200 X118.14 Y101.17
G1 F1350 X118.829 Y101.858 E105.14777
G0 F7200 X118.829 Y102.424
G1 F1350 X117.574 Y101.17 E105.23628
G0 F7200 X117.009 Y101.17
G1 F1350 X118.829 Y102.99 E105.36469
G0 F7200 X118.829 Y103.555
G1 F1350 X116.443 Y101.17 E105.533
G0 F7200 X115.877 Y101.17
G1 F1350 X118.829 Y104.121 E105.74124
G0 F7200 X118.829 Y104.687
G1 F1350 X115.312 Y101.17 E105.98939
G0 F7200 X114.746 Y101.17
G1 F1350 X118.829 Y105.252 E106.27743
G0 F7200 X118.829 Y105.818
G1 F1350 X114.18 Y101.17 E106.60541
G0 F7200 X113.615 Y101.17
G1 F1350 X118.829 Y106.384 E106.97328
G0 F7200 X118.829 Y106.949
G1 F1350 X113.049 Y101.17 E107.38106
G0 F7200 X112.483 Y101.17
G1 F1350 X118.829 Y107.515 E107.82877
G0 F7200 X118.829 Y108.081
G1 F1350 X111.918 Y101.17 E108.31637
G0 F7200 X111.352 Y101.17
G1 F1350 X118.829 Y108.646 E108.84388
G0 F7200 X118.829 Y109.212
G1 F1350 X110.786 Y101.17 E109.41132
G0 F7200 X110.22 Y101.17
G1 F1350 X118.829 Y109.778 E110.0187
G0 F7200 X118.829 Y110.344
G1 F1350 X109.655 Y101.17 E110.66597
G0 F7200 X109.089 Y101.17
G1 F1350 X118.829 Y110.909 E111.35315
G0 F7200 X118.829 Y111.475
G1 F1350 X108.523 Y101.17 E112.08026
G0 F7200 X107.958 Y101.17
G1 F1350 X118.829 Y112.041 E112.84727
G0 F7200 X118.829 Y112.606
