; G-Code generated by Simplify3D(R) Version 3.0.2
; dub 19, 2018 at 8:24:03 DOP.
; Settings Summary
;   processName,Process1
;   applyToModels,ukazovátko,ukazovátko(2)
;   profileName,Big Builder Dual Feed 3D Printer (modified)
;   profileVersion,2017-06-19 13:47:07
;   baseProfile,
;   printMaterial,
;   printQuality,
;   printExtruders,
;   extruderName,Back Extruder,Front Extruder
;   extruderToolheadNumber,0,1
;   extruderDiameter,0.4,0.4
;   extruderAutoWidth,1,1
;   extruderWidth,0.48,0.48
;   extrusionMultiplier,1,1
;   extruderUseRetract,1,1
;   extruderRetractionDistance,3,3
;   extruderExtraRestartDistance,0,0
;   extruderRetractionZLift,0,0
;   extruderRetractionSpeed,900,900
;   extruderUseCoasting,0,0
;   extruderCoastingDistance,0.2,0.2
;   extruderUseWipe,0,0
;   extruderWipeDistance,5,5
;   primaryExtruder,0
;   layerHeight,0.3
;   topSolidLayers,6
;   bottomSolidLayers,6
;   perimeterOutlines,3
;   printPerimetersInsideOut,1
;   startPointOption,2
;   startPointOriginX,0
;   startPointOriginY,0
;   startPointOriginZ,300
;   sequentialIslands,0
;   spiralVaseMode,0
;   firstLayerHeightPercentage,90
;   firstLayerWidthPercentage,100
;   firstLayerUnderspeed,0.5
;   useRaft,0
;   raftExtruder,0
;   raftLayers,3
;   raftOffset,3
;   raftSeparationDistance,0.14
;   raftInfill,85
;   disableRaftBaseLayers,0
;   useSkirt,1
;   skirtExtruder,0
;   skirtLayers,1
;   skirtOutlines,2
;   skirtOffset,5
;   usePrimePillar,0
;   primePillarExtruder,999
;   primePillarWidth,12
;   primePillarLocation,7
;   primePillarSpeedMultiplier,1
;   useOozeShield,0
;   oozeShieldExtruder,999
;   oozeShieldOffset,2
;   oozeShieldOutlines,1
;   oozeShieldSidewallShape,1
;   oozeShieldSidewallAngle,30
;   oozeShieldSpeedMultiplier,1
;   infillExtruder,0
;   internalInfillPattern,Full Honeycomb
;   externalInfillPattern,Rectilinear
;   infillPercentage,20
;   outlineOverlapPercentage,15
;   infillExtrusionWidthPercentage,100
;   minInfillLength,5
;   infillLayerInterval,1
;   infillAngles,0,120,-120
;   overlapInfillAngles,0
;   generateSupport,0
;   supportExtruder,0
;   supportInfillPercentage,30
;   supportExtraInflation,0
;   denseSupportLayers,0
;   denseSupportInfillPercentage,70
;   supportLayerInterval,1
;   supportHorizontalPartOffset,0.3
;   supportUpperSeparationLayers,1
;   supportLowerSeparationLayers,1
;   supportType,1
;   supportGridSpacing,4
;   maxOverhangAngle,45
;   supportAngles,0
;   temperatureName,Back Extruder Temperature,Front Extruder Temperature
;   temperatureNumber,0,1
;   temperatureSetpointCount,1,1
;   temperatureSetpointLayers,1,1
;   temperatureSetpointTemperatures,210,210
;   temperatureStabilizeAtStartup,1,1
;   temperatureHeatedBed,0,0
;   temperatureRelayBetweenLayers,0,0
;   temperatureRelayBetweenLoops,0,0
;   fanLayers,1,2
;   fanSpeeds,0,100
;   blipFanToFullPower,0
;   adjustSpeedForCooling,1
;   minSpeedLayerTime,15
;   minCoolingSpeedSlowdown,20
;   increaseFanForCooling,0
;   minFanLayerTime,45
;   maxCoolingFanSpeed,100
;   increaseFanForBridging,0
;   bridgingFanSpeed,100
;   use5D,1
;   relativeEdistances,0
;   allowEaxisZeroing,1
;   independentExtruderAxes,0
;   includeM10123,0
;   stickySupport,1
;   applyToolheadOffsets,0
;   gcodeXoffset,0
;   gcodeYoffset,0
;   gcodeZoffset,0
;   overrideMachineDefinition,1
;   machineTypeOverride,0
;   strokeXoverride,220
;   strokeYoverride,210
;   strokeZoverride,164
;   originOffsetXoverride,0
;   originOffsetYoverride,0
;   originOffsetZoverride,0
;   homeXdirOverride,-1
;   homeYdirOverride,-1
;   homeZdirOverride,-1
;   flipXoverride,1
;   flipYoverride,-1
;   flipZoverride,1
;   toolheadOffsets,0,0|0,0|0,0|0,0|0,0|0,0
;   overrideFirmwareConfiguration,1
;   firmwareTypeOverride,RepRap (Marlin/Repetier/Sprinter)
;   GPXconfigOverride,r2
;   baudRateOverride,115200
;   overridePrinterModels,0
;   printerModelsOverride
;   startingGcode,G28 X0 Y0 ; move X/Y to min endstops,G28 Z0 ; move Z to min endstops,G1 Z15.0 F1000 ; move the platform down 15mm,T0 ; Switch to the back extruder,G92 E0 ; zero the extruded length,G1 E10 F200 ; extrude 10mm of feed stock,G92 E0 ; zero the extruded length again,T1 ; Switch to the front extruder,G92 E0 ; zero the extruded length,G1 F200 E10 ; extrude 10mm of feed stock,G92 E0 ; zero the extruded length again,G1 Z0.4 F1000 ; move to 0.4 mm off bed,G1 X50 Y0 F6000 ; wipe
;   layerChangeGcode,
;   retractionGcode,
;   toolChangeGcode,
;   endingGcode,M104 T0 S0 ; back extruder heater off,M104 T1 S0 ; front extruder heater off,M140 S0 ; heated bed heater off (if you have it),G28 X0 Y0 ; move X/Y to min endstops,M84 ; steppers off,G90 ; absolute positioning
;   createX3G,0
;   celebration,0
;   celebrationSong,Random Song
;   createMB5G,0
;   postProcessing,
;   defaultSpeed,3600
;   outlineUnderspeed,0.5
;   solidInfillUnderspeed,0.8
;   supportUnderspeed,0.8
;   rapidXYspeed,6000
;   rapidZspeed,1000
;   minBridgingArea,50
;   bridgingExtraInflation,0
;   bridgingExtrusionMultiplier,1
;   bridgingSpeedMultiplier,1
;   filamentDiameter,1.75
;   filamentPricePerKg,46
;   filamentDensity,1.25
;   useMinPrintHeight,0
;   minPrintHeight,0
;   useMaxPrintHeight,0
;   maxPrintHeight,0
;   useDiaphragm,0
;   diaphragmLayerInterval,20
;   robustSlicing,1
;   mergeAllIntoSolid,0
;   onlyRetractWhenCrossingOutline,1
;   retractBetweenLayers,1
;   useRetractionMinTravel,0
;   retractionMinTravel,3
;   retractWhileWiping,0
;   onlyWipeOutlines,1
;   avoidCrossingOutline,0
;   maxMovementDetourFactor,3
;   toolChangeRetractionDistance,12
;   toolChangeExtraRestartDistance,-0.5
;   toolChangeRetractionSpeed,600
;   allowThinWallGapFill,1
;   thinWallAllowedOverlapPercentage,10
;   horizontalSizeCompensation,0
G90
M82
M106 S0
M104 S210 T0
M109 S210 T0
M104 S210 T1
M109 S210 T1
G28 X0 Y0 ; move X/Y to min endstops
G28 Z0 ; move Z to min endstops
G1 Z15.0 F1000 ; move the platform down 15mm
T0 ; Switch to the back extruder
G92 E0 ; zero the extruded length
G1 E10 F200 ; extrude 10mm of feed stock
G92 E0 ; zero the extruded length again
T1 ; Switch to the front extruder
G92 E0 ; zero the extruded length
G1 F200 E10 ; extrude 10mm of feed stock
G92 E0 ; zero the extruded length again
G1 Z0.4 F1000 ; move to 0.4 mm off bed
G1 X50 Y0 F6000 ; wipe
G92 E0
G1 E-3.0000 F900
G1 Z0.270 F1000
M117 INDICATOR-Layer1
T0
; tool H0.300 W0.480
; skirt
G1 X145.396 Y153.833 F6000
G1 E0.0000 F270
G92 E0
G1 X145.661 Y153.723 E0.0171 F1800
G1 X160.056 Y153.723 E0.8789
G1 X160.321 Y153.833 E0.8961
G1 X163.452 Y156.964 E1.1612
G1 X163.562 Y157.229 E1.1784
G1 X163.562 Y169.223 E1.8964
G1 X179.056 Y169.223 E2.8241
G1 X179.321 Y169.333 E2.8412
G1 X181.733 Y171.745 E3.0455
G1 X181.733 Y168.131 E3.2618
G1 X180.272 Y168.131 E3.3492
G1 X180.008 Y168.022 E3.3664
G1 X176.876 Y164.890 E3.6315
G1 X176.767 Y164.626 E3.6487
G1 X176.767 Y158.197 E4.0335
G1 X176.876 Y157.932 E4.0507
G1 X180.008 Y154.801 E4.3158
G1 X180.272 Y154.691 E4.3330
G1 X194.667 Y154.691 E5.1948
G1 X194.932 Y154.801 E5.2119
G1 X198.063 Y157.932 E5.4770
G1 X198.173 Y158.197 E5.4942
G1 X198.173 Y170.191 E6.2123
G1 X213.667 Y170.191 E7.1399
G1 X213.932 Y170.301 E7.1570
G1 X217.063 Y173.432 E7.4222
G1 X217.173 Y173.697 E7.4393
G1 X217.173 Y183.126 E8.0038
G1 X217.063 Y183.390 E8.0209
G1 X213.932 Y186.522 E8.2861
G1 X213.667 Y186.631 E8.3032
G1 X185.239 Y186.631 E10.0052
G1 X184.974 Y186.522 E10.0223
G1 X181.843 Y183.390 E10.2875
G1 X181.737 Y183.137 E10.3039
G1 X179.321 Y185.553 E10.5085
G1 X179.056 Y185.663 E10.5257
G1 X150.627 Y185.663 E12.2276
G1 X150.363 Y185.553 E12.2448
G1 X147.231 Y182.422 E12.5099
G1 X147.122 Y182.157 E12.5271
G1 X147.122 Y167.163 E13.4248
G1 X145.661 Y167.163 E13.5122
G1 X145.396 Y167.053 E13.5293
G1 X142.265 Y163.922 E13.7945
G1 X142.155 Y163.657 E13.8116
G1 X142.155 Y157.229 E14.1965
G1 X142.265 Y156.964 E14.2136
G1 X145.396 Y153.833 E14.4788
G1 X145.668 Y154.240 F6000
G92 E0
G1 X145.757 Y154.203 E0.0057 F1800
G1 X159.960 Y154.203 E0.8561
G1 X160.049 Y154.240 E0.8618
G1 X163.045 Y157.236 E1.1155
G1 X163.082 Y157.324 E1.1212
G1 X163.082 Y169.703 E1.8623
G1 X178.960 Y169.703 E2.8129
G1 X179.049 Y169.740 E2.8187
G1 X182.045 Y172.736 E3.0724
G1 X182.082 Y172.824 E3.0781
G1 X182.082 Y182.062 E3.6311
G1 X182.045 Y182.150 E3.6368
G1 X179.049 Y185.146 E3.8905
G1 X178.960 Y185.183 E3.8962
G1 X150.723 Y185.183 E5.5868
G1 X150.635 Y185.146 E5.5925
G1 X147.638 Y182.150 E5.8462
G1 X147.602 Y182.062 E5.8519
G1 X147.602 Y166.683 E6.7726
G1 X145.757 Y166.683 E6.8831
G1 X145.668 Y166.646 E6.8888
G1 X142.672 Y163.650 E7.1425
G1 X142.635 Y163.562 E7.1482
G1 X142.635 Y157.324 E7.5216
G1 X142.672 Y157.236 E7.5274
G1 X145.668 Y154.240 E7.7811
G1 X177.247 Y158.292 F6000
G92 E0
G1 X177.283 Y158.204 E0.0057 F1800
G1 X180.280 Y155.208 E0.2594
G1 X180.368 Y155.171 E0.2651
G1 X194.572 Y155.171 E1.1155
G1 X194.660 Y155.208 E1.1212
G1 X197.656 Y158.204 E1.3749
G1 X197.693 Y158.292 E1.3806
G1 X197.693 Y170.671 E2.1217
G1 X213.572 Y170.671 E3.0724
G1 X213.660 Y170.708 E3.0781
G1 X216.656 Y173.704 E3.3318
G1 X216.693 Y173.792 E3.3375
G1 X216.693 Y183.030 E3.8905
G1 X216.656 Y183.118 E3.8962
G1 X213.660 Y186.115 E4.1499
G1 X213.572 Y186.151 E4.1557
G1 X185.334 Y186.151 E5.8462
G1 X185.246 Y186.115 E5.8519
G1 X182.249 Y183.118 E6.1056
G1 X182.213 Y183.030 E6.1113
G1 X182.213 Y167.651 E7.0320
G1 X180.368 Y167.651 E7.1425
G1 X180.280 Y167.615 E7.1482
G1 X177.283 Y164.618 E7.4019
G1 X177.247 Y164.530 E7.4076
G1 X177.247 Y158.292 E7.7811
G92 E0
G1 E-3.0000 F900
; inner perimeter
G1 X188.653 Y161.611 F6000
G1 E0.0000 F900
G92 E0
G1 X191.253 Y161.611 E0.1557 F1500
G1 X191.253 Y177.111 E1.0836
G1 X210.253 Y177.111 E2.2211
G1 X210.253 Y179.711 E2.3768
G1 X188.653 Y179.711 E3.6699
G1 X188.653 Y161.611 E4.7535
; inner perimeter
G1 X183.207 Y161.131 F6000
G92 E0
G1 X191.733 Y161.131 E0.5105 F1200
G1 X191.733 Y176.631 E1.4384
G1 X210.733 Y176.631 E2.5759
G1 X210.733 Y180.191 E2.7890
G1 X188.173 Y180.191 E4.1397
G1 X188.173 Y161.691 E5.2472
G1 X183.207 Y161.691 E5.5445
G1 X183.207 Y161.131 E5.5781
; outer perimeter
G1 X182.727 Y160.651 F6000
G92 E0
G1 X192.213 Y160.651 E0.5679 F900
G1 X192.213 Y176.151 E1.4959
G1 X211.213 Y176.151 E2.6334
G1 X211.213 Y180.671 E2.9040
G1 X187.693 Y180.671 E4.3121
G1 X187.693 Y162.171 E5.4196
G1 X182.727 Y162.171 E5.7170
G1 X182.727 Y160.651 E5.8080
; solid layer
G1 X189.061 Y162.121 F6000
G92 E0
G1 X189.163 Y162.019 E0.0086 F1440
G1 X189.842 Y162.019 E0.0493
G1 X189.061 Y162.800 E0.1154
G1 X189.061 Y163.479 E0.1560
G1 X190.520 Y162.019 E0.2796
G1 X190.845 Y162.019 E0.2990
G1 X190.845 Y162.374 E0.3202
G1 X189.061 Y164.158 E0.4713
G1 X189.061 Y164.836 E0.5119
G1 X190.845 Y163.052 E0.6629
G1 X190.845 Y163.731 E0.7036
G1 X189.061 Y165.515 E0.8546
G1 X189.061 Y166.194 E0.8953
G1 X190.845 Y164.410 E1.0463
G1 X190.845 Y165.089 E1.0870
G1 X189.061 Y166.873 E1.2380
G1 X189.061 Y167.552 E1.2786
G1 X190.845 Y165.768 E1.4297
G1 X190.845 Y166.447 E1.4703
G1 X189.061 Y168.231 E1.6214
G1 X189.061 Y168.909 E1.6620
G1 X190.845 Y167.125 E1.8131
G1 X190.845 Y167.804 E1.8537
G1 X189.061 Y169.588 E2.0047
G1 X189.061 Y170.267 E2.0454
G1 X190.845 Y168.483 E2.1964
G1 X190.845 Y169.162 E2.2371
G1 X189.061 Y170.946 E2.3881
G1 X189.061 Y171.625 E2.4288
G1 X190.845 Y169.841 E2.5798
G1 X190.845 Y170.520 E2.6204
G1 X189.061 Y172.304 E2.7715
G1 X189.061 Y172.982 E2.8121
G1 X190.845 Y171.198 E2.9632
G1 X190.845 Y171.877 E3.0038
G1 X189.061 Y173.661 E3.1549
G1 X189.061 Y174.340 E3.1955
G1 X190.845 Y172.556 E3.3465
G1 X190.845 Y173.235 E3.3872
G1 X189.061 Y175.019 E3.5382
G1 X189.061 Y175.698 E3.5789
G1 X190.845 Y173.914 E3.7299
G1 X190.845 Y174.592 E3.7705
G1 X189.061 Y176.376 E3.9216
G1 X189.061 Y177.055 E3.9622
G1 X190.845 Y175.271 E4.1133
G1 X190.845 Y175.950 E4.1539
G1 X189.061 Y177.734 E4.3050
G1 X189.061 Y178.413 E4.3456
G1 X190.845 Y176.629 E4.4966
G1 X190.845 Y177.308 E4.5373
G1 X189.061 Y179.092 E4.6883
G1 X189.061 Y179.303 E4.7010
G1 X189.528 Y179.303 E4.7290
G1 X191.312 Y177.519 E4.8800
G1 X191.991 Y177.519 E4.9207
G1 X190.207 Y179.303 E5.0717
G1 X190.886 Y179.303 E5.1123
G1 X192.670 Y177.519 E5.2634
G1 X193.349 Y177.519 E5.3040
G1 X191.565 Y179.303 E5.4551
G1 X192.243 Y179.303 E5.4957
G1 X194.027 Y177.519 E5.6468
G1 X194.706 Y177.519 E5.6874
G1 X192.922 Y179.303 E5.8384
G1 X193.601 Y179.303 E5.8791
G1 X195.385 Y177.519 E6.0301
G1 X196.064 Y177.519 E6.0708
G1 X194.280 Y179.303 E6.2218
G1 X194.959 Y179.303 E6.2624
G1 X196.743 Y177.519 E6.4135
G1 X197.422 Y177.519 E6.4541
G1 X195.638 Y179.303 E6.6052
G1 X196.316 Y179.303 E6.6458
G1 X198.100 Y177.519 E6.7969
G1 X198.779 Y177.519 E6.8375
G1 X196.995 Y179.303 E6.9885
G1 X197.674 Y179.303 E7.0292
G1 X199.458 Y177.519 E7.1802
G1 X200.137 Y177.519 E7.2209
G1 X198.353 Y179.303 E7.3719
G1 X199.032 Y179.303 E7.4126
G1 X200.816 Y177.519 E7.5636
G1 X201.495 Y177.519 E7.6042
G1 X199.711 Y179.303 E7.7553
G1 X200.389 Y179.303 E7.7959
G1 X202.173 Y177.519 E7.9470
G1 X202.852 Y177.519 E7.9876
G1 X201.068 Y179.303 E8.1387
G1 X201.747 Y179.303 E8.1793
G1 X203.531 Y177.519 E8.3303
G1 X204.210 Y177.519 E8.3710
G1 X202.426 Y179.303 E8.5220
G1 X203.105 Y179.303 E8.5627
G1 X204.889 Y177.519 E8.7137
G1 X205.567 Y177.519 E8.7544
G1 X203.783 Y179.303 E8.9054
G1 X204.462 Y179.303 E8.9460
G1 X206.246 Y177.519 E9.0971
G1 X206.925 Y177.519 E9.1377
G1 X205.141 Y179.303 E9.2888
G1 X205.820 Y179.303 E9.3294
G1 X207.604 Y177.519 E9.4805
G1 X208.283 Y177.519 E9.5211
G1 X206.499 Y179.303 E9.6721
G1 X207.178 Y179.303 E9.7128
G1 X208.962 Y177.519 E9.8638
G1 X209.640 Y177.519 E9.9045
G1 X207.856 Y179.303 E10.0555
G1 X208.535 Y179.303 E10.0961
G1 X209.845 Y177.994 E10.2070
G1 X209.845 Y178.672 E10.2477
G1 X209.214 Y179.303 E10.3011
G92 E0
G1 E-3.0000 F900
; inner perimeter
G1 X175.642 Y178.743 F6000
G1 E0.0000 F900
G92 E0
G1 X154.042 Y178.743 E1.2932 F1500
G1 X154.042 Y160.643 E2.3768
G1 X156.642 Y160.643 E2.5324
G1 X156.642 Y176.143 E3.4604
G1 X175.642 Y176.143 E4.5979
G1 X175.642 Y178.743 E4.7535
; inner perimeter
G1 X176.122 Y179.223 F6000
G92 E0
G1 X153.562 Y179.223 E1.3506 F1200
G1 X153.562 Y160.723 E2.4582
G1 X148.595 Y160.723 E2.7555
G1 X148.595 Y160.163 E2.7890
G1 X157.122 Y160.163 E3.2995
G1 X157.122 Y175.663 E4.2274
G1 X176.122 Y175.663 E5.3649
G1 X176.122 Y179.223 E5.5781
; outer perimeter
G1 X176.602 Y179.703 F6000
G92 E0
G1 X153.082 Y179.703 E1.4081 F900
G1 X153.082 Y161.203 E2.5157
G1 X148.115 Y161.203 E2.8130
G1 X148.115 Y159.683 E2.9040
G1 X157.602 Y159.683 E3.4719
G1 X157.602 Y175.183 E4.3999
G1 X176.602 Y175.183 E5.5374
G1 X176.602 Y179.703 E5.8080
; solid layer
G1 X174.884 Y178.335 F6000
G92 E0
G1 X175.234 Y177.985 E0.0296 F1440
G1 X175.234 Y177.306 E0.0703
G1 X174.205 Y178.335 E0.1574
G1 X173.526 Y178.335 E0.1980
G1 X175.234 Y176.627 E0.3426
G1 X175.234 Y176.551 E0.3472
G1 X174.631 Y176.551 E0.3833
G1 X172.847 Y178.335 E0.5343
G1 X172.168 Y178.335 E0.5749
G1 X173.952 Y176.551 E0.7260
G1 X173.273 Y176.551 E0.7666
G1 X171.489 Y178.335 E0.9177
G1 X170.811 Y178.335 E0.9583
G1 X172.595 Y176.551 E1.1094
G1 X171.916 Y176.551 E1.1500
G1 X170.132 Y178.335 E1.3010
G1 X169.453 Y178.335 E1.3417
G1 X171.237 Y176.551 E1.4927
G1 X170.558 Y176.551 E1.5334
G1 X168.774 Y178.335 E1.6844
G1 X168.095 Y178.335 E1.7250
G1 X169.879 Y176.551 E1.8761
G1 X169.201 Y176.551 E1.9167
G1 X167.417 Y178.335 E2.0678
G1 X166.738 Y178.335 E2.1084
G1 X168.522 Y176.551 E2.2595
G1 X167.843 Y176.551 E2.3001
G1 X166.059 Y178.335 E2.4511
G1 X165.380 Y178.335 E2.4918
G1 X167.164 Y176.551 E2.6428
G1 X166.485 Y176.551 E2.6835
G1 X164.701 Y178.335 E2.8345
G1 X164.022 Y178.335 E2.8752
G1 X165.806 Y176.551 E3.0262
G1 X165.128 Y176.551 E3.0668
G1 X163.344 Y178.335 E3.2179
G1 X162.665 Y178.335 E3.2585
G1 X164.449 Y176.551 E3.4096
G1 X163.770 Y176.551 E3.4502
G1 X161.986 Y178.335 E3.6013
G1 X161.307 Y178.335 E3.6419
G1 X163.091 Y176.551 E3.7929
G1 X162.412 Y176.551 E3.8336
G1 X160.628 Y178.335 E3.9846
G1 X159.949 Y178.335 E4.0253
G1 X161.733 Y176.551 E4.1763
G1 X161.055 Y176.551 E4.2170
G1 X159.271 Y178.335 E4.3680
G1 X158.592 Y178.335 E4.4086
G1 X160.376 Y176.551 E4.5597
G1 X159.697 Y176.551 E4.6003
