; G-Code generated by Simplify3D(R) Version 4.0.0
; Apr 27, 2018 at 8:34:09 PM
; Settings Summary
;   processName,PLA
;   applyToModels,BC_Wheel,BC_Wheel(2),BC_Wheel(3),BC_Wheel(4)
;   profileName,D-Bot - PLA (modified)
;   profileVersion,2017-12-16 12:58:30
;   baseProfile,Ultimaker 2 (modified)
;   printMaterial,PLA
;   printQuality,High
;   printExtruders,
;   extruderName,Primary Extruder
;   extruderToolheadNumber,0
;   extruderDiameter,0.4
;   extruderAutoWidth,0
;   extruderWidth,0.4
;   extrusionMultiplier,1
;   extruderUseRetract,1
;   extruderRetractionDistance,7.5
;   extruderExtraRestartDistance,0
;   extruderRetractionZLift,0
;   extruderRetractionSpeed,3600
;   extruderUseCoasting,0
;   extruderCoastingDistance,0.4
;   extruderUseWipe,0
;   extruderWipeDistance,3
;   primaryExtruder,0
;   layerHeight,0.1
;   topSolidLayers,4
;   bottomSolidLayers,4
;   perimeterOutlines,4
;   printPerimetersInsideOut,1
;   startPointOption,2
;   startPointOriginX,0
;   startPointOriginY,300
;   sequentialIslands,0
;   spiralVaseMode,0
;   firstLayerHeightPercentage,75
;   firstLayerWidthPercentage,100
;   firstLayerUnderspeed,0.25
;   useRaft,0
;   raftExtruder,0
;   raftTopLayers,3
;   raftBaseLayers,2
;   raftOffset,10
;   raftSeparationDistance,0.14
;   raftTopInfill,100
;   aboveRaftSpeedMultiplier,0.3
;   useSkirt,1
;   skirtExtruder,0
;   skirtLayers,1
;   skirtOutlines,6
;   skirtOffset,11
;   usePrimePillar,0
;   primePillarExtruder,999
;   primePillarWidth,12
;   primePillarLocation,7
;   primePillarSpeedMultiplier,1
;   useOozeShield,0
;   oozeShieldExtruder,999
;   oozeShieldOffset,2
;   oozeShieldOutlines,1
;   oozeShieldSidewallShape,1
;   oozeShieldSidewallAngle,30
;   oozeShieldSpeedMultiplier,1
;   infillExtruder,0
;   internalInfillPattern,Rectilinear
;   externalInfillPattern,Rectilinear
;   infillPercentage,15
;   outlineOverlapPercentage,25
;   infillExtrusionWidthPercentage,100
;   minInfillLength,3
;   infillLayerInterval,1
;   internalInfillAngles,45,-45
;   overlapInternalInfillAngles,0
;   externalInfillAngles,45,-45
;   generateSupport,0
;   supportExtruder,0
;   supportInfillPercentage,10
;   supportExtraInflation,0
;   supportBaseLayers,0
;   denseSupportExtruder,0
;   denseSupportLayers,0
;   denseSupportInfillPercentage,70
;   supportLayerInterval,1
;   supportHorizontalPartOffset,0.4
;   supportUpperSeparationLayers,1
;   supportLowerSeparationLayers,1
;   supportType,1
;   supportGridSpacing,2
;   maxOverhangAngle,60
;   supportAngles,0
;   temperatureName,Primary Extruder,Heated Build Platform
;   temperatureNumber,0,1
;   temperatureSetpointCount,1,1
;   temperatureSetpointLayers,1,1
;   temperatureSetpointTemperatures,212,70
;   temperatureStabilizeAtStartup,1,1
;   temperatureHeatedBed,0,1
;   temperatureRelayBetweenLayers,0,0
;   temperatureRelayBetweenLoops,0,0
;   fanLayers,1,3
;   fanSpeeds,0,30
;   blipFanToFullPower,1
;   adjustSpeedForCooling,1
;   minSpeedLayerTime,4
;   minCoolingSpeedSlowdown,20
;   increaseFanForCooling,0
;   minFanLayerTime,10
;   maxCoolingFanSpeed,100
;   increaseFanForBridging,1
;   bridgingFanSpeed,100
;   use5D,1
;   relativeEdistances,0
;   allowEaxisZeroing,1
;   independentExtruderAxes,0
;   includeM10123,0
;   stickySupport,1
;   applyToolheadOffsets,0
;   gcodeXoffset,0
;   gcodeYoffset,0
;   gcodeZoffset,0
;   overrideMachineDefinition,1
;   machineTypeOverride,0
;   strokeXoverride,600
;   strokeYoverride,300
;   strokeZoverride,300
;   originOffsetXoverride,0
;   originOffsetYoverride,0
;   originOffsetZoverride,0
;   homeXdirOverride,-1
;   homeYdirOverride,1
;   homeZdirOverride,-1
;   flipXoverride,1
;   flipYoverride,-1
;   flipZoverride,1
;   toolheadOffsets,0,0|0,0|0,0|0,0|0,0|0,0
;   overrideFirmwareConfiguration,0
;   firmwareTypeOverride,RepRap (Marlin/Repetier/Sprinter)
;   GPXconfigOverride,r2
;   baudRateOverride,250000
;   overridePrinterModels,1
;   printerModelsOverride
;   startingGcode,;M280 P0 S160           ;Alarm Release for BLTouch,;G28                           ;Home All Axes,;G29                           ;Auto Level Bed,G90,G1 Z10 F900             ;Lower Bed 10 mm,M109 S[extruder0_temperature],G92 E0,;G1 X10.0 Y10.0 F2000,;G1 Z0.1  F1000,;G1 Y60.0 E4.0 F1000          	  ; Prime the nozzle,;G1 Y150.0 E10.0 F500	  ; Prime the nozzle,;G92 E0,M117 Hot and Oozing Now!
;   layerChangeGcode,
;   retractionGcode,
;   toolChangeGcode,
;   endingGcode,M104 S0 ; turn off extruder,M140 S0 ; turn off bed,G91 ; use relative coordinates,G1 Z2.0 F5000 ; lift nozzle by 2 mm,G90 ; use absolute coordinates,;G28 X0 ; home X axis,G1 X0.0,;G1  Y200.0 ,;G1 X100.0,;M84 ; disable motors,M107 ; turn off fan,M117 Done...Clean Me Up!
;   exportFileFormat,gcode
;   celebration,0
;   celebrationSong,Random Song
;   postProcessing,
;   defaultSpeed,1800
;   outlineUnderspeed,0.5
;   solidInfillUnderspeed,1
;   supportUnderspeed,0.7
;   rapidXYspeed,1800
;   rapidZspeed,1020
;   minBridgingArea,5
;   bridgingExtraInflation,0
;   bridgingExtrusionMultiplier,1
;   bridgingSpeedMultiplier,0.5
;   useFixedBridgingAngle,0
;   fixedBridgingAngle,0
;   applyBridgingToPerimeters,0
;   filamentDiameters,1.75|1.75|1.75|1.75|1.75|1.75
;   filamentPricesPerKg,26|26|26|26|26|26
;   filamentDensities,1.25|1.25|1.25|1.25|1.25|1.25
;   useMinPrintHeight,0
;   minPrintHeight,0
;   useMaxPrintHeight,0
;   maxPrintHeight,0
;   useDiaphragm,0
;   diaphragmLayerInterval,20
;   robustSlicing,1
;   mergeAllIntoSolid,0
;   onlyRetractWhenCrossingOutline,0
;   retractBetweenLayers,0
;   useRetractionMinTravel,0
;   retractionMinTravel,2
;   retractWhileWiping,0
;   onlyWipeOutlines,0
;   avoidCrossingOutline,1
;   maxMovementDetourFactor,20
;   toolChangeRetractionDistance,12
;   toolChangeExtraRestartDistance,-0.5
;   toolChangeRetractionSpeed,600
;   externalThinWallType,1
;   internalThinWallType,1
;   thinWallAllowedOverlapPercentage,20
;   singleExtrusionMinLength,1
;   singleExtrusionMinPrintingWidthPercentage,25
;   singleExtrusionMaxPrintingWidthPercentage,200
;   singleExtrusionEndpointExtension,0.2
;   horizontalSizeCompensation,0
G90
M82
M106 S255
G4 P500
M106 S0
M140 S70
M190 S70
;M280 P0 S160           ;Alarm Release for BLTouch
;G28                           ;Home All Axes
;G29                           ;Auto Level Bed
G90
G1 Z10 F900             ;Lower Bed 10 mm
M109 S212
G92 E0
;G1 X10.0 Y10.0 F2000
;G1 Z0.1  F1000
;G1 Y60.0 E4.0 F1000          	  ; Prime the nozzle
;G1 Y150.0 E10.0 F500	  ; Prime the nozzle
;G92 E0
M117 Hot and Oozing Now!
G92 E0
G1 E-7.5000 F3600
G1 Z0.075 F1020
; process PLA
; layer 1, Z = 0.075
T0
; tool H0.100 W0.400
; skirt
G1 X61.012 Y78.349 F1800
G1 E0.0000 F1080
G92 E0
G1 X63.656 Y76.319 E0.0554 F450
G1 X63.776 Y76.239 E0.0578
G1 X65.149 Y75.446 E0.0842
G1 X65.278 Y75.383 E0.0866
G1 X68.358 Y74.106 E0.1420
G1 X68.495 Y74.060 E0.1444
G1 X70.028 Y73.649 E0.1708
G1 X70.169 Y73.621 E0.1732
G1 X73.475 Y73.186 E0.2287
G1 X73.619 Y73.176 E0.2311
G1 X75.205 Y73.176 E0.2574
G1 X75.348 Y73.186 E0.2598
G1 X78.654 Y73.621 E0.3153
G1 X78.796 Y73.649 E0.3177
G1 X80.329 Y74.060 E0.3441
G1 X80.465 Y74.106 E0.3465
G1 X83.545 Y75.383 E0.4019
G1 X83.674 Y75.446 E0.4043
G1 X85.047 Y76.239 E0.4307
G1 X85.167 Y76.319 E0.4331
G1 X86.912 Y77.658 E0.4697
G1 X88.656 Y76.319 E0.5062
G1 X88.776 Y76.239 E0.5086
G1 X90.149 Y75.446 E0.5350
G1 X90.278 Y75.383 E0.5374
G1 X93.358 Y74.106 E0.5928
G1 X93.495 Y74.060 E0.5952
G1 X95.028 Y73.649 E0.6216
G1 X95.169 Y73.621 E0.6240
G1 X98.475 Y73.186 E0.6795
G1 X98.619 Y73.176 E0.6819
G1 X100.205 Y73.176 E0.7082
G1 X100.348 Y73.186 E0.7106
G1 X103.654 Y73.621 E0.7661
G1 X103.796 Y73.649 E0.7685
G1 X105.329 Y74.060 E0.7949
G1 X105.465 Y74.106 E0.7973
G1 X108.545 Y75.383 E0.8527
G1 X108.674 Y75.446 E0.8551
G1 X110.047 Y76.239 E0.8815
G1 X110.167 Y76.319 E0.8839
G1 X112.812 Y78.349 E0.9393
G1 X112.920 Y78.444 E0.9417
G1 X114.041 Y79.564 E0.9681
G1 X114.136 Y79.673 E0.9705
G1 X116.165 Y82.317 E1.0259
G1 X116.245 Y82.437 E1.0283
G1 X117.038 Y83.810 E1.0547
G1 X117.102 Y83.939 E1.0571
G1 X118.378 Y87.019 E1.1125
G1 X118.424 Y87.155 E1.1149
G1 X118.835 Y88.688 E1.1413
G1 X118.863 Y88.830 E1.1437
G1 X119.299 Y92.136 E1.1991
G1 X119.308 Y92.280 E1.2015
G1 X119.308 Y93.865 E1.2279
G1 X119.299 Y94.009 E1.2303
G1 X118.863 Y97.315 E1.2858
G1 X118.835 Y97.457 E1.2882
G1 X118.424 Y98.990 E1.3145
G1 X118.378 Y99.126 E1.3169
G1 X117.102 Y102.206 E1.3724
G1 X117.038 Y102.335 E1.3748
G1 X116.245 Y103.708 E1.4011
G1 X116.165 Y103.828 E1.4035
G1 X114.826 Y105.573 E1.4401
G1 X116.165 Y107.317 E1.4767
G1 X116.245 Y107.437 E1.4791
G1 X117.038 Y108.810 E1.5054
G1 X117.102 Y108.939 E1.5078
G1 X118.378 Y112.019 E1.5633
G1 X118.424 Y112.155 E1.5657
G1 X118.835 Y113.688 E1.5921
G1 X118.863 Y113.830 E1.5945
G1 X119.299 Y117.136 E1.6499
G1 X119.308 Y117.280 E1.6523
G1 X119.308 Y118.865 E1.6787
G1 X119.299 Y119.009 E1.6811
G1 X118.863 Y122.315 E1.7365
G1 X118.835 Y122.457 E1.7389
G1 X118.424 Y123.990 E1.7653
G1 X118.378 Y124.126 E1.7677
G1 X117.102 Y127.206 E1.8232
G1 X117.038 Y127.335 E1.8256
G1 X116.245 Y128.708 E1.8519
G1 X116.165 Y128.828 E1.8543
G1 X114.136 Y131.472 E1.9098
G1 X114.041 Y131.581 E1.9122
G1 X112.920 Y132.702 E1.9385
G1 X112.812 Y132.796 E1.9409
G1 X110.167 Y134.826 E1.9964
G1 X110.047 Y134.906 E1.9988
G1 X108.674 Y135.699 E2.0251
G1 X108.545 Y135.762 E2.0275
G1 X105.465 Y137.039 E2.0830
G1 X105.329 Y137.085 E2.0854
G1 X103.796 Y137.496 E2.1117
G1 X103.654 Y137.524 E2.1141
G1 X100.348 Y137.959 E2.1696
G1 X100.205 Y137.969 E2.1720
G1 X98.619 Y137.969 E2.1984
G1 X98.475 Y137.959 E2.2008
G1 X95.169 Y137.524 E2.2562
G1 X95.028 Y137.496 E2.2586
G1 X93.495 Y137.085 E2.2850
G1 X93.358 Y137.039 E2.2874
G1 X90.278 Y135.762 E2.3428
G1 X90.149 Y135.699 E2.3452
G1 X88.776 Y134.906 E2.3716
G1 X88.656 Y134.826 E2.3740
G1 X86.912 Y133.487 E2.4106
G1 X85.167 Y134.826 E2.4471
G1 X85.047 Y134.906 E2.4495
G1 X83.674 Y135.699 E2.4759
G1 X83.545 Y135.762 E2.4783
G1 X80.465 Y137.039 E2.5337
G1 X80.329 Y137.085 E2.5361
G1 X78.796 Y137.496 E2.5625
G1 X78.654 Y137.524 E2.5649
G1 X75.348 Y137.959 E2.6204
G1 X75.205 Y137.969 E2.6228
G1 X73.619 Y137.969 E2.6492
G1 X73.475 Y137.959 E2.6515
G1 X70.169 Y137.524 E2.7070
G1 X70.028 Y137.496 E2.7094
G1 X68.495 Y137.085 E2.7358
G1 X68.358 Y137.039 E2.7382
G1 X65.278 Y135.762 E2.7936
G1 X65.149 Y135.699 E2.7960
G1 X63.776 Y134.906 E2.8224
G1 X63.656 Y134.826 E2.8248
G1 X61.012 Y132.796 E2.8802
G1 X60.904 Y132.702 E2.8826
G1 X59.783 Y131.581 E2.9090
G1 X59.688 Y131.472 E2.9114
G1 X57.658 Y128.828 E2.9668
G1 X57.578 Y128.708 E2.9692
G1 X56.785 Y127.335 E2.9956
G1 X56.722 Y127.206 E2.9980
G1 X55.445 Y124.126 E3.0534
G1 X55.399 Y123.990 E3.0558
G1 X54.988 Y122.457 E3.0822
G1 X54.960 Y122.315 E3.0846
G1 X54.525 Y119.009 E3.1401
G1 X54.516 Y118.865 E3.1425
G1 X54.516 Y117.280 E3.1688
G1 X54.525 Y117.136 E3.1712
G1 X54.960 Y113.830 E3.2267
G1 X54.988 Y113.688 E3.2291
G1 X55.399 Y112.155 E3.2555
G1 X55.445 Y112.019 E3.2579
G1 X56.722 Y108.939 E3.3133
G1 X56.785 Y108.810 E3.3157
G1 X57.578 Y107.437 E3.3421
G1 X57.658 Y107.317 E3.3445
G1 X58.997 Y105.573 E3.3810
G1 X57.658 Y103.828 E3.4176
G1 X57.578 Y103.708 E3.4200
G1 X56.785 Y102.335 E3.4464
G1 X56.722 Y102.206 E3.4488
G1 X55.445 Y99.126 E3.5042
G1 X55.399 Y98.990 E3.5066
G1 X54.988 Y97.457 E3.5330
G1 X54.960 Y97.315 E3.5354
G1 X54.525 Y94.009 E3.5908
G1 X54.516 Y93.865 E3.5932
G1 X54.516 Y92.280 E3.6196
G1 X54.525 Y92.136 E3.6220
G1 X54.960 Y88.830 E3.6775
G1 X54.988 Y88.688 E3.6799
G1 X55.399 Y87.155 E3.7063
G1 X55.445 Y87.019 E3.7087
G1 X56.722 Y83.939 E3.7641
G1 X56.785 Y83.810 E3.7665
G1 X57.578 Y82.437 E3.7929
G1 X57.658 Y82.317 E3.7953
G1 X59.688 Y79.673 E3.8507
G1 X59.783 Y79.564 E3.8531
G1 X60.904 Y78.444 E3.8794
G1 X61.012 Y78.349 E3.8818
G92 E0
G1 E-7.5000 F3600
G1 X61.266 Y78.658 F1800
G1 E0.0000 F3600
G92 E0
G1 X63.890 Y76.644 E0.0550 F450
G1 X63.988 Y76.579 E0.0570
G1 X65.338 Y75.799 E0.0829
G1 X65.443 Y75.747 E0.0848
G1 X68.499 Y74.481 E0.1399
G1 X68.611 Y74.443 E0.1418
G1 X70.119 Y74.039 E0.1678
G1 X70.234 Y74.016 E0.1697
G1 X73.514 Y73.584 E0.2248
G1 X73.632 Y73.576 E0.2267
G1 X75.192 Y73.576 E0.2527
G1 X75.309 Y73.584 E0.2546
G1 X78.589 Y74.016 E0.3096
G1 X78.705 Y74.039 E0.3116
G1 X80.213 Y74.443 E0.3376
G1 X80.324 Y74.481 E0.3395
G1 X83.380 Y75.747 E0.3945
G1 X83.486 Y75.799 E0.3965
G1 X84.836 Y76.579 E0.4224
G1 X84.934 Y76.644 E0.4244
G1 X86.912 Y78.162 E0.4658
G1 X88.890 Y76.644 E0.5073
G1 X88.988 Y76.579 E0.5093
G1 X90.338 Y75.799 E0.5352
G1 X90.443 Y75.747 E0.5371
G1 X93.499 Y74.481 E0.5921
G1 X93.611 Y74.443 E0.5941
G1 X95.119 Y74.039 E0.6201
G1 X95.234 Y74.016 E0.6220
G1 X98.514 Y73.584 E0.6770
G1 X98.632 Y73.576 E0.6790
G1 X100.192 Y73.576 E0.7049
G1 X100.309 Y73.584 E0.7069
G1 X103.589 Y74.016 E0.7619
G1 X103.705 Y74.039 E0.7639
G1 X105.213 Y74.443 E0.7898
G1 X105.324 Y74.481 E0.7918
G1 X108.380 Y75.747 E0.8468
G1 X108.486 Y75.799 E0.8488
G1 X109.836 Y76.579 E0.8747
G1 X109.934 Y76.644 E0.8767
G1 X112.558 Y78.658 E0.9317
G1 X112.646 Y78.736 E0.9336
G1 X113.749 Y79.838 E0.9595
G1 X113.826 Y79.927 E0.9615
G1 X115.840 Y82.550 E1.0165
G1 X115.905 Y82.648 E1.0185
G1 X116.685 Y83.999 E1.0444
G1 X116.737 Y84.104 E1.0464
G1 X118.003 Y87.160 E1.1014
G1 X118.041 Y87.272 E1.1033
G1 X118.445 Y88.779 E1.1293
G1 X118.468 Y88.895 E1.1312
G1 X118.900 Y92.175 E1.1863
G1 X118.908 Y92.293 E1.1882
G1 X118.908 Y93.852 E1.2142
G1 X118.900 Y93.970 E1.2161
G1 X118.468 Y97.250 E1.2711
G1 X118.445 Y97.366 E1.2731
G1 X118.041 Y98.873 E1.2991
G1 X118.003 Y98.985 E1.3010
G1 X116.737 Y102.041 E1.3560
G1 X116.685 Y102.146 E1.3580
G1 X115.905 Y103.497 E1.3839
G1 X115.840 Y103.595 E1.3859
G1 X114.322 Y105.573 E1.4273
G1 X115.840 Y107.550 E1.4688
G1 X115.905 Y107.648 E1.4708
G1 X116.685 Y108.999 E1.4967
G1 X116.737 Y109.104 E1.4986
G1 X118.003 Y112.160 E1.5537
G1 X118.041 Y112.272 E1.5556
G1 X118.445 Y113.779 E1.5816
G1 X118.468 Y113.895 E1.5835
G1 X118.900 Y117.175 E1.6386
G1 X118.908 Y117.293 E1.6405
G1 X118.908 Y118.852 E1.6664
G1 X118.900 Y118.970 E1.6684
G1 X118.468 Y122.250 E1.7234
G1 X118.445 Y122.366 E1.7254
G1 X118.041 Y123.873 E1.7513
G1 X118.003 Y123.985 E1.7533
G1 X116.737 Y127.041 E1.8083
G1 X116.685 Y127.146 E1.8103
G1 X115.905 Y128.497 E1.8362
G1 X115.840 Y128.595 E1.8382
G1 X113.826 Y131.218 E1.8932
G1 X113.749 Y131.307 E1.8951
G1 X112.646 Y132.409 E1.9211
G1 X112.558 Y132.487 E1.9230
G1 X109.934 Y134.501 E1.9780
G1 X109.836 Y134.566 E1.9800
G1 X108.486 Y135.346 E2.0059
G1 X108.380 Y135.398 E2.0079
G1 X105.324 Y136.664 E2.0629
G1 X105.213 Y136.702 E2.0648
G1 X103.705 Y137.106 E2.0908
G1 X103.589 Y137.129 E2.0927
G1 X100.309 Y137.561 E2.1478
G1 X100.192 Y137.569 E2.1497
G1 X98.632 Y137.569 E2.1757
G1 X98.514 Y137.561 E2.1776
G1 X95.234 Y137.129 E2.2326
G1 X95.119 Y137.106 E2.2346
G1 X93.611 Y136.702 E2.2606
G1 X93.499 Y136.664 E2.2625
G1 X90.443 Y135.398 E2.3175
G1 X90.338 Y135.346 E2.3195
G1 X88.988 Y134.566 E2.3454
G1 X88.890 Y134.501 E2.3474
G1 X86.912 Y132.983 E2.3888
G1 X84.934 Y134.501 E2.4303
G1 X84.836 Y134.566 E2.4323
G1 X83.486 Y135.346 E2.4582
G1 X83.380 Y135.398 E2.4602
G1 X80.324 Y136.664 E2.5152
G1 X80.213 Y136.702 E2.5171
G1 X78.705 Y137.106 E2.5431
G1 X78.589 Y137.129 E2.5450
G1 X75.309 Y137.561 E2.6001
G1 X75.192 Y137.569 E2.6020
G1 X73.632 Y137.569 E2.6280
G1 X73.514 Y137.561 E2.6299
G1 X70.234 Y137.129 E2.6849
G1 X70.119 Y137.106 E2.6869
G1 X68.611 Y136.702 E2.7129
G1 X68.499 Y136.664 E2.7148
G1 X65.443 Y135.398 E2.7698
G1 X65.338 Y135.346 E2.7718
G1 X63.988 Y134.566 E2.7977
G1 X63.890 Y134.501 E2.7997
G1 X61.266 Y132.487 E2.8547
G1 X61.177 Y132.409 E2.8566
G1 X60.075 Y131.307 E2.8826
G1 X59.997 Y131.218 E2.8845
G1 X57.984 Y128.595 E2.9395
G1 X57.918 Y128.497 E2.9415
G1 X57.138 Y127.146 E2.9674
G1 X57.086 Y127.041 E2.9694
G1 X55.820 Y123.985 E3.0244
G1 X55.782 Y123.873 E3.0263
G1 X55.378 Y122.366 E3.0523
G1 X55.355 Y122.250 E3.0543
G1 X54.923 Y118.970 E3.1093
G1 X54.916 Y118.852 E3.1112
G1 X54.916 Y117.293 E3.1372
G1 X54.923 Y117.175 E3.1391
G1 X55.355 Y113.895 E3.1942
G1 X55.378 Y113.779 E3.1961
G1 X55.782 Y112.272 E3.2221
