;Sliced by ideaMaker 3.4.0.2855, 2019-05-18 16:38:15 UTC+0200
;Dimension: 225.000 225.000 240.000 0.400
;Plate Shape: 0
;Extruder Offset #1: 25.000 0.000
;Filament Diameter #1: 1.750
;Filament Diameter #2: 1.750
;Filament Compensation #1: 100.00
;Filament Compensation #2: 90.00
;Filament Density #1: 1240.00
;Filament Density #2: 1240.00
;Model Gap: 0.000
M221 T0 S100.00
M107	                        		; Fan Off
G90	                        		; Set to Absolute Positioning
;G21                             		; set units to millimeters
M82	                        		; Extruder in absolute mode
G28	                        		; Home extruder
M420 S1                         		; Retrieve mesh
G1 Z10.0 F6000.0          	; Move the extruder up 10mm
M104 T0 S205	; Set Extruder Temperature
M190 S60	        	; Wait for bed temperature
M109 T0 S205	; Set Extruder Temperature and Wait
G92 E0                          		; Reset extruder position
M900 K0.50                      		; set K-factor
;M117 Printing...                		; Put printing message on LCD screen
;G4 P2000 			; Pause (dwell) for 2 seconds
;LAYER:0
M117 INDICATOR-Layer0
M117 INDICATOR-Layer0
;Z:0.240
;HEIGHT:0.240
M106 S0
G1 F1200 E-5.0000
G0 F6000 X99.713 Y100.070
G0 F960 Z0.240
G0 F6000 X99.783 Y100.140
;TYPE:SKIRT
;WIDTH:0.400
G1 F1200 E-0.2000
G1 F900 X100.142 Y99.781 E-0.1777
G1 X100.502 Y99.506 E-0.1578
G1 X100.995 Y99.231 E-0.1330
G1 X101.471 Y99.051 E-0.1107
G1 X101.912 Y98.949 E-0.0908
G1 X102.469 Y98.901 E-0.0663
G1 X122.528 Y98.901 E0.8144
G1 X123.035 Y98.941 E0.8367
G1 X123.477 Y99.036 E0.8566
G1 X123.957 Y99.209 E0.8790
G1 X124.454 Y99.478 E0.9038
G1 X124.860 Y99.783 E0.9261
G1 X125.219 Y100.142 E0.9484
G1 X125.494 Y100.502 E0.9682
G1 X125.745 Y100.944 E0.9906
G1 X125.949 Y101.471 E1.0154
G1 X126.060 Y101.971 E1.0379
G1 X126.100 Y102.500 E1.0611
G1 X126.099 Y122.528 E1.9404
G1 X126.059 Y123.035 E1.9628
G1 X125.964 Y123.477 E1.9826
G1 X125.791 Y123.957 E2.0050
G1 X125.522 Y124.454 E2.0298
G1 X125.217 Y124.860 E2.0521
G1 X124.858 Y125.219 E2.0744
G1 X124.498 Y125.494 E2.0943
G1 X124.005 Y125.769 E2.1191
G1 X123.529 Y125.949 E2.1414
G1 X123.088 Y126.051 E2.1613
G1 X122.500 Y126.100 E2.1872
G1 X102.472 Y126.099 E3.0665
G1 X101.965 Y126.059 E3.0888
G1 X101.523 Y125.964 E3.1087
G1 X101.043 Y125.791 E3.1311
G1 X100.546 Y125.522 E3.1559
G1 X100.140 Y125.217 E3.1782
G1 X99.781 Y124.858 E3.2005
G1 X99.506 Y124.498 E3.2204
G1 X99.231 Y124.005 E3.2451
G1 X99.051 Y123.529 E3.2675
G1 X98.949 Y123.088 E3.2874
G1 X98.900 Y122.500 E3.3133
G1 X98.901 Y102.472 E4.1926
G1 X98.941 Y101.965 E4.2149
G1 X99.036 Y101.523 E4.2347
G1 X99.209 Y101.043 E4.2571
G1 X99.478 Y100.546 E4.2820
G1 X99.723 Y100.220 E4.2999
G0 F900 X99.783 Y100.140
G0 F6000 X100.068 Y100.421
G1 F900 X100.385 Y100.099 E4.3197
G1 X100.745 Y99.824 E4.3396
G1 X101.139 Y99.604 E4.3594
G1 X101.561 Y99.441 E4.3793
G1 X102.002 Y99.339 E4.3991
G1 X102.500 Y99.300 E4.4211
G1 X122.500 Y99.300 E5.2991
G1 X122.951 Y99.332 E5.3190
G1 X123.393 Y99.427 E5.3388
G1 X123.818 Y99.584 E5.3587
G1 X124.216 Y99.799 E5.3786
G1 X124.579 Y100.068 E5.3984
G1 X124.901 Y100.385 E5.4183
G1 X125.176 Y100.745 E5.4381
G1 X125.396 Y101.139 E5.4580
G1 X125.559 Y101.561 E5.4778
G1 X125.661 Y102.002 E5.4977
G1 X125.700 Y102.500 E5.5196
G1 X125.700 Y122.500 E6.3977
G1 X125.668 Y122.951 E6.4175
G1 X125.573 Y123.393 E6.4374
G1 X125.416 Y123.818 E6.4573
G1 X125.201 Y124.216 E6.4771
G1 X124.932 Y124.579 E6.4970
G1 X124.615 Y124.901 E6.5168
G1 X124.255 Y125.176 E6.5367
G1 X123.861 Y125.396 E6.5565
G1 X123.439 Y125.559 E6.5764
G1 X122.998 Y125.661 E6.5962
G1 X122.500 Y125.700 E6.6182
G1 X102.500 Y125.700 E7.4962
G1 X102.049 Y125.668 E7.5161
G1 X101.607 Y125.573 E7.5359
G1 X101.182 Y125.416 E7.5558
G1 X100.784 Y125.201 E7.5757
G1 X100.421 Y124.932 E7.5955
G1 X100.099 Y124.615 E7.6154
G1 X99.824 Y124.255 E7.6353
G1 X99.604 Y123.861 E7.6551
G1 X99.441 Y123.439 E7.6749
G1 X99.339 Y122.998 E7.6948
G1 X99.300 Y122.500 E7.7167
G1 X99.300 Y102.500 E8.5948
G1 X99.332 Y102.049 E8.6146
G1 X99.427 Y101.607 E8.6345
G1 X99.584 Y101.182 E8.6544
G1 X99.799 Y100.784 E8.6742
G1 X100.009 Y100.501 E8.6897
G0 F900 X100.068 Y100.421
G1 F1200 E3.6897
G0 F6000 X103.100 Y121.900
;TYPE:WALL-INNER
;WIDTH:0.400
G1 F1200 E8.4897
G1 F900 X103.100 Y103.100 E9.3151
G1 X121.900 Y103.100 E10.1405
G1 X121.900 Y121.900 E10.9659
G1 X103.200 Y121.900 E11.7869
G0 F900 X103.100 Y121.900
G1 F1200 E6.7869
G0 F6000 X102.700 Y122.300
;TYPE:WALL-OUTER
;WIDTH:0.400
G1 F1200 E11.5869
G1 F900 X102.700 Y102.700 E12.4474
G1 X122.300 Y102.700 E13.3079
G1 X122.300 Y122.300 E14.1684
G1 X102.800 Y122.300 E15.0245
G0 F900 X102.700 Y122.300
G0 F3000 X102.700 Y121.300
G0 F6000 X103.239 Y121.624
;TYPE:SOLID-FILL
;WIDTH:0.400
G1 F900 X103.374 Y121.759 E15.0329
G0 F6000 X103.940 Y121.759
G1 F900 X103.239 Y121.058 E15.0764
G0 F6000 X103.239 Y120.493
G1 F900 X104.506 Y121.759 E15.1550
G0 F6000 X105.071 Y121.759
G1 F900 X103.239 Y119.927 E15.2688
G0 F6000 X103.239 Y119.361
G1 F900 X105.637 Y121.759 E15.4177
G0 F6000 X106.203 Y121.759
G1 F900 X103.239 Y118.796 E15.6017
G0 F6000 X103.239 Y118.230
G1 F900 X106.768 Y121.759 E15.8208
G0 F6000 X107.334 Y121.759
G1 F900 X103.239 Y117.664 E16.0750
G0 F6000 X103.239 Y117.099
G1 F900 X107.900 Y121.759 E16.3644
G0 F6000 X108.465 Y121.759
G1 F900 X103.239 Y116.533 E16.6889
G0 F6000 X103.239 Y115.967
G1 F900 X109.031 Y121.759 E17.0485
G0 F6000 X109.597 Y121.759
G1 F900 X103.239 Y115.401 E17.4433
G0 F6000 X103.239 Y114.836
G1 F900 X110.162 Y121.759 E17.8731
G0 F6000 X110.728 Y121.759
G1 F900 X103.239 Y114.270 E18.3381
G0 F6000 X103.239 Y113.704
G1 F900 X111.294 Y121.759 E18.8382
G0 F6000 X111.860 Y121.759
G1 F900 X103.239 Y113.139 E19.3734
G0 F6000 X103.239 Y112.573
G1 F900 X112.425 Y121.759 E19.9438
G0 F6000 X112.991 Y121.759
G1 F900 X103.239 Y112.007 E20.5493
G0 F6000 X103.239 Y111.442
G1 F900 X113.557 Y121.759 E21.1899
G0 F6000 X114.122 Y121.759
G1 F900 X103.239 Y110.876 E21.8656
G0 F6000 X103.239 Y110.310
G1 F900 X114.688 Y121.759 E22.5764
G0 F6000 X115.254 Y121.759
G1 F900 X103.239 Y109.745 E23.3224
G0 F6000 X103.239 Y109.179
G1 F900 X115.819 Y121.759 E24.1035
G0 F6000 X116.385 Y121.759
G1 F900 X103.239 Y108.613 E24.9197
G0 F6000 X103.239 Y108.048
G1 F900 X116.951 Y121.759 E25.7710
G0 F6000 X117.516 Y121.759
G1 F900 X103.239 Y107.482 E26.6575
G0 F6000 X103.239 Y106.916
G1 F900 X118.082 Y121.759 E27.5791
G0 F6000 X118.648 Y121.759
G1 F900 X103.239 Y106.350 E28.5358
G0 F6000 X103.239 Y105.785
G1 F900 X119.213 Y121.759 E29.5276
G0 F6000 X119.779 Y121.759
G1 F900 X103.239 Y105.219 E30.5545
G0 F6000 X103.239 Y104.653
G1 F900 X120.345 Y121.759 E31.6166
G0 F6000 X120.911 Y121.759
G1 F900 X103.239 Y104.088 E32.7138
G0 F6000 X103.239 Y103.522
G1 F900 X121.476 Y121.759 E33.8461
G0 F6000 X121.759 Y121.476
G1 F900 X103.523 Y103.240 E34.9784
G0 F6000 X104.088 Y103.240
G1 F900 X121.759 Y120.911 E36.0756
G0 F6000 X121.759 Y120.345
G1 F900 X104.654 Y103.240 E37.1376
G0 F6000 X105.220 Y103.240
G1 F900 X121.759 Y119.779 E38.1645
G0 F6000 X121.759 Y119.213
G1 F900 X105.786 Y103.240 E39.1562
G0 F6000 X106.351 Y103.240
G1 F900 X121.759 Y118.648 E40.1129
G0 F6000 X121.759 Y118.082
G1 F900 X106.917 Y103.240 E41.0344
G0 F6000 X107.483 Y103.240
G1 F900 X121.759 Y117.516 E41.9208
G0 F6000 X121.759 Y116.951
G1 F900 X108.048 Y103.240 E42.7721
G0 F6000 X108.614 Y103.240
G1 F900 X121.759 Y116.385 E43.5882
G0 F6000 X121.759 Y115.819
G1 F900 X109.180 Y103.240 E44.3693
G0 F6000 X109.745 Y103.240
G1 F900 X121.759 Y115.254 E45.1152
G0 F6000 X121.759 Y114.688
G1 F900 X110.311 Y103.240 E45.8260
G0 F6000 X110.877 Y103.240
G1 F900 X121.759 Y114.122 E46.5016
G0 F6000 X121.759 Y113.557
G1 F900 X111.442 Y103.240 E47.1422
G0 F6000 X112.008 Y103.240
G1 F900 X121.759 Y112.991 E47.7476
G0 F6000 X121.759 Y112.425
G1 F900 X112.574 Y103.240 E48.3179
G0 F6000 X113.139 Y103.240
G1 F900 X121.759 Y111.860 E48.8531
G0 F6000 X121.759 Y111.294
G1 F900 X113.705 Y103.240 E49.3532
G0 F6000 X114.271 Y103.240
G1 F900 X121.759 Y110.728 E49.8181
G0 F6000 X121.759 Y110.162
G1 F900 X114.836 Y103.240 E50.2479
G0 F6000 X115.402 Y103.240
G1 F900 X121.759 Y109.597 E50.6426
G0 F6000 X121.759 Y109.031
G1 F900 X115.968 Y103.240 E51.0022
G0 F6000 X116.534 Y103.240
G1 F900 X121.759 Y108.465 E51.3266
G0 F6000 X121.759 Y107.900
G1 F900 X117.099 Y103.240 E51.6159
G0 F6000 X117.665 Y103.240
G1 F900 X121.759 Y107.334 E51.8701
G0 F6000 X121.759 Y106.768
G1 F900 X118.231 Y103.240 E52.0892
G0 F6000 X118.796 Y103.240
G1 F900 X121.759 Y106.203 E52.2731
G0 F6000 X121.759 Y105.637
G1 F900 X119.362 Y103.240 E52.4220
G0 F6000 X119.928 Y103.240
G1 F900 X121.759 Y105.071 E52.5356
G0 F6000 X121.759 Y104.506
G1 F900 X120.493 Y103.240 E52.6142
G0 F6000 X121.059 Y103.240
G1 F900 X121.759 Y103.940 E52.6577
G0 F6000 X121.759 Y103.374
G1 F900 X121.625 Y103.240 E52.6660
;LAYER:1
M117 INDICATOR-Layer1
M117 INDICATOR-Layer1
;Z:0.480
;HEIGHT:0.240
M106 S255
G4 P100
M106 S102
G1 F1200 E47.6660
G0 F960 Z0.480
G0 F6000 X121.900 Y121.900
;TYPE:WALL-INNER
;WIDTH:0.400
G1 F1200 E52.4660
G1 F1575 X103.100 Y121.900 E53.2164
G1 X103.100 Y103.100 E53.9667
G1 X121.900 Y103.100 E54.7171
G1 X121.900 Y121.800 E55.4634
G0 F1575 X121.900 Y121.900
G1 F1200 E50.4634
G0 F6000 X122.300 Y122.300
;TYPE:WALL-OUTER
;WIDTH:0.400
G1 F1200 E55.2634
G1 F1125 X102.700 Y122.300 E56.0457
G1 X102.700 Y102.700 E56.8280
G1 X122.300 Y102.700 E57.6103
G1 X122.300 Y122.200 E58.3885
G0 F1125 X122.300 Y122.300
G0 F3000 X121.300 Y122.300
G0 F6000 X121.202 Y121.759
;TYPE:SOLID-FILL
;WIDTH:0.400
G1 F1125 X121.759 Y121.202 E58.4200
G0 F6000 X121.759 Y120.636
G1 F1125 X120.636 Y121.759 E58.4834
G0 F6000 X120.070 Y121.759
G1 F1125 X121.759 Y120.070 E58.5787
G0 F6000 X121.759 Y119.505
G1 F1125 X119.505 Y121.759 E58.7059
G0 F6000 X118.939 Y121.759
G1 F1125 X121.759 Y118.939 E58.8651
G0 F6000 X121.759 Y118.373
G1 F1125 X118.373 Y121.759 E59.0562
G0 F6000 X117.808 Y121.759
G1 F1125 X121.759 Y117.808 E59.2792
G0 F6000 X121.759 Y117.242
G1 F1125 X117.242 Y121.759 E59.5342
G0 F6000 X116.676 Y121.759
G1 F1125 X121.759 Y116.676 E59.8211
G0 F6000 X121.759 Y116.111
G1 F1125 X116.111 Y121.759 E60.1399
G0 F6000 X115.545 Y121.759
G1 F1125 X121.759 Y115.545 E60.4906
G0 F6000 X121.759 Y114.979
G1 F1125 X114.979 Y121.759 E60.8733
G0 F6000 X114.414 Y121.759
G1 F1125 X121.759 Y114.414 E61.2879
G0 F6000 X121.759 Y113.848
G1 F1125 X113.848 Y121.759 E61.7345
G0 F6000 X113.282 Y121.759
G1 F1125 X121.759 Y113.282 E62.2129
G0 F6000 X121.759 Y112.717
G1 F1125 X112.717 Y121.759 E62.7233
G0 F6000 X112.151 Y121.759
G1 F1125 X121.759 Y112.151 E63.2656
G0 F6000 X121.759 Y111.585
G1 F1125 X111.585 Y121.759 E63.8399
G0 F6000 X111.020 Y121.759
G1 F1125 X121.759 Y111.020 E64.4460
G0 F6000 X121.759 Y110.454
G1 F1125 X110.454 Y121.759 E65.0841
G0 F6000 X109.888 Y121.759
G1 F1125 X121.759 Y109.888 E65.7542
G0 F6000 X121.759 Y109.322
G1 F1125 X109.322 Y121.759 E66.4562
G0 F6000 X108.757 Y121.759
G1 F1125 X121.759 Y108.757 E67.1901
G0 F6000 X121.759 Y108.191
G1 F1125 X108.191 Y121.759 E67.9559
G0 F6000 X107.625 Y121.759
G1 F1125 X121.759 Y107.625 E68.7537
G0 F6000 X121.759 Y107.060
G1 F1125 X107.060 Y121.759 E69.5834
G0 F6000 X106.494 Y121.759
G1 F1125 X121.759 Y106.494 E70.4450
G0 F6000 X121.759 Y105.928
G1 F1125 X105.928 Y121.759 E71.3386
G0 F6000 X105.363 Y121.759
G1 F1125 X121.759 Y105.363 E72.2640
G0 F6000 X121.759 Y104.797
G1 F1125 X104.797 Y121.759 E73.2214
G0 F6000 X104.231 Y121.759
G1 F1125 X121.759 Y104.231 E74.2108
G0 F6000 X121.759 Y103.666
G1 F1125 X103.666 Y121.759 E75.2320
G0 F6000 X103.240 Y121.619
G1 F1125 X121.620 Y103.239 E76.2695
G0 F6000 X121.054 Y103.239
G1 F1125 X103.240 Y121.053 E77.2750
G0 F6000 X103.240 Y120.488
G1 F1125 X120.488 Y103.239 E78.2486
G0 F6000 X119.923 Y103.239
G1 F1125 X103.240 Y119.922 E79.1902
G0 F6000 X103.240 Y119.356
G1 F1125 X119.357 Y103.239 E80.0999
G0 F6000 X118.791 Y103.239
G1 F1125 X103.240 Y118.791 E80.9777
G0 F6000 X103.240 Y118.225
G1 F1125 X118.226 Y103.239 E81.8236
G0 F6000 X117.660 Y103.239
G1 F1125 X103.240 Y117.659 E82.6375
G0 F6000 X103.240 Y117.094
G1 F1125 X117.094 Y103.239 E83.4195
G0 F6000 X116.529 Y103.239
G1 F1125 X103.240 Y116.528 E84.1696
G0 F6000 X103.240 Y115.962
G1 F1125 X115.963 Y103.239 E84.8878
G0 F6000 X115.397 Y103.239
G1 F1125 X103.240 Y115.396 E85.5740
G0 F6000 X103.240 Y114.831
G1 F1125 X114.832 Y103.239 E86.2283
G0 F6000 X114.266 Y103.239
G1 F1125 X103.240 Y114.265 E86.8506
G0 F6000 X103.240 Y113.699
G1 F1125 X113.700 Y103.239 E87.4410
G0 F6000 X113.134 Y103.239
G1 F1125 X103.240 Y113.134 E87.9995
G0 F6000 X103.240 Y112.568
G1 F1125 X112.569 Y103.239 E88.5261
G0 F6000 X112.003 Y103.239
G1 F1125 X103.240 Y112.002 E89.0207
G0 F6000 X103.240 Y111.437
G1 F1125 X111.437 Y103.239 E89.4834
G0 F6000 X110.872 Y103.239
G1 F1125 X103.240 Y110.871 E89.9142
G0 F6000 X103.240 Y110.305
G1 F1125 X110.306 Y103.239 E90.3130
G0 F6000 X109.740 Y103.239
G1 F1125 X103.240 Y109.740 E90.6799
G0 F6000 X103.240 Y109.174
G1 F1125 X109.175 Y103.239 E91.0149
G0 F6000 X108.609 Y103.239
G1 F1125 X103.240 Y108.608 E91.3180
G0 F6000 X103.240 Y108.043
G1 F1125 X108.043 Y103.239 E91.5891
G0 F6000 X107.478 Y103.239
G1 F1125 X103.240 Y107.477 E91.8283
G0 F6000 X103.240 Y106.911
G1 F1125 X106.912 Y103.239 E92.0356
G0 F6000 X106.346 Y103.239
G1 F1125 X103.240 Y106.346 E92.2109
G0 F6000 X103.240 Y105.780
G1 F1125 X105.781 Y103.239 E92.3544
G0 F6000 X105.215 Y103.239
G1 F1125 X103.240 Y105.214 E92.4658
G0 F6000 X103.240 Y104.648
G1 F1125 X104.649 Y103.239 E92.5454
G0 F6000 X104.083 Y103.239
G1 F1125 X103.240 Y104.083 E92.5930
G0 F6000 X103.240 Y103.517
G1 F1125 X103.518 Y103.239 E92.6087
;LAYER:2
M117 INDICATOR-Layer2
M117 INDICATOR-Layer2
;Z:0.720
;HEIGHT:0.240
M106 S255
G4 P100
M106 S153
G1 F1200 E87.6087
G0 F960 Z0.720
G0 F6000 X103.100 Y121.900
;TYPE:WALL-INNER
;WIDTH:0.400
G1 F1200 E92.4087
G1 F2250 X103.100 Y103.100 E93.1590
G1 X121.900 Y103.100 E93.9094
G1 X121.900 Y121.900 E94.6597
G1 X103.200 Y121.900 E95.4061
G0 F2250 X103.100 Y121.900
G1 F1200 E90.4061
G0 F6000 X102.700 Y122.300
;TYPE:WALL-OUTER
;WIDTH:0.400
G1 F1200 E95.2061
G1 F1350 X102.700 Y102.700 E95.9884
G1 X122.300 Y102.700 E96.7706
G1 X122.300 Y122.300 E97.5529
G1 X102.800 Y122.300 E98.3312
G0 F1350 X102.700 Y122.300
G0 F3000 X102.700 Y121.300
G0 F6000 X103.239 Y121.624
;TYPE:SOLID-FILL
;WIDTH:0.400
G1 F1350 X103.374 Y121.759 E98.3388
G0 F6000 X103.940 Y121.759
G1 F1350 X103.239 Y121.058 E98.3784
G0 F6000 X103.239 Y120.493
G1 F1350 X104.506 Y121.759 E98.4499
G0 F6000 X105.071 Y121.759
G1 F1350 X103.239 Y119.927 E98.5533
G0 F6000 X103.239 Y119.361
G1 F1350 X105.637 Y121.759 E98.6886
G0 F6000 X106.203 Y121.759
G1 F1350 X103.239 Y118.796 E98.8559
G0 F6000 X103.239 Y118.230
G1 F1350 X106.768 Y121.759 E99.0551
G0 F6000 X107.334 Y121.759
G1 F1350 X103.239 Y117.664 E99.2862
G0 F6000 X103.239 Y117.099
G1 F1350 X107.900 Y121.759 E99.5493
G0 F6000 X108.465 Y121.759
G1 F1350 X103.239 Y116.533 E99.8443
G0 F6000 X103.239 Y115.967
G1 F1350 X109.031 Y121.759 E100.1712
G0 F6000 X109.597 Y121.759
G1 F1350 X103.239 Y115.401 E100.5301
G0 F6000 X103.239 Y114.836
G1 F1350 X110.162 Y121.759 E100.9208
G0 F6000 X110.728 Y121.759
G1 F1350 X103.239 Y114.270 E101.3436
G0 F6000 X103.239 Y113.704
G1 F1350 X111.294 Y121.759 E101.7982
G0 F6000 X111.860 Y121.759
G1 F1350 X103.239 Y113.139 E102.2848
G0 F6000 X103.239 Y112.573
G1 F1350 X112.425 Y121.759 E102.8033
G0 F6000 X112.991 Y121.759
G1 F1350 X103.239 Y112.007 E103.3537
G0 F6000 X103.239 Y111.442
G1 F1350 X113.557 Y121.759 E103.9361
G0 F6000 X114.122 Y121.759
G1 F1350 X103.239 Y110.876 E104.5504
G0 F6000 X103.239 Y110.310
G1 F1350 X114.688 Y121.759 E105.1966
G0 F6000 X115.254 Y121.759
G1 F1350 X103.239 Y109.745 E105.8748
G0 F6000 X103.239 Y109.179
G1 F1350 X115.819 Y121.759 E106.5848
G0 F6000 X116.385 Y121.759
G1 F1350 X103.239 Y108.613 E107.3269
G0 F6000 X103.239 Y108.048
G1 F1350 X116.951 Y121.759 E108.1008
G0 F6000 X117.516 Y121.759
G1 F1350 X103.239 Y107.482 E108.9066
G0 F6000 X103.239 Y106.916
G1 F1350 X118.082 Y121.759 E109.7444
G0 F6000 X118.648 Y121.759
G1 F1350 X103.239 Y106.350 E110.6142
