;FLAVOR:Marlin
;TIME:626
;Filament used: 0.47374m
;Layer height: 0.2
;Generated with Cura_SteamEngine 3.5.0
M140 S50
M105
M190 S50
M104 S200
M105
M109 S200
M82 ;absolute extrusion mode
;; START Cleaning
M117 Cleaningg			; Indicate nozzle clean in progress on LCD
M82 					;set extruder to absolute mode
M107 					;start with the fan off
G21 					;metric values
G90 					;absolute positioning
G28 					;Home (X/Y/Z=0)
M140 S50				; Bed-Temp
;M109 S205				; Nozzel-Temp
G0 Z15 F9000
G0 X20 Y50 Z0.3 F500	; Startposition for Cleaning in bed
G92 E0              	; Set extruder to [0] zero
G1 X80 E25 F500			; Extrude for cleaning (or long line X190 E50)
G92 E0              	; Reset extruder to [0] zero end of cleaning run
G1 E-3 F500         	; Retract filiment by 3 mm to reduce string effect
G1 Z15					; Save home-position			; Z Save-Postion
G1 X0 Y0 Z15 F9000
G1 F9000
M117 Printing...
G92 E0
G1 F2700 E-6.5
;LAYER_COUNT:83
;LAYER:0
M107
G0 F1500 X104.577 Y130.136 Z0.2
;TYPE:SKIRT
G1 F2700 E0
G1 F1800 X105.011 Y129.852 E0.01725
G1 X105.469 Y129.606 E0.03454
G1 X105.918 Y129.41 E0.05084
G1 X106.393 Y129.29 E0.06713
G1 X106.887 Y129.249 E0.08362
G1 X113.073 Y129.245 E0.28937
G1 X113.561 Y129.285 E0.30565
G1 X114.036 Y129.403 E0.32193
G1 X114.332 Y129.521 E0.33253
G1 X114.785 Y129.73 E0.34912
G1 X115.211 Y129.971 E0.3654
G1 X115.592 Y130.277 E0.38165
G1 X116.018 Y130.781 E0.4036
G1 X116.19 Y131.037 E0.41386
G1 X116.429 Y131.464 E0.43014
G1 X116.638 Y132.104 E0.45253
G1 X116.696 Y132.385 E0.46207
G1 X116.758 Y133.023 E0.48339
G1 X116.713 Y137.286 E0.62519
G1 X116.668 Y137.773 E0.64145
G1 X116.544 Y138.247 E0.65775
G1 X116.315 Y138.747 E0.67604
G1 X116.171 Y138.998 E0.68567
G1 X115.894 Y139.401 E0.70193
G1 X115.554 Y139.754 E0.71823
G1 X114.989 Y140.148 E0.74114
G1 X114.531 Y140.394 E0.75843
G1 X114.082 Y140.59 E0.77473
G1 X113.607 Y140.71 E0.79102
G1 X113.113 Y140.751 E0.80751
G1 X106.926 Y140.755 E1.01329
G1 X106.438 Y140.715 E1.02958
G1 X105.963 Y140.597 E1.04585
G1 X105.644 Y140.468 E1.0573
G1 X105.186 Y140.252 E1.07414
G1 X104.762 Y140.008 E1.09041
G1 X104.383 Y139.698 E1.1067
G1 X103.968 Y139.201 E1.12823
G1 X103.801 Y138.95 E1.13826
G1 X103.564 Y138.522 E1.15453
G1 X103.359 Y137.885 E1.17679
G1 X103.303 Y137.609 E1.18616
G1 X103.243 Y137.004 E1.20638
G1 X103.254 Y132.889 E1.34324
G1 X103.295 Y132.401 E1.35953
G1 X103.415 Y131.927 E1.37579
G1 X103.508 Y131.688 E1.38432
G1 X103.685 Y131.286 E1.39893
G1 X103.918 Y130.856 E1.4152
G1 X104.219 Y130.469 E1.43151
G1 X104.577 Y130.136 E1.44777
G0 F1500 X104.9 Y130.394
G1 F1800 X105.201 Y130.204 E1.45961
G1 X105.659 Y129.958 E1.4769
G1 X106.077 Y129.779 E1.49202
G1 X106.521 Y129.675 E1.50719
G1 X106.887 Y129.649 E1.51939
G1 X113.073 Y129.645 E1.72514
G1 X113.527 Y129.685 E1.7403
G1 X114.164 Y129.884 E1.7625
G1 X114.617 Y130.093 E1.77909
G1 X115.013 Y130.32 E1.79427
G1 X115.362 Y130.611 E1.80938
G1 X115.686 Y131.004 E1.82632
G1 X115.858 Y131.26 E1.83658
G1 X116.078 Y131.659 E1.85174
G1 X116.246 Y132.184 E1.87007
G1 X116.304 Y132.465 E1.87961
G1 X116.358 Y133.018 E1.89809
G1 X116.313 Y137.281 E2.03989
G1 X116.268 Y137.735 E2.05506
G1 X116.145 Y138.174 E2.07023
G1 X115.968 Y138.548 E2.08399
G1 X115.824 Y138.799 E2.09361
G1 X115.564 Y139.173 E2.10876
G1 X115.242 Y139.495 E2.12391
G1 X114.799 Y139.796 E2.14172
G1 X114.341 Y140.042 E2.15901
G1 X113.923 Y140.221 E2.17414
G1 X113.479 Y140.325 E2.18931
G1 X113.113 Y140.351 E2.20151
G1 X106.926 Y140.355 E2.40729
G1 X106.472 Y140.315 E2.42245
G1 X106.032 Y140.197 E2.4376
G1 X105.815 Y140.107 E2.44541
G1 X105.357 Y139.891 E2.46226
G1 X104.963 Y139.661 E2.47743
G1 X104.616 Y139.366 E2.49258
G1 X104.301 Y138.979 E2.50918
G1 X104.134 Y138.728 E2.5192
G1 X103.916 Y138.328 E2.53435
G1 X103.751 Y137.805 E2.55259
G1 X103.695 Y137.529 E2.56196
G1 X103.643 Y137.005 E2.57947
G1 X103.654 Y132.89 E2.71634
G1 X103.695 Y132.436 E2.7315
G1 X103.874 Y131.849 E2.75191
G1 X104.051 Y131.447 E2.76652
G1 X104.271 Y131.048 E2.78168
G1 X104.557 Y130.693 E2.79684
G1 X104.9 Y130.394 E2.81197
G0 F1500 X104.892 Y130.923
G1 F1800 X105.39 Y130.557 E2.83253
G1 X105.848 Y130.311 E2.84982
G1 X106.234 Y130.149 E2.86374
G1 X106.644 Y130.063 E2.87768
G1 X106.888 Y130.049 E2.88581
G1 X113.074 Y130.045 E3.09155
G1 X113.491 Y130.085 E3.10549
G1 X113.997 Y130.247 E3.12316
G1 X114.45 Y130.456 E3.13975
G1 X114.812 Y130.667 E3.15369
G1 X115.127 Y130.943 E3.16762
G1 X115.354 Y131.227 E3.17971
G1 X115.526 Y131.483 E3.18997
G1 X115.726 Y131.852 E3.20393
G1 X115.855 Y132.265 E3.21832
G1 X115.913 Y132.546 E3.22786
G1 X115.958 Y133.014 E3.2435
G1 X115.913 Y137.277 E3.38529
G1 X115.869 Y137.694 E3.39924
G1 X115.746 Y138.095 E3.41319
G1 X115.621 Y138.349 E3.42261
G1 X115.477 Y138.6 E3.43223
G1 X115.235 Y138.942 E3.44617
G1 X114.932 Y139.232 E3.46012
G1 X114.61 Y139.443 E3.47292
G1 X114.152 Y139.689 E3.49021
G1 X113.766 Y139.851 E3.50414
G1 X113.356 Y139.937 E3.51807
G1 X113.112 Y139.951 E3.5262
G1 X106.925 Y139.955 E3.73198
G1 X106.508 Y139.915 E3.74591
G1 X105.986 Y139.745 E3.76417
G1 X105.528 Y139.529 E3.78101
G1 X105.167 Y139.315 E3.79497
G1 X104.854 Y139.036 E3.80892
G1 X104.634 Y138.758 E3.82071
G1 X104.467 Y138.507 E3.83074
G1 X104.27 Y138.137 E3.84468
G1 X104.143 Y137.725 E3.85902
G1 X104.087 Y137.449 E3.86838
G1 X104.043 Y137.006 E3.88319
G1 X104.054 Y132.891 E4.02006
G1 X104.095 Y132.474 E4.03399
G1 X104.241 Y132.01 E4.05017
G1 X104.418 Y131.608 E4.06478
G1 X104.622 Y131.243 E4.07869
G1 X104.892 Y130.923 E4.09261
G0 F1500 X105.225 Y131.159
G1 F1800 X105.579 Y130.909 E4.10703
G1 X106.037 Y130.663 E4.12432
G1 X106.388 Y130.52 E4.13693
G1 X106.888 Y130.449 E4.15372
G1 X113.074 Y130.445 E4.35947
G1 X113.451 Y130.485 E4.37208
G1 X113.829 Y130.611 E4.38533
G1 X114.282 Y130.82 E4.40192
G1 X114.608 Y131.014 E4.41454
G1 X114.885 Y131.272 E4.42713
G1 X115.022 Y131.45 E4.4346
G1 X115.194 Y131.706 E4.44486
G1 X115.371 Y132.041 E4.45746
G1 X115.463 Y132.346 E4.46806
G1 X115.521 Y132.627 E4.4776
G1 X115.558 Y133.01 E4.4904
G1 X115.513 Y137.273 E4.6322
G1 X115.469 Y137.649 E4.64479
G1 X115.274 Y138.15 E4.66267
G1 X115.13 Y138.401 E4.67229
G1 X114.908 Y138.708 E4.68489
G1 X114.627 Y138.961 E4.69747
G1 X114.421 Y139.091 E4.70557
G1 X113.963 Y139.337 E4.72286
G1 X113.612 Y139.48 E4.73547
G1 X113.112 Y139.551 E4.75227
G1 X106.925 Y139.555 E4.95805
G1 X106.548 Y139.515 E4.97066
G1 X106.156 Y139.383 E4.98441
G1 X105.698 Y139.167 E5.00125
G1 X105.374 Y138.97 E5.01387
G1 X105.099 Y138.71 E5.02645
G1 X104.967 Y138.536 E5.03372
G1 X104.8 Y138.285 E5.04375
G1 X104.625 Y137.949 E5.05635
G1 X104.535 Y137.646 E5.06686
G1 X104.479 Y137.37 E5.07623
G1 X104.443 Y137.007 E5.08836
G1 X104.454 Y132.892 E5.22522
G1 X104.495 Y132.515 E5.23784
G1 X104.607 Y132.172 E5.24984
G1 X104.784 Y131.77 E5.26445
G1 X104.972 Y131.441 E5.27705
G1 X105.225 Y131.159 E5.28965
G0 F1500 X105.553 Y131.404
G1 F1800 X105.769 Y131.262 E5.29825
G1 X106.227 Y131.016 E5.31554
G1 X106.538 Y130.894 E5.32665
G1 X106.888 Y130.849 E5.33839
G1 X113.074 Y130.845 E5.54414
G1 X113.406 Y130.885 E5.55526
G1 X113.662 Y130.974 E5.56427
G1 X114.115 Y131.183 E5.58087
G1 X114.399 Y131.358 E5.59196
G1 X114.69 Y131.673 E5.60622
G1 X114.862 Y131.929 E5.61648
G1 X115.014 Y132.227 E5.62761
G1 X115.071 Y132.427 E5.63453
G1 X115.129 Y132.708 E5.64407
G1 X115.158 Y133.006 E5.65403
G1 X115.113 Y137.269 E5.79582
G1 X115.07 Y137.6 E5.80692
G1 X114.927 Y137.951 E5.81953
G1 X114.783 Y138.202 E5.82915
G1 X114.584 Y138.47 E5.84026
G1 X114.231 Y138.738 E5.855
G1 X113.773 Y138.984 E5.87229
G1 X113.462 Y139.106 E5.8834
G1 X113.112 Y139.151 E5.89514
G1 X106.925 Y139.155 E6.10092
G1 X106.593 Y139.115 E6.11204
G1 X106.327 Y139.021 E6.12142
G1 X105.869 Y138.805 E6.13827
G1 X105.586 Y138.628 E6.14937
G1 X105.3 Y138.315 E6.16347
G1 X105.133 Y138.064 E6.1735
G1 X104.983 Y137.765 E6.18462
G1 X104.927 Y137.566 E6.1915
G1 X104.871 Y137.29 E6.20087
G1 X104.843 Y137.008 E6.21029
G1 X104.854 Y132.893 E6.34716
G1 X104.895 Y132.562 E6.35825
G1 X104.973 Y132.333 E6.3663
G1 X105.15 Y131.931 E6.38091
G1 X105.32 Y131.643 E6.39203
G1 X105.553 Y131.404 E6.40313
G0 F1500 X105.958 Y131.614
G1 F1800 X106.416 Y131.368 E6.42042
G1 X106.681 Y131.271 E6.42981
G1 X106.888 Y131.249 E6.43673
G1 X113.074 Y131.245 E6.64248
G1 X113.354 Y131.285 E6.65189
G1 X113.494 Y131.337 E6.65685
G1 X113.947 Y131.546 E6.67345
G1 X114.184 Y131.699 E6.68283
G1 X114.358 Y131.896 E6.69157
G1 X114.53 Y132.152 E6.70183
G1 X114.679 Y132.508 E6.71467
G1 X114.737 Y132.789 E6.72421
G1 X114.758 Y133.002 E6.73133
G1 X114.713 Y137.265 E6.87312
G1 X114.67 Y137.543 E6.88248
G1 X114.58 Y137.752 E6.89005
G1 X114.436 Y138.003 E6.89967
G1 X114.263 Y138.225 E6.90903
G1 X114.042 Y138.386 E6.91813
G1 X113.584 Y138.632 E6.93542
G1 X113.319 Y138.729 E6.94481
G1 X113.112 Y138.751 E6.95173
G1 X106.925 Y138.755 E7.15751
G1 X106.645 Y138.715 E7.16692
G1 X106.497 Y138.659 E7.17218
G1 X106.039 Y138.443 E7.18902
G1 X105.804 Y138.288 E7.19839
G1 X105.633 Y138.093 E7.20701
G1 X105.466 Y137.842 E7.21704
G1 X105.319 Y137.487 E7.22982
G1 X105.263 Y137.211 E7.23919
G1 X105.243 Y137.009 E7.24594
G1 X105.254 Y132.894 E7.3828
G1 X105.339 Y132.494 E7.3964
G1 X105.516 Y132.092 E7.41101
G1 X105.665 Y131.852 E7.42041
G1 X105.958 Y131.614 E7.43296
G0 F1500 X106.005 Y132.073
G1 F1800 X106.147 Y131.966 E7.43888
G1 X106.605 Y131.72 E7.45617
G1 X106.889 Y131.649 E7.46591
G1 X113.075 Y131.645 E7.67165
G1 X113.326 Y131.7 E7.6802
G1 X113.779 Y131.909 E7.69679
G1 X114.026 Y132.119 E7.70758
G1 X114.198 Y132.375 E7.71783
G1 X114.288 Y132.589 E7.72555
G1 X114.346 Y132.87 E7.7351
G1 X114.358 Y132.997 E7.73934
G1 X114.313 Y137.26 E7.88114
G1 X114.233 Y137.553 E7.89124
G1 X114.089 Y137.804 E7.90086
G1 X113.948 Y137.97 E7.90811
G1 X113.853 Y138.034 E7.91192
G1 X113.395 Y138.28 E7.92921
G1 X113.111 Y138.351 E7.93894
G1 X106.924 Y138.355 E8.14473
G1 X106.668 Y138.298 E8.15345
G1 X106.21 Y138.082 E8.17029
G1 X105.966 Y137.871 E8.18102
G1 X105.799 Y137.62 E8.19105
G1 X105.711 Y137.407 E8.19871
G1 X105.655 Y137.131 E8.20808
G1 X105.643 Y137.01 E8.21212
G1 X105.654 Y132.895 E8.34899
G1 X105.705 Y132.655 E8.35715
G1 X105.882 Y132.253 E8.37176
G1 X106.005 Y132.073 E8.37901
G0 F1500 X106.336 Y132.319
G1 F1800 X106.794 Y132.073 E8.3963
G1 X106.889 Y132.049 E8.39956
G1 X113.075 Y132.045 E8.60531
G1 X113.159 Y132.063 E8.60817
G1 X113.612 Y132.272 E8.62476
G1 X113.694 Y132.342 E8.62834
G1 X113.866 Y132.598 E8.6386
G1 X113.896 Y132.67 E8.6412
G1 X113.954 Y132.951 E8.65074
G1 X113.958 Y132.993 E8.65214
G1 X113.913 Y137.256 E8.79394
G1 X113.886 Y137.354 E8.79732
G1 X113.742 Y137.605 E8.80694
G1 X113.664 Y137.681 E8.81057
G1 X113.206 Y137.927 E8.82786
G1 X113.111 Y137.951 E8.83112
G1 X106.924 Y137.955 E9.0369
G1 X106.839 Y137.936 E9.03979
G1 X106.381 Y137.72 E9.05664
G1 X106.299 Y137.65 E9.06022
G1 X106.132 Y137.399 E9.07025
G1 X106.103 Y137.328 E9.0728
G1 X106.047 Y137.052 E9.08217
G1 X106.043 Y137.011 E9.08354
G1 X106.054 Y132.896 E9.2204
G1 X106.071 Y132.816 E9.22312
G1 X106.248 Y132.414 E9.23773
G1 X106.336 Y132.319 E9.24204
G1 F2700 E2.74204
G0 F1500 X106.994 Y132.862
G0 X112.983 Y132.941
G0 X113.061 Y132.445
;TYPE:WALL-OUTER
G1 F2700 E9.24204
G1 F1800 X113.18 Y132.475 E9.24612
G1 X113.404 Y132.613 E9.25487
G1 X113.521 Y132.801 E9.26224
G1 X113.545 Y132.91 E9.26595
G1 X113.559 Y133.01 E9.26931
G1 X113.559 Y136.989 E9.40165
G1 X113.521 Y137.199 E9.40875
G1 X113.409 Y137.382 E9.41588
G1 X113.176 Y137.529 E9.42505
G1 X113.071 Y137.554 E9.42864
G1 X112.989 Y137.559 E9.43137
G1 X108.501 Y137.566 E9.58064
G1 X106.939 Y137.555 E9.63259
G1 X106.822 Y137.526 E9.6366
G1 X106.591 Y137.381 E9.64568
G1 X106.479 Y137.199 E9.65278
G1 X106.441 Y136.987 E9.65995
G1 X106.433 Y133.178 E9.78663
G1 X106.453 Y132.918 E9.79531
G1 X106.479 Y132.801 E9.79929
G1 X106.591 Y132.618 E9.80643
G1 X106.824 Y132.471 E9.81559
G1 X106.929 Y132.446 E9.81918
G1 X107.011 Y132.441 E9.82192
G1 X111.499 Y132.434 E9.97119
G1 X113.061 Y132.445 E10.02314
G0 F1500 X113.18 Y132.475
G0 X113.246 Y132.515
G0 X112.995 Y132.953
G0 X106.996 Y132.943
G0 X106.996 Y132.843
;TYPE:WALL-INNER
G1 F1800 X111.497 Y132.834 E10.17284
G1 X113.009 Y132.845 E10.22314
G1 X113.114 Y132.905 E10.22716
G1 X113.145 Y132.954 E10.22909
G1 X113.159 Y133.036 E10.23185
G1 X113.159 Y136.951 E10.36207
G1 X113.14 Y137.055 E10.36558
G1 X113.116 Y137.094 E10.36711
G1 X113.011 Y137.157 E10.37118
G1 X108.503 Y137.166 E10.52112
G1 X106.982 Y137.154 E10.57171
G1 X106.883 Y137.092 E10.57559
G1 X106.86 Y137.053 E10.5771
G1 X106.841 Y136.949 E10.58061
G1 X106.833 Y133.202 E10.70524
G1 X106.833 Y133.195 E10.70547
G1 X106.854 Y132.954 E10.71352
G1 X106.884 Y132.906 E10.7154
G1 X106.989 Y132.843 E10.71947
G1 X106.996 Y132.843 E10.71971
G0 F1500 X107.433 Y133.243
G1 F1800 X111.495 Y133.234 E10.85481
G1 X112.759 Y133.243 E10.89685
G1 X112.759 Y136.758 E11.01376
G1 X108.505 Y136.766 E11.15525
G1 X107.241 Y136.756 E11.19729
G1 X107.233 Y133.443 E11.30748
G1 X107.233 Y133.243 E11.31413
G1 X107.433 Y133.243 E11.31844
G0 F1500 X107.834 Y133.642
G1 F1800 X111.493 Y133.634 E11.44014
G1 X112.359 Y133.64 E11.46895
G1 X112.359 Y136.359 E11.55938
G1 X108.507 Y136.366 E11.6875
G1 X107.64 Y136.359 E11.71634
G1 X107.634 Y133.842 E11.80005
G1 X107.634 Y133.642 E11.8067
G1 X107.834 Y133.642 E11.81101
G0 F1500 X108.024 Y134.032
;TYPE:SKIN
G1 F1800 X111.491 Y134.024 E11.92632
G1 X111.969 Y134.028 E11.94222
G1 X111.969 Y135.969 E12.00678
G1 X108.51 Y135.976 E12.12183
G1 X108.03 Y135.972 E12.13779
G1 X108.024 Y134.032 E12.20232
G0 F1500 X108.641 Y135.794
G1 F1800 X108.207 Y135.36 E12.22273
G0 F1500 X108.206 Y134.793
G1 F1800 X109.206 Y135.793 E12.26977
G0 F1500 X109.77 Y135.792
G1 F1800 X108.205 Y134.226 E12.34341
G0 F1500 X108.754 Y134.21
G1 F1800 X110.334 Y135.79 E12.41772
G0 F1500 X110.899 Y135.789
G1 F1800 X109.318 Y134.208 E12.49209
G0 F1500 X109.882 Y134.207
G1 F1800 X111.464 Y135.788 E12.56648
G0 F1500 X111.789 Y135.548
G1 F1800 X110.447 Y134.206 E12.6296
G0 F1500 X111.011 Y134.204
G1 F1800 X111.789 Y134.982 E12.6662
G0 F1500 X111.789 Y134.416
G1 F1800 X111.576 Y134.203 E12.67621
G1 F2700 E6.17621
G0 F1500 X108.004 Y132.841
G0 X108 Y131.581
G0 X108 Y130.662
;TIME_ELAPSED:25.473470
;LAYER:1
M140 S50
M106 S165.1
G0 F2250 X108 Y130.662 Z0.4
;TYPE:SUPPORT
G1 F2700 E12.67621
G1 X107.775 Y130.662 E12.6837
G1 X107.774 Y130.35 E12.69408
G1 X108 Y130.35 E12.70159
G1 X108 Y130.662 E12.71197
G1 X112 Y130.662 E12.84501
G1 X112 Y130.35 E12.85539
G1 X112.203 Y130.35 E12.86214
G1 X112.203 Y130.662 E12.87252
G1 X112 Y130.662 E12.87927
G1 F2700 E6.37927
G0 F2250 X113.935 Y131.26
G0 X114.361 Y131.572
G0 X114.655 Y131.932
G0 X114.849 Y132.325
G0 X114.968 Y132.978
G0 X114.948 Y137.28
G0 X114.849 Y137.674
G0 X114.656 Y138.067
G0 X114.356 Y138.435
G0 X113.949 Y138.714
G0 X112 Y139.338
G1 F2700 E12.87927
G1 X112.202 Y139.338 E12.88599
G1 X112.202 Y139.35 E12.88639
G1 X112 Y139.35 E12.8931
G1 X108 Y139.35 E13.02614
G1 X107.775 Y139.35 E13.03363
G1 X107.776 Y139.338 E13.03403
G1 X108 Y139.338 E13.04148
G1 F2700 E6.54148
G0 F2250 X108 Y138.969
G0 X108 Y137.684
G0 X107.1 Y133.299
;TYPE:WALL-INNER
G1 F2700 E13.04148
G1 F1800 X107.1 Y133.099 E13.04813
G1 X107.3 Y133.099 E13.05244
G1 X112.901 Y133.101 E13.23873
G1 X112.904 Y136.701 E13.35846
G1 X112.904 Y136.901 E13.36512
G1 X112.704 Y136.901 E13.36942
G1 X107.099 Y136.899 E13.55585
G1 X107.1 Y133.299 E13.67558
G0 F2250 X113.025 Y132.701
G1 F1800 X113.136 Y132.737 E13.67946
G1 X113.209 Y132.792 E13.6825
G1 X113.25 Y132.842 E13.68466
G1 X113.28 Y132.904 E13.68695
G1 X113.301 Y132.991 E13.68992
G1 X113.304 Y136.965 E13.8221
G1 X113.279 Y137.098 E13.8266
G1 X113.248 Y137.162 E13.82897
G1 X113.212 Y137.208 E13.83091
G1 X113.138 Y137.262 E13.83395
G1 X113.018 Y137.301 E13.83815
G1 X106.975 Y137.299 E14.03914
G1 X106.864 Y137.263 E14.04302
G1 X106.791 Y137.208 E14.04606
G1 X106.75 Y137.158 E14.04821
G1 X106.72 Y137.096 E14.05051
G1 X106.699 Y137.009 E14.05348
G1 X106.7 Y132.988 E14.18722
G1 X106.72 Y132.903 E14.19013
G1 X106.752 Y132.837 E14.19256
G1 X106.788 Y132.792 E14.19448
G1 X106.862 Y132.738 E14.19753
G1 X106.982 Y132.699 E14.20173
