; generated by Slic3r 1.37.2-prusa3d-win64 on 2018-05-08 at 07:13:25

; 

; external perimeters extrusion width = 0.45mm
; perimeters extrusion width = 0.45mm
; infill extrusion width = 0.45mm
; solid infill extrusion width = 0.45mm
; top infill extrusion width = 0.40mm
; first layer extrusion width = 0.40mm

M107
M190 S60 ; set bed temperature and wait for it to be reached
M104 S190 ; set temperature
;G28 ;home all
;G90 ;set to absolute positioning
;G1 Z5 F5000 ;lift Z to 5mm
;M84 ;disable motors

G28 ;home all
G90 ;set to absolute positioning
G1 Z1 F6000 ;lift Z to 1mm
G1 X210 F6000 ;move X to cleaning position
G1 Y200 F6000 ;move y to cleaning position
M109 S190
M109 S190
M109 S190
M109 S190
G1 E20.0; extrude 20mm
M109 S190 ; set temperature and wait for it to be reached
G21 ; set units to millimeters
G90 ; use absolute coordinates
M82 ; use absolute distances for extrusion
G92 E0
;LAYER:0
G1 E-1.00000 F1800.00000
G92 E0
G1 Z0.100 F9000.000
G1 X61.008 Y61.009 F9000.000
G1 E1.00000 F1800.00000
G1 F1800
G1 X72.409 Y52.257 E2.70699
G1 X85.091 Y46.953 E4.33966
G1 X86.342 Y46.612 E4.49361
G1 X100.005 Y44.858 E6.12962
G1 X114.249 Y46.730 E7.83596
G1 X126.968 Y51.948 E9.46862
G1 X128.093 Y52.591 E9.62258
G1 X138.991 Y61.008 E11.25793
G1 X147.408 Y71.905 E12.89327
G1 X148.052 Y73.032 E13.04743
G1 X153.269 Y85.749 E14.67989
G1 X155.142 Y99.999 E16.38689
G1 X153.389 Y113.657 E18.02223
G1 X153.047 Y114.909 E18.17639
G1 X147.744 Y127.590 E19.80885
G1 X138.992 Y138.991 E21.51585
G1 X128.095 Y147.408 E23.15119
G1 X126.968 Y148.052 E23.30535
G1 X114.251 Y153.269 E24.93781
G1 X100.001 Y155.142 E26.64481
G1 X86.343 Y153.389 E28.28016
G1 X85.091 Y153.047 E28.43431
G1 X72.410 Y147.744 E30.06678
G1 X61.009 Y138.992 E31.77377
G1 X52.592 Y128.095 E33.40912
G1 X51.948 Y126.968 E33.56328
G1 X46.731 Y114.251 E35.19574
G1 X44.858 Y100.001 E36.90273
G1 X46.611 Y86.343 E38.53808
G1 X46.953 Y85.091 E38.69224
G1 X52.256 Y72.410 E40.32470
G1 X60.971 Y61.057 E42.02457
G1 X61.515 Y61.512 F9000.000
G1 F1800
G1 X72.770 Y52.873 E43.70961
G1 X85.364 Y47.612 E45.33060
G1 X86.445 Y47.318 E45.46361
G1 X100.003 Y45.572 E47.08709
G1 X114.070 Y47.422 E48.77213
G1 X126.695 Y52.607 E50.39312
G1 X127.667 Y53.163 E50.52614
G1 X138.488 Y61.515 E52.14961
G1 X147.127 Y72.770 E53.83466
G1 X152.388 Y85.364 E55.45565
G1 X152.683 Y86.450 E55.58927
G1 X154.428 Y100.003 E57.21213
G1 X152.586 Y114.039 E58.89350
G1 X147.892 Y125.489 E60.36314
G1 X147.300 Y126.904 E60.54532
G1 X146.889 Y127.596 E60.64089
G1 X138.488 Y138.485 E62.27425
G1 X127.230 Y147.127 E63.95990
G1 X114.636 Y152.388 E65.58090
G1 X113.550 Y152.683 E65.71452
G1 X99.997 Y154.428 E67.33738
G1 X85.930 Y152.578 E69.02242
G1 X73.305 Y147.393 E70.64342
G1 X72.333 Y146.837 E70.77643
G1 X61.515 Y138.488 E72.39929
G1 X52.873 Y127.230 E74.08495
G1 X47.612 Y114.636 E75.70594
G1 X47.318 Y113.555 E75.83895
G1 X45.572 Y99.997 E77.46243
G1 X47.422 Y85.930 E79.14747
G1 X52.607 Y73.305 E80.76846
G1 X53.163 Y72.333 E80.90147
G1 X61.479 Y61.559 E82.51783
G1 X62.018 Y62.019 F9000.000
G1 F1800
G1 X73.130 Y53.490 E84.18149
G1 X85.638 Y48.272 E85.79102
G1 X86.550 Y48.025 E85.90324
G1 X100.004 Y46.286 E87.51447
G1 X113.888 Y48.112 E89.17758
G1 X126.421 Y53.267 E90.78710
G1 X127.241 Y53.737 E90.89932
G1 X137.981 Y62.018 E92.50999
G1 X146.262 Y72.758 E94.12066
G1 X146.733 Y73.579 E94.23301
G1 X151.887 Y86.111 E95.84241
G1 X153.714 Y99.999 E97.50608
G1 X151.975 Y113.449 E99.11674
G1 X151.728 Y114.362 E99.22909
G1 X146.511 Y126.869 E100.83849
G1 X137.982 Y137.981 E102.50216
G1 X127.242 Y146.262 E104.11283
G1 X126.421 Y146.733 E104.22517
G1 X113.889 Y151.887 E105.83457
G1 X100.001 Y153.714 E107.49824
G1 X86.551 Y151.975 E109.10891
G1 X85.638 Y151.728 E109.22126
G1 X73.131 Y146.511 E110.83065
G1 X62.019 Y137.982 E112.49432
G1 X53.738 Y127.242 E114.10499
G1 X53.267 Y126.421 E114.21734
G1 X48.113 Y113.889 E115.82674
G1 X46.286 Y100.001 E117.49041
G1 X48.025 Y86.551 E119.10107
G1 X48.272 Y85.638 E119.21342
G1 X53.489 Y73.131 E120.82282
G1 X61.981 Y62.066 E122.47936
G1 E121.47936 F1800.00000
G92 E0
G1 X100.000 Y116.008 F9000.000
G1 E1.00000 F1800.00000
G1 F1800
G1 X100.438 Y115.438 E1.08537
G1 X101.188 Y114.862 E1.19772
G1 X102.062 Y114.500 E1.31008
G1 X103.000 Y114.376 E1.42243
G1 X103.938 Y114.500 E1.53478
G1 X104.812 Y114.862 E1.64713
G1 X105.562 Y115.438 E1.75948
G1 X106.138 Y116.188 E1.87183
G1 X106.500 Y117.062 E1.98418
G1 X106.624 Y118.000 E2.09653
G1 X106.500 Y118.938 E2.20889
G1 X106.138 Y119.812 E2.32124
G1 X105.562 Y120.562 E2.43359
G1 X104.812 Y121.138 E2.54594
G1 X103.938 Y121.500 E2.65829
G1 X103.000 Y121.624 E2.77064
G1 X102.062 Y121.500 E2.88299
G1 X101.188 Y121.138 E2.99534
G1 X100.438 Y120.562 E3.10770
G1 X100.000 Y119.992 E3.19307
G1 X99.562 Y120.562 E3.27844
G1 X98.812 Y121.138 E3.39080
G1 X97.938 Y121.500 E3.50315
G1 X97.000 Y121.624 E3.61550
G1 X96.062 Y121.500 E3.72785
G1 X95.188 Y121.138 E3.84020
G1 X94.438 Y120.562 E3.95255
G1 X93.862 Y119.812 E4.06490
G1 X93.500 Y118.938 E4.17725
G1 X93.376 Y118.000 E4.28960
G1 X93.500 Y117.062 E4.40196
G1 X93.862 Y116.188 E4.51431
G1 X94.438 Y115.438 E4.62666
G1 X95.188 Y114.862 E4.73901
G1 X96.062 Y114.500 E4.85136
G1 X97.000 Y114.376 E4.96371
G1 X97.938 Y114.500 E5.07606
G1 X98.812 Y114.862 E5.18841
G1 X99.562 Y115.438 E5.30076
G1 X99.963 Y115.960 E5.37901
G1 X100.000 Y117.720 F9000.000
G1 F1800
G1 X100.486 Y116.548 E5.52970
G1 X100.947 Y115.947 E5.61972
G1 X101.548 Y115.486 E5.70973
G1 X102.249 Y115.195 E5.79975
G1 X103.000 Y115.097 E5.88977
G1 X103.751 Y115.195 E5.97979
G1 X104.452 Y115.486 E6.06981
G1 X105.053 Y115.947 E6.15983
G1 X105.514 Y116.548 E6.24984
G1 X105.805 Y117.249 E6.33986
G1 X105.903 Y118.000 E6.42988
G1 X105.805 Y118.751 E6.51990
G1 X105.514 Y119.452 E6.60992
G1 X105.053 Y120.053 E6.69994
G1 X104.452 Y120.514 E6.78996
G1 X103.751 Y120.805 E6.87997
G1 X103.000 Y120.903 E6.96999
G1 X102.249 Y120.805 E7.06001
G1 X101.657 Y120.560 E7.13602
G1 X101.548 Y120.514 E7.15003
G1 X100.947 Y120.053 E7.24005
G1 X100.486 Y119.452 E7.33007
G1 X100.000 Y118.280 E7.48075
G1 X99.514 Y119.452 E7.63144
G1 X99.053 Y120.053 E7.72145
G1 X98.452 Y120.514 E7.81147
G1 X97.751 Y120.805 E7.90149
G1 X97.000 Y120.903 E7.99151
G1 X96.249 Y120.805 E8.08153
G1 X95.548 Y120.514 E8.17155
G1 X94.947 Y120.053 E8.26157
G1 X94.486 Y119.452 E8.35158
G1 X94.195 Y118.751 E8.44160
G1 X94.097 Y118.000 E8.53162
G1 X94.195 Y117.249 E8.62164
G1 X94.486 Y116.548 E8.71166
G1 X94.947 Y115.947 E8.80168
G1 X95.548 Y115.486 E8.89169
G1 X96.249 Y115.195 E8.98171
G1 X97.000 Y115.097 E9.07173
G1 X97.751 Y115.195 E9.16175
G1 X98.452 Y115.486 E9.25177
G1 X99.053 Y115.947 E9.34179
G1 X99.514 Y116.548 E9.43180
G1 X99.977 Y117.665 E9.57536
G1 X100.039 Y117.322 F9000.000
G1 E8.57536 F1800.00000
G92 E0
G1 X100.000 Y114.124 F9000.000
G1 E1.00000 F1800.00000
G1 F1800
G1 X96.344 Y113.643 E1.43789
G1 X92.977 Y112.247 E1.87084
G1 X90.014 Y109.988 E2.31332
G1 X87.768 Y107.062 E2.75141
G1 X86.357 Y103.656 E3.18930
G1 X85.876 Y100.000 E3.62720
G1 X86.357 Y96.344 E4.06509
G1 X87.768 Y92.938 E4.50298
G1 X90.013 Y90.013 E4.94087
G1 X92.938 Y87.768 E5.37877
G1 X96.344 Y86.357 E5.81666
G1 X99.959 Y85.882 E6.24961
G1 X103.654 Y86.357 E6.69208
G1 X107.062 Y87.768 E7.13018
G1 X109.987 Y90.013 E7.56807
G1 X112.232 Y92.938 E8.00596
G1 X113.643 Y96.344 E8.44385
G1 X114.124 Y100.000 E8.88175
G1 X113.643 Y103.656 E9.31964
G1 X112.232 Y107.062 E9.75753
G1 X109.987 Y109.987 E10.19542
G1 X107.062 Y112.232 E10.63332
G1 X103.656 Y113.643 E11.07121
G1 X100.059 Y114.116 E11.50198
G1 X100.000 Y113.403 F9000.000
G1 F1800
G1 X96.531 Y112.947 E11.91754
G1 X93.336 Y111.623 E12.32828
G1 X90.523 Y109.478 E12.74842
G1 X88.392 Y106.702 E13.16406
G1 X87.053 Y103.469 E13.57961
G1 X86.597 Y100.000 E13.99517
G1 X87.053 Y96.531 E14.41073
G1 X88.392 Y93.298 E14.82629
G1 X90.522 Y90.522 E15.24185
G1 X93.298 Y88.392 E15.65741
G1 X96.531 Y87.053 E16.07297
G1 X99.960 Y86.602 E16.48372
G1 X103.469 Y87.053 E16.90386
G1 X106.702 Y88.392 E17.31949
G1 X109.478 Y90.522 E17.73505
G1 X111.608 Y93.298 E18.15061
G1 X112.947 Y96.531 E18.56617
G1 X113.403 Y100.000 E18.98173
G1 X112.947 Y103.469 E19.39729
G1 X111.608 Y106.702 E19.81285
G1 X109.478 Y109.478 E20.22841
G1 X106.702 Y111.608 E20.64397
G1 X103.469 Y112.947 E21.05953
G1 X100.059 Y113.396 E21.46796
G1 X99.800 Y113.750 F9000.000
G1 E20.46796 F1800.00000
G92 E0
G1 X100.000 Y83.992 F9000.000
G1 E1.00000 F1800.00000
G1 F1800
G1 X99.562 Y84.562 E1.08537
G1 X98.812 Y85.138 E1.19773
G1 X97.938 Y85.500 E1.31008
G1 X97.000 Y85.624 E1.42243
G1 X96.062 Y85.500 E1.53478
G1 X95.188 Y85.138 E1.64713
G1 X94.438 Y84.562 E1.75948
G1 X93.862 Y83.812 E1.87183
G1 X93.500 Y82.938 E1.98418
G1 X93.376 Y82.000 E2.09654
G1 X93.500 Y81.062 E2.20889
G1 X93.862 Y80.188 E2.32124
G1 X94.438 Y79.438 E2.43359
G1 X95.188 Y78.862 E2.54594
G1 X96.062 Y78.500 E2.65829
G1 X97.000 Y78.376 E2.77064
G1 X97.938 Y78.500 E2.88299
G1 X98.812 Y78.862 E2.99534
G1 X99.562 Y79.438 E3.10770
G1 X100.000 Y80.008 E3.19307
G1 X100.438 Y79.438 E3.27844
G1 X101.188 Y78.862 E3.39079
G1 X102.062 Y78.500 E3.50315
G1 X103.000 Y78.376 E3.61550
G1 X103.938 Y78.500 E3.72785
G1 X104.812 Y78.862 E3.84020
G1 X105.562 Y79.438 E3.95255
G1 X106.138 Y80.188 E4.06490
G1 X106.500 Y81.062 E4.17725
G1 X106.624 Y82.000 E4.28960
G1 X106.500 Y82.938 E4.40196
G1 X106.138 Y83.812 E4.51431
G1 X105.562 Y84.562 E4.62666
G1 X104.812 Y85.138 E4.73901
G1 X103.938 Y85.500 E4.85136
G1 X103.000 Y85.624 E4.96371
G1 X102.062 Y85.500 E5.07606
G1 X101.188 Y85.138 E5.18841
G1 X100.438 Y84.562 E5.30077
G1 X100.037 Y84.040 E5.37901
G1 X100.000 Y82.280 F9000.000
G1 F1800
G1 X99.514 Y83.452 E5.52970
G1 X99.053 Y84.053 E5.61972
G1 X98.452 Y84.514 E5.70974
G1 X97.751 Y84.805 E5.79975
G1 X97.000 Y84.903 E5.88977
G1 X96.249 Y84.805 E5.97979
G1 X95.548 Y84.514 E6.06981
G1 X94.947 Y84.053 E6.15983
G1 X94.486 Y83.452 E6.24985
G1 X94.195 Y82.751 E6.33986
G1 X94.097 Y82.000 E6.42988
G1 X94.195 Y81.249 E6.51990
G1 X94.486 Y80.548 E6.60992
G1 X94.947 Y79.947 E6.69994
G1 X95.548 Y79.486 E6.78996
G1 X96.249 Y79.195 E6.87997
G1 X97.000 Y79.097 E6.96999
G1 X97.751 Y79.195 E7.06001
G1 X98.452 Y79.486 E7.15003
G1 X99.053 Y79.947 E7.24005
G1 X99.514 Y80.548 E7.33007
G1 X100.000 Y81.720 E7.48075
G1 X100.486 Y80.548 E7.63144
G1 X100.947 Y79.947 E7.72146
G1 X101.548 Y79.486 E7.81148
G1 X102.249 Y79.195 E7.90149
G1 X102.883 Y79.112 E7.97751
G1 X103.000 Y79.097 E7.99151
G1 X103.751 Y79.195 E8.08153
G1 X104.452 Y79.486 E8.17155
G1 X105.053 Y79.947 E8.26157
G1 X105.514 Y80.548 E8.35159
G1 X105.805 Y81.249 E8.44160
G1 X105.903 Y82.000 E8.53162
G1 X105.805 Y82.751 E8.62164
G1 X105.514 Y83.452 E8.71166
G1 X105.053 Y84.053 E8.80168
G1 X104.452 Y84.514 E8.89170
G1 X103.751 Y84.805 E8.98172
G1 X103.000 Y84.903 E9.07173
G1 X102.249 Y84.805 E9.16175
G1 X101.548 Y84.514 E9.25177
G1 X100.947 Y84.053 E9.34179
G1 X100.486 Y83.452 E9.43181
G1 X100.023 Y82.335 E9.57537
G1 X99.961 Y82.678 F9000.000
G1 E8.57537 F1800.00000
G92 E0
G1 X100.000 Y51.124 F9000.000
G1 E1.00000 F1800.00000
G1 F1800
G1 X112.650 Y52.789 E2.51536
G1 X124.438 Y57.672 E4.03071
G1 X134.561 Y65.439 E5.54607
G1 X142.328 Y75.562 E7.06142
G1 X147.211 Y87.350 E8.57678
G1 X148.876 Y100.000 E10.09213
G1 X147.211 Y112.650 E11.60749
G1 X142.328 Y124.438 E13.12284
G1 X134.561 Y134.561 E14.63820
G1 X124.438 Y142.328 E16.15355
G1 X123.368 Y142.771 E16.29115
G1 X112.650 Y147.211 E17.66891
G1 X100.000 Y148.876 E19.18426
G1 X87.350 Y147.211 E20.69962
G1 X75.562 Y142.328 E22.21497
G1 X65.439 Y134.561 E23.73033
G1 X57.672 Y124.438 E25.24568
G1 X52.789 Y112.650 E26.76104
G1 X51.124 Y100.000 E28.27639
G1 X52.789 Y87.350 E29.79175
G1 X57.672 Y75.562 E31.30710
G1 X65.439 Y65.439 E32.82246
G1 X75.562 Y57.672 E34.33781
G1 X87.350 Y52.789 E35.85317
G1 X99.941 Y51.132 E37.36140
G1 X100.000 Y50.403 F9000.000
G1 F1800
G1 X112.837 Y52.093 E38.89909
G1 X124.798 Y57.048 E40.43678
G1 X135.070 Y64.930 E41.97446
G1 X142.952 Y75.202 E43.51215
G1 X147.907 Y87.163 E45.04984
G1 X149.597 Y100.000 E46.58753
G1 X147.907 Y112.837 E48.12521
G1 X142.952 Y124.798 E49.66290
G1 X135.070 Y135.070 E51.20059
G1 X124.798 Y142.952 E52.73828
G1 X123.641 Y143.431 E52.88704
G1 X112.837 Y147.907 E54.27597
G1 X100.000 Y149.597 E55.81366
G1 X87.163 Y147.907 E57.35134
G1 X75.202 Y142.952 E58.88903
G1 X64.930 Y135.070 E60.42672
G1 X57.048 Y124.798 E61.96441
G1 X52.093 Y112.837 E63.50210
G1 X50.403 Y100.000 E65.03978
G1 X52.093 Y87.163 E66.57747
G1 X57.048 Y75.202 E68.11516
G1 X64.930 Y64.930 E69.65285
G1 X75.202 Y57.048 E71.19054
G1 X87.163 Y52.093 E72.72822
G1 X99.941 Y50.411 E74.25879
G1 X100.200 Y50.750 F9000.000
G1 E73.25879 F1800.00000
G92 E0
G1 X100.470 Y81.782 F9000.000
G1 E1.00000 F1800.00000
G1 F1800
G1 X100.412 Y82.000 E1.00323
G1 X100.470 Y82.218 E1.00645
G1 X99.530 Y82.218 F9000.000
G1 F1800
G1 X99.588 Y82.000 E1.00968
G1 X99.530 Y81.782 E1.01291
G1 E0.01291 F1800.00000
G92 E0
G1 X99.530 Y117.782 F9000.000
G1 E1.00000 F1800.00000
G1 F1800
G1 X99.588 Y118.000 E1.00323
G1 X99.530 Y118.218 E1.00645
G1 X100.470 Y118.218 F9000.000
G1 F1800
G1 X100.412 Y118.000 E1.00968
G1 X100.470 Y117.782 E1.01291
G1 X100.105 Y115.872 F9000.000
G1 F1800
G1 X98.481 Y114.248 E1.28761
G1 X99.652 Y114.402 E1.42895
G1 X100.350 Y115.100 E1.54698
G1 X100.925 Y114.658 E1.63377
G1 X100.632 Y114.365 E1.68342
G1 X101.531 Y114.246 E1.79187
G1 X101.866 Y114.581 E1.84850
G1 X103.801 Y114.482 F9000.000
G1 F1800
G1 X103.329 Y114.010 E1.92835
G1 X103.739 Y113.956 E1.97790
G1 X104.130 Y113.794 E2.02848
G1 X128.864 Y138.527 E6.21258
G1 X129.439 Y138.086 E6.29937
G1 X104.849 Y113.496 E10.45916
G1 X105.569 Y113.198 E10.55229
G1 X130.015 Y137.644 E14.68777
G1 X130.590 Y137.202 E14.77456
G1 X106.288 Y112.900 E18.88572
G1 X107.007 Y112.602 E18.97885
G1 X131.166 Y136.761 E23.06571
G1 X131.741 Y136.319 E23.15250
G1 X107.626 Y112.204 E27.23203
G1 X108.202 Y111.762 E27.31881
G1 X132.317 Y135.877 E31.39834
G1 X132.893 Y135.436 E31.48512
G1 X108.777 Y111.320 E35.56466
G1 X109.353 Y110.879 E35.65144
G1 X133.468 Y134.994 E39.73097
G1 X134.044 Y134.552 E39.81775
G1 X109.928 Y110.437 E43.89728
G1 X110.216 Y110.216 E43.94067
G1 X110.437 Y109.928 E43.98407
G1 X134.552 Y134.044 E48.06360
G1 X134.994 Y133.468 E48.15038
G1 X110.879 Y109.353 E52.22991
G1 X111.320 Y108.777 E52.31670
G1 X135.436 Y132.893 E56.39623
G1 X135.877 Y132.317 E56.48301
G1 X111.762 Y108.202 E60.56254
G1 X112.204 Y107.626 E60.64933
G1 X136.319 Y131.741 E64.72886
G1 X136.761 Y131.166 E64.81564
G1 X112.602 Y107.007 E68.90250
G1 X112.900 Y106.288 E68.99563
G1 X137.202 Y130.590 E73.10680
G1 X137.644 Y130.015 E73.19358
G1 X113.198 Y105.569 E77.32906
G1 X113.496 Y104.849 E77.42219
G1 X138.086 Y129.439 E81.58199
G1 X138.527 Y128.863 E81.66877
G1 X113.794 Y104.130 E85.85288
G1 X113.956 Y103.739 E85.90345
G1 X114.010 Y103.329 E85.95301
G1 X138.969 Y128.288 E90.17531
G1 X139.411 Y127.712 E90.26210
G1 X114.128 Y102.430 E94.53909
G1 X114.246 Y101.531 E94.64755
G1 X139.852 Y127.137 E98.97924
G1 X140.294 Y126.561 E99.06602
G1 X114.365 Y100.632 E103.45241
G1 X114.448 Y100.000 E103.52865
G1 X114.402 Y99.652 E103.57063
G1 X140.736 Y125.986 E108.02540
G1 X141.177 Y125.410 E108.11218
G1 X114.248 Y98.481 E112.66776
G1 X114.094 Y97.309 E112.80910
G1 X141.619 Y124.834 E117.46548
G1 X142.047 Y124.276 E117.54967
G1 X142.056 Y124.255 E117.55246
G1 X113.880 Y96.078 E122.31895
G1 X113.161 Y94.342 E122.54379
G1 X142.600 Y123.781 E127.52397
G1 E126.52397 F1800.00000
G92 E0
G1 X144.686 Y118.746 F9000.000
G1 E1.00000 F1800.00000
G1 F1800
G1 X106.740 Y80.800 E7.41928
G1 X106.813 Y80.978 E7.44237
G1 X106.945 Y82.023 E7.56828
G1 X144.142 Y119.219 E13.86080
G1 X143.844 Y119.939 E13.95393
G1 X106.827 Y82.921 E20.21606
G1 X106.813 Y83.022 E20.22817
G1 X106.549 Y83.661 E20.31090
G1 X143.546 Y120.658 E26.56965
G1 X143.248 Y121.377 E26.66278
G1 X106.170 Y84.299 E32.93525
G1 X105.792 Y84.792 E33.00953
G1 X105.709 Y84.855 E33.02203
G1 X142.950 Y122.097 E39.32208
G1 X142.652 Y122.816 E39.41521
G1 X110.442 Y90.605 E44.86421
G1 X109.395 Y89.558 F9000.000
G1 F1800
G1 X105.133 Y85.297 E45.58513
G1 X104.974 Y85.419 E45.60913
