; G-Code generated by Simplify3D(R) Version 4.0.0
; Apr 27, 2018 at 7:55:08 PM
; Settings Summary
;   processName,Process1
;   applyToModels,batman
;   profileName,barto (modified)
;   profileVersion,2018-03-23 14:03:46
;   baseProfile,Default
;   printMaterial,PLA
;   printQuality,High
;   printExtruders,
;   extruderName,Extruder 1
;   extruderToolheadNumber,0
;   extruderDiameter,0.4
;   extruderAutoWidth,1
;   extruderWidth,0.48
;   extrusionMultiplier,1
;   extruderUseRetract,1
;   extruderRetractionDistance,5
;   extruderExtraRestartDistance,0
;   extruderRetractionZLift,0.1
;   extruderRetractionSpeed,5400
;   extruderUseCoasting,0
;   extruderCoastingDistance,0.2
;   extruderUseWipe,0
;   extruderWipeDistance,5
;   primaryExtruder,0
;   layerHeight,0.2
;   topSolidLayers,7
;   bottomSolidLayers,5
;   perimeterOutlines,3
;   printPerimetersInsideOut,1
;   startPointOption,1
;   startPointOriginX,0
;   startPointOriginY,0
;   sequentialIslands,0
;   spiralVaseMode,0
;   firstLayerHeightPercentage,100
;   firstLayerWidthPercentage,100
;   firstLayerUnderspeed,0.75
;   useRaft,0
;   raftExtruder,0
;   raftTopLayers,3
;   raftBaseLayers,2
;   raftOffset,6
;   raftSeparationDistance,0.14
;   raftTopInfill,100
;   aboveRaftSpeedMultiplier,0.3
;   useSkirt,1
;   skirtExtruder,0
;   skirtLayers,1
;   skirtOutlines,5
;   skirtOffset,5
;   usePrimePillar,0
;   primePillarExtruder,999
;   primePillarWidth,12
;   primePillarLocation,7
;   primePillarSpeedMultiplier,1
;   useOozeShield,0
;   oozeShieldExtruder,999
;   oozeShieldOffset,2
;   oozeShieldOutlines,1
;   oozeShieldSidewallShape,1
;   oozeShieldSidewallAngle,30
;   oozeShieldSpeedMultiplier,1
;   infillExtruder,0
;   internalInfillPattern,Rectilinear
;   externalInfillPattern,Rectilinear
;   infillPercentage,20
;   outlineOverlapPercentage,20
;   infillExtrusionWidthPercentage,100
;   minInfillLength,5
;   infillLayerInterval,1
;   internalInfillAngles,45,-45
;   overlapInternalInfillAngles,0
;   externalInfillAngles,45,-45,90,0
;   generateSupport,0
;   supportExtruder,0
;   supportInfillPercentage,35
;   supportExtraInflation,0
;   supportBaseLayers,3
;   denseSupportExtruder,0
;   denseSupportLayers,2
;   denseSupportInfillPercentage,70
;   supportLayerInterval,1
;   supportHorizontalPartOffset,0.3
;   supportUpperSeparationLayers,1
;   supportLowerSeparationLayers,1
;   supportType,0
;   supportGridSpacing,3
;   maxOverhangAngle,55
;   supportAngles,0
;   temperatureName,Extruder 1 Temperature,Heated Bed
;   temperatureNumber,0,0
;   temperatureSetpointCount,2,1
;   temperatureSetpointLayers,1,2,1
;   temperatureSetpointTemperatures,210,206,50
;   temperatureStabilizeAtStartup,1,1
;   temperatureHeatedBed,0,1
;   temperatureRelayBetweenLayers,0,0
;   temperatureRelayBetweenLoops,0,0
;   fanLayers,1,3,5,6
;   fanSpeeds,0,30,50,100
;   blipFanToFullPower,0
;   adjustSpeedForCooling,1
;   minSpeedLayerTime,15
;   minCoolingSpeedSlowdown,20
;   increaseFanForCooling,1
;   minFanLayerTime,45
;   maxCoolingFanSpeed,50
;   increaseFanForBridging,1
;   bridgingFanSpeed,100
;   use5D,1
;   relativeEdistances,0
;   allowEaxisZeroing,1
;   independentExtruderAxes,0
;   includeM10123,0
;   stickySupport,1
;   applyToolheadOffsets,0
;   gcodeXoffset,0
;   gcodeYoffset,0
;   gcodeZoffset,0
;   overrideMachineDefinition,1
;   machineTypeOverride,0
;   strokeXoverride,220
;   strokeYoverride,220
;   strokeZoverride,240
;   originOffsetXoverride,0
;   originOffsetYoverride,0
;   originOffsetZoverride,0
;   homeXdirOverride,-1
;   homeYdirOverride,-1
;   homeZdirOverride,-1
;   flipXoverride,1
;   flipYoverride,-1
;   flipZoverride,1
;   toolheadOffsets,0,0|0,0|0,0|0,0|0,0|0,0
;   overrideFirmwareConfiguration,1
;   firmwareTypeOverride,RepRap (Marlin/Repetier/Sprinter)
;   GPXconfigOverride,r2
;   baudRateOverride,115200
;   overridePrinterModels,0
;   printerModelsOverride
;   startingGcode,G21;,G90;,M82;,M107;,G28 X0 Y0;,G28 Z0;,G92 E0;,G1 Z10;,
;   layerChangeGcode,;LAYER:[layer_num]
;   retractionGcode,
;   toolChangeGcode,
;   endingGcode,M104 S0,M140 S0,;Retract the filament,G92 E1,G1 E-1 F300,G28 X0 Y0,M84
;   exportFileFormat,gcode
;   celebration,0
;   celebrationSong,Random Song
;   postProcessing,{REPLACE " Z = " " Z="},;LAYER:[layer_num]
;   defaultSpeed,3000
;   outlineUnderspeed,0.5
;   solidInfillUnderspeed,0.8
;   supportUnderspeed,0.8
;   rapidXYspeed,9000
;   rapidZspeed,1002
;   minBridgingArea,20
;   bridgingExtraInflation,0
;   bridgingExtrusionMultiplier,1
;   bridgingSpeedMultiplier,1
;   useFixedBridgingAngle,0
;   fixedBridgingAngle,0
;   applyBridgingToPerimeters,0
;   filamentDiameters,1.75|1.75|1.75|1.75|1.75|1.75
;   filamentPricesPerKg,15|30|30|30|30|30
;   filamentDensities,1.25|1.25|1.25|1.25|1.25|1.25
;   useMinPrintHeight,0
;   minPrintHeight,2.4
;   useMaxPrintHeight,1
;   maxPrintHeight,3
;   useDiaphragm,0
;   diaphragmLayerInterval,20
;   robustSlicing,1
;   mergeAllIntoSolid,0
;   onlyRetractWhenCrossingOutline,1
;   retractBetweenLayers,0
;   useRetractionMinTravel,1
;   retractionMinTravel,2
;   retractWhileWiping,1
;   onlyWipeOutlines,1
;   avoidCrossingOutline,1
;   maxMovementDetourFactor,3
;   toolChangeRetractionDistance,12
;   toolChangeExtraRestartDistance,-0.5
;   toolChangeRetractionSpeed,600
;   externalThinWallType,0
;   internalThinWallType,2
;   thinWallAllowedOverlapPercentage,10
;   singleExtrusionMinLength,1
;   singleExtrusionMinPrintingWidthPercentage,50
;   singleExtrusionMaxPrintingWidthPercentage,200
;   singleExtrusionEndpointExtension,0.2
;   horizontalSizeCompensation,0
G90
M82
M106 S0
M140 S50
M190 S50
M104 S210 T0
M109 S210 T0
G21;
G90;
M82;
M107;
G28 X0 Y0;
G28 Z0;
G92 E0;
G1 Z10;
G92 E0
G1 E-5.0000 F5400
G1 Z0.300 F1002
; process Process1
; layer 1, Z=0.200
;LAYER:[layer_num]
T0
; tool H0.200 W0.480
; skirt
G1 X54.337 Y75.038 F9000
G1 Z0.200 F1002
G1 E0.0000 F1620
G92 E0
G1 X58.030 Y72.281 E0.1839 F2250
G1 X58.062 Y72.258 E0.1855
G1 X58.244 Y72.132 E0.1944
G1 X58.277 Y72.110 E0.1959
G1 X62.184 Y69.614 E0.3810
G1 X62.216 Y69.595 E0.3824
G1 X62.395 Y69.489 E0.3908
G1 X62.427 Y69.470 E0.3922
G1 X66.787 Y67.089 E0.5905
G1 X66.819 Y67.072 E0.5920
G1 X67.004 Y66.979 E0.6002
G1 X67.037 Y66.963 E0.6017
G1 X71.863 Y64.739 E0.8138
G1 X71.896 Y64.725 E0.8152
G1 X72.081 Y64.646 E0.8232
G1 X72.114 Y64.633 E0.8247
G1 X76.917 Y62.794 E1.0299
G1 X76.948 Y62.783 E1.0312
G1 X77.126 Y62.721 E1.0387
G1 X77.158 Y62.711 E1.0401
G1 X82.534 Y61.026 E1.2649
G1 X82.566 Y61.016 E1.2663
G1 X82.750 Y60.965 E1.2739
G1 X82.782 Y60.956 E1.2752
G1 X88.211 Y59.621 E1.4984
G1 X88.243 Y59.614 E1.4997
G1 X88.420 Y59.576 E1.5069
G1 X88.452 Y59.570 E1.5082
G1 X94.049 Y58.543 E1.7353
G1 X94.081 Y58.538 E1.7366
G1 X94.257 Y58.511 E1.7437
G1 X94.288 Y58.506 E1.7450
G1 X100.011 Y57.800 E1.9751
G1 X100.042 Y57.797 E1.9764
G1 X100.217 Y57.780 E1.9834
G1 X100.248 Y57.778 E1.9846
G1 X106.051 Y57.400 E2.2167
G1 X106.084 Y57.398 E2.2180
G1 X106.268 Y57.392 E2.2254
G1 X106.301 Y57.391 E2.2267
G1 X112.768 Y57.363 E2.4848
G1 X112.802 Y57.363 E2.4862
G1 X112.996 Y57.368 E2.4939
G1 X113.030 Y57.370 E2.4953
G1 X119.465 Y57.752 E2.7526
G1 X119.499 Y57.754 E2.7539
G1 X119.693 Y57.772 E2.7617
G1 X119.727 Y57.776 E2.7631
G1 X126.057 Y58.560 E3.0176
G1 X126.091 Y58.565 E3.0190
G1 X126.286 Y58.595 E3.0269
G1 X126.321 Y58.601 E3.0283
G1 X132.481 Y59.774 E3.2786
G1 X132.516 Y59.781 E3.2800
G1 X132.712 Y59.825 E3.2880
G1 X132.746 Y59.834 E3.2894
G1 X138.678 Y61.375 E3.5340
G1 X138.713 Y61.384 E3.5355
G1 X138.911 Y61.443 E3.5437
G1 X138.946 Y61.454 E3.5452
G1 X144.596 Y63.339 E3.7829
G1 X144.632 Y63.351 E3.7844
G1 X144.831 Y63.426 E3.7929
G1 X144.866 Y63.439 E3.7944
G1 X150.191 Y65.640 E4.0244
G1 X150.227 Y65.655 E4.0259
G1 X150.427 Y65.747 E4.0347
G1 X150.463 Y65.764 E4.0363
G1 X155.424 Y68.249 E4.2578
G1 X155.461 Y68.269 E4.2594
G1 X155.662 Y68.379 E4.2686
G1 X155.697 Y68.400 E4.2702
G1 X160.267 Y71.139 E4.4829
G1 X160.303 Y71.162 E4.4846
G1 X160.504 Y71.293 E4.4942
G1 X160.539 Y71.318 E4.4959
G1 X164.695 Y74.279 E4.6996
G1 X164.731 Y74.306 E4.7013
G1 X164.930 Y74.461 E4.7114
G1 X164.965 Y74.489 E4.7132
G1 X168.693 Y77.643 E4.9081
G1 X168.728 Y77.674 E4.9100
G1 X168.923 Y77.854 E4.9206
G1 X168.957 Y77.887 E4.9224
G1 X172.248 Y81.205 E5.1090
G1 X172.282 Y81.241 E5.1109
G1 X172.469 Y81.447 E5.1221
G1 X172.502 Y81.485 E5.1240
G1 X175.352 Y84.940 E5.3028
G1 X175.384 Y84.981 E5.3049
G1 X175.559 Y85.215 E5.3166
G1 X175.589 Y85.258 E5.3186
G1 X177.998 Y88.828 E5.4905
G1 X178.028 Y88.873 E5.4927
G1 X178.186 Y89.135 E5.5049
G1 X178.213 Y89.182 E5.5071
G1 X180.181 Y92.845 E5.6730
G1 X180.206 Y92.896 E5.6753
G1 X180.342 Y93.184 E5.6880
G1 X180.365 Y93.235 E5.6903
G1 X181.894 Y96.973 E5.8514
G1 X181.915 Y97.027 E5.8538
G1 X182.023 Y97.338 E5.8669
G1 X182.041 Y97.394 E5.8692
G1 X183.132 Y101.187 E6.0268
G1 X183.147 Y101.245 E6.0292
G1 X183.222 Y101.574 E6.0426
G1 X183.234 Y101.633 E6.0450
G1 X183.886 Y105.448 E6.1995
G1 X183.894 Y105.508 E6.2019
G1 X183.933 Y105.848 E6.2156
G1 X183.938 Y105.909 E6.2180
G1 X184.154 Y109.719 E6.3703
G1 X184.156 Y109.769 E6.3723
G1 X184.159 Y110.048 E6.3835
G1 X184.158 Y110.098 E6.3854
G1 X184.073 Y112.513 E6.4819
G1 X184.071 Y112.551 E6.4834
G1 X184.056 Y112.764 E6.4919
G1 X184.053 Y112.802 E6.4934
G1 X183.800 Y115.202 E6.5898
G1 X183.794 Y115.248 E6.5916
G1 X183.755 Y115.505 E6.6020
G1 X183.748 Y115.551 E6.6039
G1 X183.083 Y118.988 E6.7436
G1 X183.072 Y119.041 E6.7457
G1 X183.000 Y119.335 E6.7578
G1 X182.986 Y119.387 E6.7600
G1 X181.990 Y122.716 E6.8987
G1 X181.974 Y122.766 E6.9007
G1 X181.877 Y123.042 E6.9124
G1 X181.858 Y123.091 E6.9145
G1 X180.430 Y126.595 E7.0655
G1 X180.409 Y126.643 E7.0677
G1 X180.284 Y126.913 E7.0795
G1 X180.260 Y126.960 E7.0816
G1 X178.498 Y130.306 E7.2326
G1 X178.474 Y130.350 E7.2346
G1 X178.333 Y130.590 E7.2457
G1 X178.307 Y130.632 E7.2476
G1 X176.247 Y133.801 E7.3985
G1 X176.220 Y133.840 E7.4004
G1 X176.066 Y134.056 E7.4110
G1 X176.038 Y134.093 E7.4128
G1 X173.469 Y137.381 E7.5794
G1 X173.439 Y137.417 E7.5812
G1 X173.267 Y137.619 E7.5918
G1 X173.235 Y137.654 E7.5937
G1 X170.363 Y140.734 E7.7618
G1 X170.332 Y140.766 E7.7636
G1 X170.158 Y140.938 E7.7733
G1 X170.126 Y140.968 E7.7751
G1 X166.995 Y143.824 E7.9442
G1 X166.964 Y143.851 E7.9459
G1 X166.788 Y144.000 E7.9551
G1 X166.757 Y144.026 E7.9567
G1 X163.171 Y146.831 E8.1384
G1 X163.139 Y146.855 E8.1400
G1 X162.954 Y146.989 E8.1491
G1 X162.921 Y147.012 E8.1507
G1 X158.851 Y149.730 E8.3460
G1 X158.818 Y149.751 E8.3476
G1 X158.630 Y149.868 E8.3565
G1 X158.596 Y149.888 E8.3580
G1 X154.307 Y152.320 E8.5548
G1 X154.275 Y152.338 E8.5563
G1 X154.091 Y152.434 E8.5646
G1 X154.058 Y152.451 E8.5660
G1 X149.457 Y154.661 E8.7698
G1 X149.425 Y154.676 E8.7712
G1 X149.243 Y154.756 E8.7791
G1 X149.211 Y154.769 E8.7805
G1 X144.480 Y156.673 E8.9840
G1 X144.449 Y156.685 E8.9854
G1 X144.273 Y156.749 E8.9929
G1 X144.241 Y156.760 E8.9942
G1 X139.100 Y158.468 E9.2104
G1 X139.068 Y158.479 E9.2117
G1 X138.887 Y158.532 E9.2193
G1 X138.855 Y158.542 E9.2206
G1 X133.310 Y160.009 E9.4495
G1 X133.278 Y160.017 E9.4509
G1 X133.095 Y160.059 E9.4583
G1 X133.063 Y160.066 E9.4597
G1 X127.504 Y161.176 E9.6859
G1 X127.473 Y161.182 E9.6872
G1 X127.296 Y161.211 E9.6943
G1 X127.265 Y161.216 E9.6956
G1 X121.571 Y162.008 E9.9251
G1 X121.540 Y162.012 E9.9263
G1 X121.364 Y162.031 E9.9333
G1 X121.333 Y162.034 E9.9346
G1 X115.550 Y162.499 E10.1661
G1 X115.519 Y162.501 E10.1674
G1 X115.346 Y162.510 E10.1743
G1 X115.315 Y162.511 E10.1755
G1 X109.678 Y162.642 E10.4006
G1 X109.646 Y162.642 E10.4019
G1 X109.465 Y162.641 E10.4091
G1 X109.433 Y162.640 E10.4104
G1 X102.794 Y162.399 E10.6755
G1 X102.759 Y162.397 E10.6769
G1 X102.561 Y162.384 E10.6849
G1 X102.526 Y162.381 E10.6863
G1 X96.151 Y161.731 E10.9420
G1 X96.116 Y161.727 E10.9434
G1 X95.922 Y161.701 E10.9512
G1 X95.888 Y161.695 E10.9526
G1 X89.663 Y160.652 E11.2045
G1 X89.629 Y160.646 E11.2059
G1 X89.433 Y160.606 E11.2139
G1 X89.398 Y160.599 E11.2153
G1 X83.383 Y159.180 E11.4620
G1 X83.348 Y159.171 E11.4634
G1 X83.151 Y159.117 E11.4715
G1 X83.116 Y159.107 E11.4730
G1 X77.365 Y157.336 E11.7132
G1 X77.330 Y157.324 E11.7147
G1 X77.131 Y157.255 E11.7231
G1 X77.096 Y157.242 E11.7245
G1 X71.657 Y155.145 E11.9572
G1 X71.621 Y155.131 E11.9588
G1 X71.420 Y155.045 E11.9675
G1 X71.385 Y155.029 E11.9690
G1 X66.297 Y152.637 E12.1934
G1 X66.261 Y152.619 E12.1950
G1 X66.060 Y152.515 E12.2041
G1 X66.025 Y152.496 E12.2057
G1 X61.320 Y149.839 E12.4213
G1 X61.284 Y149.817 E12.4230
G1 X61.082 Y149.693 E12.4324
G1 X61.047 Y149.670 E12.4341
G1 X56.750 Y146.780 E12.6408
G1 X56.714 Y146.754 E12.6426
G1 X56.513 Y146.608 E12.6525
G1 X56.478 Y146.581 E12.6542
G1 X52.605 Y143.488 E12.8521
G1 X52.569 Y143.459 E12.8539
G1 X52.373 Y143.288 E12.8643
G1 X52.338 Y143.256 E12.8662
G1 X48.899 Y139.991 E13.0555
G1 X48.864 Y139.957 E13.0574
G1 X48.674 Y139.759 E13.0683
G1 X48.641 Y139.723 E13.0703
G1 X45.642 Y136.312 E13.2516
G1 X45.609 Y136.273 E13.2536
G1 X45.429 Y136.048 E13.2651
G1 X45.398 Y136.007 E13.2672
G1 X42.840 Y132.474 E13.4413
G1 X42.810 Y132.429 E13.4434
G1 X42.645 Y132.177 E13.4554
G1 X42.617 Y132.131 E13.4576
G1 X40.500 Y128.498 E13.6254
G1 X40.473 Y128.449 E13.6276
G1 X40.329 Y128.169 E13.6402
G1 X40.305 Y128.119 E13.6424
G1 X38.628 Y124.405 E13.8051
G1 X38.605 Y124.352 E13.8074
G1 X38.487 Y124.048 E13.8204
G1 X38.468 Y123.994 E13.8227
G1 X37.229 Y120.217 E13.9813
G1 X37.212 Y120.160 E13.9837
G1 X37.125 Y119.836 E13.9971
G1 X37.111 Y119.778 E13.9995
G1 X36.309 Y115.957 E14.1553
G1 X36.298 Y115.897 E14.1577
G1 X36.247 Y115.559 E14.1714
G1 X36.240 Y115.498 E14.1738
G1 X35.876 Y111.656 E14.3278
G1 X35.872 Y111.598 E14.3302
G1 X35.859 Y111.270 E14.3433
G1 X35.858 Y111.212 E14.3456
G1 X35.906 Y107.727 E14.4847
G1 X35.908 Y107.672 E14.4869
G1 X35.928 Y107.361 E14.4993
G1 X35.933 Y107.306 E14.5015
G1 X36.338 Y103.833 E14.6411
G1 X36.346 Y103.779 E14.6433
G1 X36.397 Y103.474 E14.6556
G1 X36.408 Y103.421 E14.6578
G1 X37.172 Y99.964 E14.7991
G1 X37.184 Y99.912 E14.8012
G1 X37.264 Y99.621 E14.8132
G1 X37.279 Y99.570 E14.8154
G1 X38.368 Y96.250 E14.9548
G1 X38.385 Y96.201 E14.9569
G1 X38.489 Y95.929 E14.9685
G1 X38.508 Y95.881 E14.9706
G1 X40.036 Y92.390 E15.1227
G1 X40.058 Y92.342 E15.1248
G1 X40.189 Y92.078 E15.1366
G1 X40.214 Y92.032 E15.1386
G1 X42.074 Y88.703 E15.2908
G1 X42.099 Y88.660 E15.2928
G1 X42.244 Y88.426 E15.3038
G1 X42.271 Y88.385 E15.3058
G1 X44.425 Y85.237 E15.4580
G1 X44.452 Y85.200 E15.4598
G1 X44.607 Y84.992 E15.4702
G1 X44.636 Y84.955 E15.4721
G1 X47.221 Y81.795 E15.6350
G1 X47.251 Y81.760 E15.6368
G1 X47.422 Y81.568 E15.6471
G1 X47.453 Y81.534 E15.6490
G1 X50.508 Y78.386 E15.8240
G1 X50.540 Y78.355 E15.8258
G1 X50.722 Y78.182 E15.8358
G1 X50.754 Y78.152 E15.8376
G1 X54.092 Y75.237 E16.0145
G1 X54.123 Y75.210 E16.0161
G1 X54.305 Y75.064 E16.0254
G1 X54.337 Y75.038 E16.0271
G1 X54.628 Y75.420 F9000
G92 E0
G1 X58.314 Y72.668 E0.1836 F2250
G1 X58.339 Y72.650 E0.1848
G1 X58.514 Y72.529 E0.1933
G1 X58.539 Y72.512 E0.1945
G1 X62.439 Y70.021 E0.3792
G1 X62.464 Y70.006 E0.3804
G1 X62.636 Y69.904 E0.3884
G1 X62.661 Y69.890 E0.3895
G1 X67.013 Y67.512 E0.5874
G1 X67.038 Y67.499 E0.5886
G1 X67.216 Y67.410 E0.5965
G1 X67.242 Y67.397 E0.5977
G1 X72.060 Y65.177 E0.8094
G1 X72.086 Y65.165 E0.8105
G1 X72.264 Y65.090 E0.8182
G1 X72.290 Y65.080 E0.8193
G1 X77.085 Y63.244 E1.0243
G1 X77.110 Y63.235 E1.0253
G1 X77.280 Y63.176 E1.0325
G1 X77.305 Y63.168 E1.0336
G1 X82.674 Y61.485 E1.2581
G1 X82.699 Y61.477 E1.2592
G1 X82.875 Y61.428 E1.2665
G1 X82.901 Y61.421 E1.2675
G1 X88.323 Y60.088 E1.4904
G1 X88.347 Y60.082 E1.4914
G1 X88.517 Y60.046 E1.4984
G1 X88.542 Y60.041 E1.4994
G1 X94.133 Y59.016 E1.7262
G1 X94.157 Y59.012 E1.7272
G1 X94.326 Y58.986 E1.7340
G1 X94.350 Y58.982 E1.7350
G1 X100.066 Y58.277 E1.9648
G1 X100.090 Y58.274 E1.9658
G1 X100.258 Y58.258 E1.9726
G1 X100.282 Y58.256 E1.9735
G1 X106.079 Y57.879 E2.2054
G1 X106.104 Y57.878 E2.2064
G1 X106.281 Y57.872 E2.2134
G1 X106.307 Y57.871 E2.2145
G1 X112.766 Y57.843 E2.4723
G1 X112.793 Y57.843 E2.4733
G1 X112.979 Y57.848 E2.4808
