; generated by Slic3r Prusa Edition 1.38.7-prusa3d on 2018-04-25 at 08:42:02

; 

; external perimeters extrusion width = 0.45mm
; perimeters extrusion width = 0.45mm
; infill extrusion width = 0.45mm
; solid infill extrusion width = 0.45mm
; top infill extrusion width = 0.40mm
; first layer extrusion width = 0.42mm

M107
M115 U3.1.1-RC4 ; tell printer latest fw version
M83  ; extruder relative mode
M104 S215 ; set extruder temp
M140 S70 ; set bed temp
M190 S70 ; wait for bed temp
M109 S215 ; wait for extruder temp
G28 W ; home all without mesh bed level
G80 ; mesh bed leveling
G1 Y-3.0 F1000.0 ; go outside print area
G92 E0.0
G1 X60.0 E9.0  F1000.0 ; intro line
G1 X100.0 E12.5  F1000.0 ; intro line
G92 E0.0
M221 S95
M900 K30; Filament gcode
G21 ; set units to millimeters
G90 ; use absolute coordinates
M83 ; use relative distances for extrusion
;BEFORE_LAYER_CHANGE
;0.2
;LAYER:0

G1 E-0.80000 F2100.00000
G1 Z0.600 F15000.000
;AFTER_LAYER_CHANGE
;0.2
G1 X115.812 Y96.171 F15000.000
G1 Z0.200 F15000.000
G1 E0.80000 F2100.00000
M204 S1000
G1 F1200
G1 X117.033 Y95.055 E0.05188
G1 X117.849 Y94.452 E0.03180
G1 X118.708 Y93.920 E0.03167
G1 X120.204 Y93.195 E0.05214
G1 X122.129 Y92.587 E0.06329
G1 X123.765 Y92.319 E0.05201
G1 X124.819 Y92.260 E0.03308
G1 X126.508 Y92.350 E0.05303
G1 X127.506 Y92.508 E0.03167
G1 X128.491 Y92.748 E0.03180
G1 X130.049 Y93.305 E0.05188
G1 X131.836 Y94.251 E0.06342
G1 X133.175 Y95.231 E0.05201
G1 X133.927 Y95.912 E0.03180
G1 X134.620 Y96.652 E0.03180
G1 X135.665 Y98.033 E0.05432
G1 X136.186 Y98.908 E0.03193
G1 X136.880 Y100.406 E0.05175
G1 X137.458 Y102.348 E0.06354
G1 X137.697 Y103.990 E0.05201
G1 X137.738 Y104.999 E0.03167
G1 X137.697 Y106.008 E0.03167
G1 X137.458 Y107.654 E0.05214
G1 X136.880 Y109.592 E0.06342
G1 X136.187 Y111.090 E0.05175
G1 X135.666 Y111.965 E0.03193
G1 X134.622 Y113.347 E0.05432
G1 X133.928 Y114.087 E0.03180
G1 X133.177 Y114.768 E0.03180
G1 X131.835 Y115.750 E0.05214
G1 X130.051 Y116.695 E0.06329
G1 X128.493 Y117.251 E0.05188
G1 X127.508 Y117.492 E0.03180
G1 X126.510 Y117.650 E0.03167
G1 X124.817 Y117.740 E0.05316
G1 X123.763 Y117.681 E0.03308
G1 X122.127 Y117.413 E0.05201
G1 X120.195 Y116.801 E0.06354
G1 X118.706 Y116.079 E0.05188
G1 X117.840 Y115.542 E0.03193
G1 X117.029 Y114.941 E0.03167
G1 X115.759 Y113.775 E0.05406
G1 X115.083 Y113.002 E0.03218
G1 X114.127 Y111.646 E0.05201
G1 X113.216 Y109.850 E0.06316
G1 X112.684 Y108.274 E0.05214
G1 X112.463 Y107.289 E0.03167
G1 X112.322 Y106.289 E0.03167
G1 X112.262 Y104.639 E0.05175
G1 X112.480 Y102.625 E0.06354
G1 X112.895 Y101.019 E0.05201
G1 X113.247 Y100.072 E0.03167
G1 X113.675 Y99.157 E0.03167
G1 X114.533 Y97.732 E0.05214
G1 X115.774 Y96.218 E0.06141
G1 X116.064 Y96.455 F15000.000
G1 F1200
G1 X117.277 Y95.343 E0.05160
G1 X118.059 Y94.765 E0.03050
G1 X118.883 Y94.254 E0.03038
G1 X120.352 Y93.542 E0.05118
G1 X122.201 Y92.957 E0.06082
G1 X123.808 Y92.694 E0.05106
G1 X124.821 Y92.637 E0.03181
G1 X126.474 Y92.725 E0.05189
G1 X127.434 Y92.878 E0.03050
G1 X128.379 Y93.108 E0.03050
G1 X129.909 Y93.655 E0.05094
G1 X131.627 Y94.565 E0.06094
G1 X132.941 Y95.527 E0.05106
G1 X133.664 Y96.182 E0.03062
G1 X134.330 Y96.892 E0.03051
G1 X135.351 Y98.242 E0.05308
G1 X135.851 Y99.081 E0.03062
G1 X136.532 Y100.552 E0.05082
G1 X137.088 Y102.418 E0.06106
G1 X137.322 Y104.030 E0.05106
G1 X137.361 Y105.002 E0.03050
G1 X137.322 Y105.970 E0.03038
G1 X137.088 Y107.581 E0.05106
G1 X136.532 Y109.448 E0.06107
G1 X135.851 Y110.919 E0.05081
G1 X135.351 Y111.758 E0.03062
G1 X134.787 Y112.550 E0.03050
G1 X133.665 Y113.817 E0.05308
G1 X132.941 Y114.473 E0.03062
G1 X131.627 Y115.435 E0.05106
G1 X129.910 Y116.345 E0.06094
G1 X128.380 Y116.892 E0.05094
G1 X127.435 Y117.122 E0.03050
G1 X126.474 Y117.275 E0.03050
G1 X124.817 Y117.363 E0.05201
G1 X123.808 Y117.306 E0.03169
G1 X122.201 Y117.043 E0.05106
G1 X120.345 Y116.455 E0.06106
G1 X118.883 Y115.746 E0.05094
G1 X118.053 Y115.231 E0.03062
G1 X117.271 Y114.652 E0.03051
G1 X116.030 Y113.513 E0.05284
G1 X115.382 Y112.772 E0.03085
G1 X114.444 Y111.441 E0.05106
G1 X113.566 Y109.711 E0.06082
G1 X113.046 Y108.168 E0.05106
G1 X112.834 Y107.222 E0.03038
G1 X112.698 Y106.259 E0.03050
G1 X112.639 Y104.639 E0.05082
G1 X112.849 Y102.703 E0.06106
G1 X113.256 Y101.127 E0.05106
G1 X113.594 Y100.219 E0.03038
G1 X114.006 Y99.338 E0.03050
G1 X114.846 Y97.942 E0.05106
G1 X116.026 Y96.502 E0.05839
G1 F12000
G1 X117.277 Y95.343 E-0.28350
G1 F12000
G1 X118.059 Y94.765 E-0.16170
G1 F12000
G1 X118.883 Y94.254 E-0.16107
G1 F12000
G1 X119.715 Y93.851 E-0.15373
G1 E-0.04000 F2100.00000
G1 Z0.800 F15000.000
G1 X123.453 Y103.592 F15000.000
G1 Z0.200 F15000.000
G1 E0.80000 F2100.00000
G1 F1200
G1 X123.737 Y103.332 E0.01209
G1 X124.065 Y103.129 E0.01209
G1 X124.425 Y102.990 E0.01209
G1 X124.804 Y102.919 E0.01209
G1 X125.190 Y102.919 E0.01209
G1 X125.569 Y102.990 E0.01209
G1 X125.928 Y103.129 E0.01209
G1 X126.256 Y103.332 E0.01209
G1 X126.541 Y103.592 E0.01209
G1 X126.773 Y103.900 E0.01209
G1 X126.945 Y104.245 E0.01209
G1 X127.051 Y104.616 E0.01209
G1 X127.086 Y105.000 E0.01209
G1 X127.051 Y105.384 E0.01209
G1 X126.945 Y105.755 E0.01209
G1 X126.773 Y106.100 E0.01209
G1 X126.541 Y106.408 E0.01209
G1 X126.256 Y106.668 E0.01209
G1 X125.928 Y106.871 E0.01209
G1 X125.569 Y107.010 E0.01209
G1 X125.190 Y107.081 E0.01209
G1 X124.804 Y107.081 E0.01209
G1 X124.425 Y107.010 E0.01209
G1 X124.065 Y106.871 E0.01209
G1 X123.737 Y106.668 E0.01209
G1 X123.453 Y106.408 E0.01209
G1 X123.220 Y106.100 E0.01209
G1 X123.048 Y105.755 E0.01209
G1 X122.943 Y105.384 E0.01209
G1 X122.907 Y105.000 E0.01209
G1 X122.943 Y104.616 E0.01209
G1 X123.048 Y104.245 E0.01209
G1 X123.220 Y103.900 E0.01209
G1 X123.416 Y103.640 E0.01021
G1 X123.717 Y103.867 F15000.000
G1 F1200
G1 X123.966 Y103.635 E0.01067
G1 X124.234 Y103.468 E0.00990
G1 X124.529 Y103.354 E0.00990
G1 X124.839 Y103.296 E0.00990
G1 X125.155 Y103.296 E0.00990
G1 X125.465 Y103.354 E0.00990
G1 X125.759 Y103.468 E0.00990
G1 X126.028 Y103.635 E0.00990
G1 X126.261 Y103.847 E0.00990
G1 X126.451 Y104.099 E0.00990
G1 X126.592 Y104.382 E0.00990
G1 X126.679 Y104.686 E0.00990
G1 X126.708 Y105.000 E0.00990
G1 X126.679 Y105.314 E0.00990
G1 X126.592 Y105.618 E0.00990
G1 X126.451 Y105.901 E0.00990
G1 X126.261 Y106.153 E0.00990
G1 X126.028 Y106.365 E0.00990
G1 X125.759 Y106.532 E0.00990
G1 X125.465 Y106.646 E0.00990
G1 X125.155 Y106.704 E0.00990
G1 X124.839 Y106.704 E0.00990
G1 X124.529 Y106.646 E0.00990
G1 X124.234 Y106.532 E0.00990
G1 X123.966 Y106.365 E0.00990
G1 X123.732 Y106.153 E0.00990
G1 X123.542 Y105.901 E0.00990
G1 X123.401 Y105.618 E0.00990
G1 X123.315 Y105.314 E0.00990
G1 X123.286 Y105.000 E0.00990
G1 X123.315 Y104.686 E0.00990
G1 X123.401 Y104.382 E0.00990
G1 X123.542 Y104.099 E0.00990
G1 X123.681 Y103.915 E0.00723
G1 X123.611 Y103.544 F15000.000
G1 F12000
G1 X123.966 Y103.635 E-0.06644
G1 F12000
G1 X124.234 Y103.468 E-0.05249
G1 F12000
G1 X124.529 Y103.354 E-0.05249
G1 F12000
G1 X124.839 Y103.296 E-0.05249
G1 F12000
G1 X125.155 Y103.296 E-0.05249
G1 F12000
G1 X125.465 Y103.354 E-0.05249
G1 F12000
G1 X125.759 Y103.468 E-0.05249
G1 F12000
G1 X126.028 Y103.635 E-0.05249
G1 F12000
G1 X126.261 Y103.847 E-0.05249
G1 F12000
G1 X126.451 Y104.099 E-0.05249
G1 F12000
G1 X126.592 Y104.382 E-0.05249
G1 F12000
G1 X126.679 Y104.686 E-0.05249
G1 F12000
G1 X126.708 Y105.000 E-0.05249
G1 F12000
G1 X126.679 Y105.314 E-0.05249
G1 F12000
G1 X126.660 Y105.379 E-0.01120
G1 E-0.04000 F2100.00000
G1 Z0.800 F15000.000
G1 X117.911 Y98.832 F15000.000
G1 Z0.200 F15000.000
G1 E0.80000 F2100.00000
G1 F1200
G1 X118.173 Y98.536 E0.01239
G1 X118.654 Y98.063 E0.02116
G1 X119.296 Y97.532 E0.02611
G1 X119.722 Y97.220 E0.01656
G1 X120.297 Y96.860 E0.02128
G1 X120.896 Y96.542 E0.02128
G1 X121.518 Y96.268 E0.02128
G1 X122.157 Y96.039 E0.02128
G1 X122.811 Y95.858 E0.02128
G1 X123.476 Y95.724 E0.02128
G1 X124.146 Y95.639 E0.02116
G1 X124.978 Y95.604 E0.02611
G1 X125.506 Y95.614 E0.01656
G1 X126.182 Y95.675 E0.02128
G1 X126.851 Y95.785 E0.02128
G1 X127.511 Y95.943 E0.02128
G1 X128.158 Y96.148 E0.02128
G1 X128.789 Y96.399 E0.02128
G1 X129.400 Y96.695 E0.02128
G1 X129.987 Y97.034 E0.02128
G1 X130.549 Y97.415 E0.02128
G1 X131.082 Y97.836 E0.02128
G1 X131.583 Y98.294 E0.02128
G1 X132.050 Y98.786 E0.02128
G1 X132.480 Y99.311 E0.02128
G1 X132.871 Y99.866 E0.02128
G1 X133.221 Y100.448 E0.02128
G1 X133.528 Y101.053 E0.02128
G1 X133.790 Y101.679 E0.02128
G1 X134.007 Y102.322 E0.02128
G1 X134.177 Y102.979 E0.02128
G1 X134.299 Y103.647 E0.02128
G1 X134.372 Y104.322 E0.02128
G1 X134.397 Y105.000 E0.02128
G1 X134.372 Y105.678 E0.02128
G1 X134.299 Y106.353 E0.02128
G1 X134.177 Y107.021 E0.02128
G1 X134.007 Y107.678 E0.02128
G1 X133.790 Y108.321 E0.02128
G1 X133.528 Y108.947 E0.02128
G1 X133.221 Y109.552 E0.02128
G1 X132.873 Y110.131 E0.02116
G1 X132.384 Y110.805 E0.02611
G1 X132.050 Y111.214 E0.01656
G1 X131.583 Y111.706 E0.02128
G1 X131.082 Y112.164 E0.02128
G1 X130.549 Y112.585 E0.02128
G1 X129.987 Y112.966 E0.02128
G1 X129.400 Y113.305 E0.02128
G1 X128.789 Y113.601 E0.02128
G1 X128.158 Y113.852 E0.02128
G1 X127.511 Y114.057 E0.02128
G1 X126.851 Y114.215 E0.02128
G1 X126.182 Y114.325 E0.02128
G1 X125.506 Y114.386 E0.02128
G1 X124.831 Y114.398 E0.02116
G1 X124.000 Y114.343 E0.02611
G1 X123.476 Y114.276 E0.01656
G1 X122.811 Y114.142 E0.02128
G1 X122.160 Y113.962 E0.02116
G1 X121.380 Y113.671 E0.02611
G1 X120.896 Y113.458 E0.01656
G1 X120.297 Y113.140 E0.02128
G1 X119.722 Y112.780 E0.02128
G1 X119.174 Y112.379 E0.02128
G1 X118.657 Y111.940 E0.02128
G1 X118.173 Y111.464 E0.02128
G1 X117.726 Y110.958 E0.02116
G1 X117.231 Y110.288 E0.02611
G1 X116.942 Y109.846 E0.01656
G1 X116.614 Y109.252 E0.02128
G1 X116.330 Y108.640 E0.02116
G1 X116.046 Y107.857 E0.02611
G1 X115.896 Y107.351 E0.01656
G1 X115.750 Y106.688 E0.02128
G1 X115.652 Y106.016 E0.02128
G1 X115.603 Y105.339 E0.02128
G1 X115.603 Y104.661 E0.02128
G1 X115.652 Y103.984 E0.02128
G1 X115.750 Y103.312 E0.02128
G1 X115.896 Y102.649 E0.02128
G1 X116.089 Y101.999 E0.02128
G1 X116.327 Y101.367 E0.02116
G1 X116.687 Y100.616 E0.02611
G1 X116.942 Y100.154 E0.01656
G1 X117.313 Y99.585 E0.02128
G1 X117.872 Y98.877 E0.02828
G1 X117.589 Y98.628 F15000.000
G1 F1200
G1 X117.899 Y98.276 E0.01470
G1 X118.401 Y97.783 E0.02209
G1 X119.064 Y97.234 E0.02697
G1 X119.510 Y96.908 E0.01734
G1 X120.108 Y96.533 E0.02213
G1 X120.732 Y96.202 E0.02213
G1 X121.378 Y95.917 E0.02213
G1 X122.043 Y95.680 E0.02213
G1 X122.723 Y95.491 E0.02213
G1 X123.415 Y95.352 E0.02213
G1 X124.114 Y95.263 E0.02209
G1 X124.973 Y95.227 E0.02697
G1 X125.526 Y95.237 E0.01734
G1 X126.229 Y95.301 E0.02213
G1 X126.926 Y95.415 E0.02213
G1 X127.612 Y95.579 E0.02213
G1 X128.285 Y95.793 E0.02213
G1 X128.941 Y96.054 E0.02213
G1 X129.576 Y96.362 E0.02213
G1 X130.188 Y96.715 E0.02213
G1 X130.772 Y97.111 E0.02213
G1 X131.326 Y97.548 E0.02213
G1 X131.848 Y98.024 E0.02213
G1 X132.333 Y98.537 E0.02213
G1 X132.780 Y99.083 E0.02213
G1 X133.187 Y99.660 E0.02213
G1 X133.551 Y100.265 E0.02213
G1 X133.870 Y100.895 E0.02213
G1 X134.143 Y101.546 E0.02213
G1 X134.369 Y102.215 E0.02213
G1 X134.545 Y102.898 E0.02213
G1 X134.672 Y103.593 E0.02213
G1 X134.748 Y104.295 E0.02213
G1 X134.774 Y105.000 E0.02213
G1 X134.748 Y105.705 E0.02213
G1 X134.672 Y106.407 E0.02213
G1 X134.545 Y107.102 E0.02213
G1 X134.369 Y107.785 E0.02213
G1 X134.143 Y108.454 E0.02213
G1 X133.870 Y109.105 E0.02213
G1 X133.551 Y109.735 E0.02213
G1 X133.188 Y110.339 E0.02209
G1 X132.683 Y111.035 E0.02697
G1 X132.333 Y111.463 E0.01734
G1 X131.848 Y111.976 E0.02213
G1 X131.326 Y112.452 E0.02213
G1 X130.772 Y112.889 E0.02213
G1 X130.188 Y113.285 E0.02213
G1 X129.576 Y113.638 E0.02213
G1 X128.941 Y113.946 E0.02213
G1 X128.285 Y114.207 E0.02213
G1 X127.612 Y114.421 E0.02213
G1 X126.926 Y114.585 E0.02213
G1 X126.229 Y114.699 E0.02213
G1 X125.526 Y114.763 E0.02213
G1 X124.822 Y114.776 E0.02209
G1 X123.963 Y114.718 E0.02697
G1 X123.415 Y114.648 E0.01734
G1 X122.723 Y114.509 E0.02213
G1 X122.044 Y114.321 E0.02209
G1 X121.238 Y114.021 E0.02697
G1 X120.732 Y113.798 E0.01734
G1 X120.108 Y113.467 E0.02213
G1 X119.510 Y113.092 E0.02213
G1 X118.940 Y112.675 E0.02213
G1 X118.402 Y112.218 E0.02213
G1 X117.899 Y111.724 E0.02213
G1 X117.433 Y111.195 E0.02209
G1 X116.921 Y110.504 E0.02697
G1 X116.619 Y110.041 E0.01734
G1 X116.277 Y109.423 E0.02213
G1 X115.981 Y108.784 E0.02209
G1 X115.688 Y107.975 E0.02697
G1 X115.530 Y107.445 E0.01734
G1 X115.379 Y106.756 E0.02213
G1 X115.277 Y106.057 E0.02213
G1 X115.226 Y105.353 E0.02213
G1 X115.226 Y104.647 E0.02213
G1 X115.277 Y103.943 E0.02213
G1 X115.379 Y103.244 E0.02213
G1 X115.530 Y102.555 E0.02213
G1 X115.731 Y101.878 E0.02213
G1 X115.980 Y101.219 E0.02209
G1 X116.351 Y100.443 E0.02697
G1 X116.619 Y99.959 E0.01734
G1 X117.005 Y99.368 E0.02213
G1 X117.549 Y98.673 E0.02768
G1 X117.983 Y98.695 F15000.000
G1 F12000
G1 X117.899 Y98.276 E-0.08790
G1 F12000
G1 X118.401 Y97.783 E-0.11714
G1 F12000
G1 X119.064 Y97.234 E-0.14298
G1 F12000
G1 X119.510 Y96.908 E-0.09192
G1 F12000
G1 X120.108 Y96.533 E-0.11737
G1 F12000
G1 X120.732 Y96.202 E-0.11737
G1 F12000
G1 X121.202 Y95.995 E-0.08533
G1 E-0.04000 F2100.00000
G1 Z0.800 F15000.000
G1 X116.592 Y101.470 F15000.000
G1 Z0.200 F15000.000
G1 E0.80000 F2100.00000
G1 F1200
G1 X116.584 Y101.488 E0.00061
G1 X116.399 Y101.977 F15000.000
G1 F1200
G1 X116.302 Y102.276 E0.00986
G1 X116.292 Y102.308 F15000.000
G1 F1200
G1 X116.108 Y103.016 E0.02294
G1 X115.980 Y103.759 E0.02364
G1 X115.939 Y104.134 E0.01182
G1 X115.903 Y104.887 E0.02364
G1 X115.930 Y105.641 E0.02364
G1 X116.019 Y106.390 E0.02364
G1 X116.170 Y107.129 E0.02364
G1 X116.268 Y107.493 E0.01182
G1 X116.510 Y108.207 E0.02364
G1 X116.810 Y108.899 E0.02364
G1 X116.982 Y109.235 E0.01182
G1 X117.365 Y109.884 E0.02364
G1 X117.802 Y110.499 E0.02364
G1 X118.288 Y111.075 E0.02364
G1 X118.821 Y111.609 E0.02364
G1 X119.103 Y111.859 E0.01182
G1 X119.698 Y112.322 E0.02364
G1 X120.329 Y112.734 E0.02364
G1 X120.657 Y112.920 E0.01182
G1 X121.335 Y113.251 E0.02364
G1 X122.038 Y113.523 E0.02364
G1 X122.762 Y113.736 E0.02364
G1 X123.130 Y113.819 E0.01182
G1 X123.874 Y113.940 E0.02364
G1 X124.626 Y113.997 E0.02364
G1 X125.380 Y113.992 E0.02364
G1 X126.131 Y113.924 E0.02364
G1 X126.503 Y113.866 E0.01182
G1 X127.240 Y113.704 E0.02364
G1 X127.602 Y113.600 E0.01182
G1 X128.313 Y113.347 E0.02364
G1 X128.659 Y113.198 E0.01182
G1 X129.332 Y112.857 E0.02364
G1 X129.657 Y112.666 E0.01182
G1 X130.282 Y112.244 E0.02364
G1 X130.869 Y111.770 E0.02364
G1 X131.147 Y111.516 E0.01182
G1 X131.669 Y110.972 E0.02364
G1 X132.144 Y110.386 E0.02364
G1 X132.363 Y110.079 E0.01182
G1 X132.760 Y109.438 E0.02364
G1 X133.102 Y108.766 E0.02364
G1 X133.386 Y108.068 E0.02364
G1 X133.610 Y107.348 E0.02364
G1 X133.699 Y106.981 E0.01182
G1 X133.830 Y106.239 E0.02364
G1 X133.898 Y105.488 E0.02364
G1 X133.903 Y104.734 E0.02364
G1 X133.843 Y103.982 E0.02364
G1 X133.790 Y103.609 E0.01182
G1 X133.635 Y102.871 E0.02364
G1 X133.419 Y102.148 E0.02364
G1 X133.142 Y101.447 E0.02364
G1 X132.807 Y100.771 E0.02364
G1 X132.416 Y100.127 E0.02364
G1 X131.971 Y99.518 E0.02364
G1 X131.730 Y99.228 E0.01182
G1 X131.476 Y98.949 E0.01182
G1 X130.935 Y98.424 E0.02364
G1 X130.351 Y97.947 E0.02364
G1 X130.044 Y97.727 E0.01182
G1 X129.404 Y97.329 E0.02364
G1 X128.732 Y96.986 E0.02364
G1 X128.034 Y96.702 E0.02364
G1 X127.676 Y96.582 E0.01182
G1 X126.947 Y96.390 E0.02364
G1 X126.577 Y96.317 E0.01182
G1 X125.829 Y96.219 E0.02364
G1 X125.453 Y96.194 E0.01182
G1 X124.699 Y96.193 E0.02364
G1 X123.948 Y96.256 E0.02364
G1 X123.204 Y96.383 E0.02364
G1 X122.838 Y96.471 E0.01182
G1 X122.117 Y96.692 E0.02364
G1 X121.764 Y96.826 E0.01182
G1 X121.078 Y97.138 E0.02364
G1 X120.745 Y97.315 E0.01182
G1 X120.104 Y97.713 E0.02364
G1 X119.797 Y97.932 E0.01182
G1 X119.213 Y98.409 E0.02364
G1 X118.937 Y98.666 E0.01182
G1 X118.419 Y99.213 E0.02364
G1 X118.178 Y99.504 E0.01182
G1 X117.735 Y100.114 E0.02364
G1 X117.533 Y100.432 E0.01182
G1 X117.172 Y101.095 E0.02364
G1 X116.870 Y101.785 E0.02364
G1 X116.628 Y102.499 E0.02364
G1 X116.530 Y102.864 E0.01182
G1 X116.383 Y103.603 E0.02364
